; generated by Slic3r 1.3.0 on 2022-02-04 at 09:37:56

; external perimeters extrusion width = 0.55mm (4.37mm^3/s)
; perimeters extrusion width = 0.70mm (9.53mm^3/s)
; infill extrusion width = 0.62mm (10.09mm^3/s)
; solid infill extrusion width = 0.70mm (8.58mm^3/s)
; top infill extrusion width = 0.70mm (5.72mm^3/s)

M107
M104 S205 ; set temperature
G28 ; home all axes
G1 Z5 F5000 ; lift nozzle

; Filament gcode

M109 S205 ; set temperature and wait for it to be reached
G21 ; set units to millimeters
G90 ; use absolute coordinates
M82 ; use absolute distances for extrusion
G92 E0
G1 Z0.300 F8400.000
G1 E-2.00000 F2400.00000
G92 E0
G1 X49.238 Y17.739 F8400.000
G1 E2.00000 F2400.00000
G1 F900
G1 X50.100 Y15.385 E2.06763
G1 X51.656 Y13.419 E2.13527
G1 X53.749 Y12.038 E2.20290
G1 X57.000 Y11.339 E2.29261
G1 X143.000 Y11.339 E4.61260
G1 X145.475 Y11.737 E4.68023
G1 X147.702 Y12.889 E4.74786
G1 X149.456 Y14.681 E4.81549
G1 X150.762 Y17.739 E4.90521
G1 X155.762 Y43.493 E5.61294
G1 X155.907 Y45.000 E5.65378
G1 X155.907 Y185.000 E9.43049
G1 X155.637 Y187.046 E9.48617
G1 X154.968 Y189.546 E9.55599
G1 X153.943 Y191.835 E9.62363
G1 X152.921 Y193.091 E9.66731
G1 X151.089 Y194.923 E9.73721
G1 X149.057 Y196.392 E9.80484
G1 X147.546 Y196.968 E9.84845
G1 X145.045 Y197.638 E9.91831
G1 X143.000 Y197.907 E9.97396
G1 X57.000 Y197.907 E12.29394
G1 X54.954 Y197.637 E12.34962
G1 X52.454 Y196.968 E12.41944
G1 X50.165 Y195.943 E12.48707
G1 X48.909 Y194.921 E12.53076
G1 X47.079 Y193.091 E12.60058
G1 X45.610 Y191.060 E12.66821
G1 X45.032 Y189.546 E12.71190
G1 X44.362 Y187.045 E12.78177
G1 X44.093 Y185.000 E12.83741
G1 X44.093 Y45.000 E16.61412
G1 X44.238 Y43.493 E16.65496
G1 X49.224 Y17.813 E17.36066
G1 X49.862 Y17.860 F8400.000
G1 F900
G1 X50.704 Y15.609 E17.42550
G1 X52.233 Y13.755 E17.49034
G1 X54.284 Y12.501 E17.55518
G1 X57.000 Y11.975 E17.62981
G1 X143.000 Y11.975 E19.94979
G1 X145.370 Y12.372 E20.01463
G1 X147.482 Y13.520 E20.07947
G1 X149.104 Y15.294 E20.14431
G1 X150.138 Y17.860 E20.21894
G1 X155.138 Y43.614 E20.92667
G1 X155.271 Y45.000 E20.96423
G1 X155.271 Y185.000 E24.74094
G1 X155.023 Y186.882 E24.79215
G1 X154.354 Y189.382 E24.86197
G1 X153.356 Y191.569 E24.92681
G1 X152.472 Y192.642 E24.96431
G1 X150.640 Y194.474 E25.03421
G1 X148.682 Y195.868 E25.09905
G1 X147.382 Y196.354 E25.13648
G1 X144.881 Y197.024 E25.20634
G1 X143.000 Y197.271 E25.25751
G1 X57.000 Y197.271 E27.57749
G1 X55.118 Y197.023 E27.62870
G1 X52.618 Y196.354 E27.69852
G1 X50.431 Y195.356 E27.76336
G1 X49.358 Y194.472 E27.80087
G1 X47.528 Y192.642 E27.87069
G1 X46.133 Y190.684 E27.93553
G1 X45.646 Y189.382 E27.97304
G1 X44.976 Y186.880 E28.04290
G1 X44.729 Y185.000 E28.09407
G1 X44.729 Y45.000 E31.87078
G1 X44.862 Y43.614 E31.90834
G1 X49.848 Y17.934 E32.61404
G1 X50.486 Y17.981 F8400.000
G1 F900
G1 X51.307 Y15.838 E32.67596
G1 X52.808 Y14.102 E32.73788
G1 X54.812 Y12.981 E32.79980
G1 X57.000 Y12.610 E32.85968
G1 X143.000 Y12.610 E35.17966
G1 X145.261 Y13.007 E35.24158
G1 X147.251 Y14.151 E35.30350
G1 X148.733 Y15.904 E35.36542
G1 X149.514 Y17.981 E35.42529
G1 X154.514 Y43.735 E36.13302
G1 X154.636 Y45.000 E36.16729
G1 X154.636 Y185.000 E39.94401
G1 X154.410 Y186.717 E39.99074
G1 X153.740 Y189.217 E40.06056
G1 X152.771 Y191.298 E40.12248
G1 X152.022 Y192.192 E40.15393
G1 X150.190 Y194.024 E40.22382
G1 X148.311 Y195.341 E40.28574
G1 X147.217 Y195.740 E40.31713
G1 X144.716 Y196.410 E40.38698
G1 X143.000 Y196.636 E40.43368
G1 X57.000 Y196.636 E42.75366
G1 X55.283 Y196.410 E42.80039
G1 X52.783 Y195.740 E42.87021
G1 X50.702 Y194.771 E42.93213
G1 X49.808 Y194.022 E42.96358
G1 X47.978 Y192.192 E43.03340
G1 X46.660 Y190.313 E43.09532
G1 X46.260 Y189.217 E43.12678
G1 X45.590 Y186.716 E43.19663
G1 X45.364 Y185.000 E43.24333
G1 X45.364 Y45.000 E47.02004
G1 X45.486 Y43.735 E47.05431
G1 X50.472 Y18.055 E47.76002
G1 E45.76002 F2400.00000
G92 E0
G1 X107.529 Y36.471 F8400.000
G1 E2.00000 F2400.00000
G1 F900
G1 X141.529 Y36.471 E2.91720
G1 X141.529 Y41.129 E3.04285
G1 X144.738 Y41.989 E3.13249
G1 X146.011 Y43.262 E3.18104
G1 X146.529 Y45.194 E3.23500
G1 X146.529 Y184.806 E7.00127
G1 X146.011 Y186.738 E7.05523
G1 X144.738 Y188.011 E7.10378
G1 X142.806 Y188.529 E7.15774
G1 X57.194 Y188.529 E9.46727
G1 X55.262 Y188.011 E9.52123
G1 X53.989 Y186.738 E9.56978
G1 X53.471 Y184.806 E9.62374
G1 X53.471 Y45.194 E13.39001
G1 X53.989 Y43.262 E13.44397
G1 X55.252 Y41.998 E13.49216
G1 X58.471 Y41.125 E13.58213
G1 X58.471 Y36.471 E13.70769
G1 X92.471 Y36.471 E14.62489
G1 X92.471 Y20.717 E15.04988
G1 X93.529 Y20.717 E15.07841
G1 X93.529 Y41.471 E15.63828
G1 X106.471 Y41.471 E15.98743
G1 X106.471 Y20.717 E16.54730
G1 X107.529 Y20.717 E16.57583
G1 X107.529 Y36.396 E16.99880
G1 X108.164 Y35.836 F8400.000
G1 F900
G1 X140.836 Y35.836 E17.88015
G1 X140.836 Y20.082 E18.30514
G1 X142.164 Y20.082 E18.34099
G1 X142.164 Y40.641 E18.89562
G1 X145.067 Y41.419 E18.97670
G1 X146.581 Y42.933 E19.03444
G1 X147.164 Y45.110 E19.09525
G1 X147.164 Y184.890 E22.86603
G1 X146.581 Y187.067 E22.92684
G1 X145.067 Y188.581 E22.98458
G1 X142.890 Y189.164 E23.04539
G1 X57.110 Y189.164 E25.35944
G1 X54.933 Y188.581 E25.42025
G1 X53.419 Y187.067 E25.47799
G1 X52.836 Y184.890 E25.53880
G1 X52.836 Y45.110 E29.30958
G1 X53.419 Y42.933 E29.37039
G1 X54.923 Y41.429 E29.42775
G1 X57.836 Y40.639 E29.50917
G1 X57.836 Y20.082 E30.06375
G1 X59.164 Y20.082 E30.09960
G1 X59.164 Y35.836 E30.52459
G1 X91.836 Y35.836 E31.40594
G1 X91.836 Y20.082 E31.83093
G1 X94.164 Y20.082 E31.89376
G1 X94.164 Y40.836 E32.45363
G1 X105.836 Y40.836 E32.76848
G1 X105.836 Y20.082 E33.32835
G1 X108.164 Y20.082 E33.39117
G1 X108.164 Y35.761 E33.81414
G1 X108.725 Y35.275 F8400.000
G1 F540
G1 X140.275 Y35.275 E34.46440
G1 X140.275 Y19.521 E34.78909
G1 X142.725 Y19.521 E34.83959
G1 X142.725 Y40.211 E35.26602
G1 X145.358 Y40.916 E35.32219
G1 X147.084 Y42.642 E35.37250
G1 X147.725 Y45.036 E35.42358
G1 X147.725 Y184.964 E38.30753
G1 X147.084 Y187.358 E38.35861
G1 X145.358 Y189.084 E38.40892
G1 X142.964 Y189.725 E38.46000
G1 X57.036 Y189.725 E40.23099
G1 X54.642 Y189.084 E40.28207
G1 X52.916 Y187.358 E40.33238
G1 X52.275 Y184.964 E40.38346
G1 X52.275 Y45.036 E43.26741
G1 X52.916 Y42.642 E43.31849
G1 X54.632 Y40.927 E43.36848
G1 X57.275 Y40.210 E43.42493
G1 X57.275 Y19.521 E43.85135
G1 X59.725 Y19.521 E43.90184
G1 X59.725 Y35.275 E44.22654
G1 X91.275 Y35.275 E44.87679
G1 X91.275 Y19.521 E45.20149
G1 X94.725 Y19.521 E45.27260
G1 X94.725 Y40.275 E45.70035
G1 X105.275 Y40.275 E45.91779
G1 X105.275 Y19.521 E46.34553
G1 X108.725 Y19.521 E46.41664
G1 X108.725 Y35.200 E46.73979
G1 X108.761 Y35.774 F8400.000
G1 E44.73979 F2400.00000
G92 E0
G1 X107.000 Y36.789 F8400.000
G1 E2.00000 F2400.00000
G1 F360
G1 X107.000 Y21.035 E2.23905
G1 E0.23905 F2400.00000
G92 E0
G1 X93.000 Y21.035 F8400.000
G1 E2.00000 F2400.00000
G1 F360
G1 X93.000 Y36.789 E2.23905
G1 E0.23905 F2400.00000
G92 E0
G1 X58.500 Y36.153 F8400.000
G1 E2.00000 F2400.00000
G1 F360
G1 X58.500 Y20.399 E2.42040
G1 E0.42040 F2400.00000
G92 E0
G1 X59.174 Y37.039 F8400.000
G1 E2.00000 F2400.00000
G1 F810
G1 X59.039 Y37.174 E2.00516
G1 X59.039 Y38.074 E2.02943
G1 X60.074 Y37.039 E2.06892
G1 X60.973 Y37.039 E2.09319
G1 X59.039 Y38.973 E2.16701
G1 X59.039 Y39.873 E2.19128
G1 X61.873 Y37.039 E2.29943
G1 X62.772 Y37.039 E2.32370
G1 X59.039 Y40.772 E2.46618
G1 X59.039 Y41.671 E2.49045
G1 X63.671 Y37.039 E2.66726
G1 X64.571 Y37.039 E2.69153
G1 X54.039 Y47.571 E3.09352
G1 X54.039 Y48.470 E3.11779
G1 X65.470 Y37.039 E3.55411
G1 X66.370 Y37.039 E3.57839
G1 X54.039 Y49.369 E4.04904
G1 X54.039 Y50.269 E4.07331
G1 X67.269 Y37.039 E4.57829
G1 X68.168 Y37.039 E4.60256
G1 X54.039 Y51.168 E5.14187
G1 X54.039 Y52.068 E5.16615
G1 X69.068 Y37.039 E5.73978
G1 X69.967 Y37.039 E5.76406
G1 X54.039 Y52.967 E6.37202
G1 X54.039 Y53.866 E6.39630
G1 X70.866 Y37.039 E7.03860
G1 X71.766 Y37.039 E7.06287
G1 X54.039 Y54.766 E7.73950
G1 X54.039 Y55.665 E7.76377
G1 X72.665 Y37.039 E8.47473
G1 X73.565 Y37.039 E8.49900
G1 X54.039 Y56.565 E9.24429
G1 X54.039 Y57.464 E9.26857
G1 X74.464 Y37.039 E10.04818
G1 X75.363 Y37.039 E10.07246
G1 X54.039 Y58.363 E10.88640
G1 X54.039 Y59.263 E10.91068
G1 X76.263 Y37.039 E11.75895
G1 X77.162 Y37.039 E11.78323
G1 X54.039 Y60.162 E12.66584
G1 X54.039 Y61.061 E12.69011
G1 X78.061 Y37.039 E13.60705
G1 X78.961 Y37.039 E13.63132
G1 X54.039 Y61.961 E14.58259
G1 X54.039 Y62.860 E14.60686
G1 X79.860 Y37.039 E15.59246
G1 X80.760 Y37.039 E15.61673
G1 X54.039 Y63.760 E16.63666
G1 X54.039 Y64.659 E16.66093
G1 X81.659 Y37.039 E17.71519
G1 X82.558 Y37.039 E17.73946
G1 X54.039 Y65.558 E18.82805
G1 X54.039 Y66.458 E18.85232
G1 X83.458 Y37.039 E19.97524
G1 X84.357 Y37.039 E19.99951
G1 X54.039 Y67.357 E21.15676
G1 X54.039 Y68.256 E21.18103
G1 X85.256 Y37.039 E22.37260
G1 X86.156 Y37.039 E22.39688
G1 X54.039 Y69.156 E23.62278
G1 X54.039 Y70.055 E23.64706
G1 X87.055 Y37.039 E24.90729
G1 X87.955 Y37.039 E24.93157
G1 X54.039 Y70.955 E26.22613
G1 X54.039 Y71.854 E26.25041
G1 X88.854 Y37.039 E27.57930
G1 X89.753 Y37.039 E27.60357
G1 X54.039 Y72.753 E28.96680
G1 X54.039 Y73.653 E28.99107
G1 X90.653 Y37.039 E30.38863
G1 X91.552 Y37.039 E30.41290
G1 X54.039 Y74.552 E31.84478
G1 X54.039 Y75.451 E31.86906
G1 X92.221 Y37.270 E33.32647
G1 X92.221 Y37.357 E33.32883
G1 X92.961 Y37.357 E33.34879
G1 X92.961 Y37.430 E33.35075
G1 X54.039 Y76.351 E34.83639
G1 X54.039 Y77.250 E34.86067
G1 X92.961 Y38.329 E36.34632
G1 X92.961 Y39.228 E36.37059
G1 X54.039 Y78.150 E37.85624
G1 X54.039 Y79.049 E37.88052
G1 X92.961 Y40.128 E39.36616
G1 X92.961 Y41.027 E39.39044
G1 X54.039 Y79.948 E40.87609
G1 X54.039 Y80.848 E40.90036
G1 X92.961 Y41.927 E42.38601
G1 X92.961 Y42.039 E42.38906
G1 X93.747 Y42.039 E42.41028
G1 X54.039 Y81.747 E43.92595
G1 X54.039 Y82.646 E43.95023
G1 X94.646 Y42.039 E45.50023
G1 X95.546 Y42.039 E45.52450
G1 X54.039 Y83.546 E47.10883
G1 X54.039 Y84.445 E47.13310
G1 X96.445 Y42.039 E48.75176
G1 X97.345 Y42.039 E48.77604
G1 X54.039 Y85.345 E50.42902
G1 X54.039 Y86.244 E50.45330
G1 X98.244 Y42.039 E52.14062
G1 X99.143 Y42.039 E52.16489
G1 X54.039 Y87.143 E53.88654
G1 X54.039 Y88.043 E53.91081
G1 X100.043 Y42.039 E55.66679
G1 X100.942 Y42.039 E55.69106
G1 X54.039 Y88.942 E57.48137
G1 X54.039 Y89.841 E57.50565
G1 X101.841 Y42.039 E59.33028
G1 X102.741 Y42.039 E59.35456
G1 X54.039 Y90.741 E61.21352
G1 X54.039 Y91.640 E61.23780
G1 X103.640 Y42.039 E63.13110
G1 X104.540 Y42.039 E63.15537
G1 X54.039 Y92.540 E65.08300
G1 X54.039 Y93.439 E65.10727
G1 X105.439 Y42.039 E67.06923
G1 X106.338 Y42.039 E67.09350
G1 X54.039 Y94.338 E69.08979
G1 X54.039 Y95.238 E69.11406
G1 X112.238 Y37.039 E71.33553
G1 X113.137 Y37.039 E71.35981
G1 X54.039 Y96.137 E73.61561
G1 X54.039 Y97.036 E73.63988
G1 X114.036 Y37.039 E75.93001
G1 X114.936 Y37.039 E75.95428
G1 X54.039 Y97.936 E78.27874
G1 X54.039 Y98.835 E78.30302
G1 X115.835 Y37.039 E80.66181
G1 X116.735 Y37.039 E80.68608
G1 X54.039 Y99.735 E83.07920
G1 X54.039 Y100.634 E83.10347
G1 X117.634 Y37.039 E85.53092
G1 X118.533 Y37.039 E85.55520
G1 X54.039 Y101.533 E88.01697
G1 X54.039 Y102.433 E88.04125
G1 X119.433 Y37.039 E90.53736
G1 X120.332 Y37.039 E90.56163
G1 X54.039 Y103.332 E93.09207
G1 X54.039 Y104.231 E93.11635
G1 X121.231 Y37.039 E95.68111
G1 X122.131 Y37.039 E95.70539
G1 X54.039 Y105.131 E98.30448
G1 X54.039 Y106.030 E98.32876
G1 X123.030 Y37.039 E100.96219
G1 X123.930 Y37.039 E100.98646
G1 X54.039 Y106.930 E103.65422
G1 X54.039 Y107.829 E103.67849
G1 X124.829 Y37.039 E106.38058
G1 X125.728 Y37.039 E106.40486
G1 X54.039 Y108.728 E109.14127
G1 X54.039 Y109.628 E109.16555
G1 X126.628 Y37.039 E111.93629
G1 X127.527 Y37.039 E111.96057
G1 X54.039 Y110.527 E114.76564
G1 X54.039 Y111.426 E114.78992
G1 X128.426 Y37.039 E117.62933
G1 X129.326 Y37.039 E117.65360
G1 X54.039 Y112.326 E120.52734
G1 X54.039 Y113.225 E120.55161
G1 X130.225 Y37.039 E123.45968
G1 X131.125 Y37.039 E123.48395
G1 X54.039 Y114.125 E126.42635
G1 X54.039 Y115.024 E126.45062
G1 X132.024 Y37.039 E129.42735
G1 X132.923 Y37.039 E129.45162
G1 X54.039 Y115.923 E132.46268
G1 X54.039 Y116.823 E132.48695
G1 X133.823 Y37.039 E135.53234
G1 X134.722 Y37.039 E135.55661
G1 X54.039 Y117.722 E138.63633
G1 X54.039 Y118.621 E138.66060
G1 X135.621 Y37.039 E141.77465
G1 X136.521 Y37.039 E141.79892
G1 X54.039 Y119.521 E144.94730
G1 X54.039 Y120.420 E144.97157
G1 X137.420 Y37.039 E148.15428
G1 X138.320 Y37.039 E148.17855
G1 X54.039 Y121.320 E151.39559
G1 X54.039 Y122.219 E151.41986
G1 X139.219 Y37.039 E154.67122
G1 X140.118 Y37.039 E154.69550
G1 X54.039 Y123.118 E157.98119
G1 X54.039 Y124.018 E158.00547
G1 X140.961 Y37.097 E161.32331
G1 X140.961 Y37.996 E161.34758
G1 X54.039 Y124.917 E164.66543
G1 X54.039 Y125.816 E164.68970
G1 X140.961 Y38.895 E168.00754
G1 X140.961 Y39.795 E168.03182
G1 X54.039 Y126.716 E171.34966
G1 X54.039 Y127.615 E171.37394
G1 X140.961 Y40.694 E174.69178
G1 X140.961 Y41.549 E174.71486
G1 X140.995 Y41.559 E174.71583
G1 X54.039 Y128.515 E178.03501
G1 X54.039 Y129.414 E178.05928
G1 X141.705 Y41.749 E181.40553
G1 X142.414 Y41.939 E181.42535
G1 X54.039 Y130.313 E184.79867
G1 X54.039 Y131.213 E184.82295
G1 X143.123 Y42.129 E188.22335
G1 X143.833 Y42.319 E188.24317
G1 X54.039 Y132.112 E191.67064
G1 X54.039 Y133.011 E191.69492
G1 X144.518 Y42.533 E195.14856
G1 X144.968 Y42.982 E195.16572
G1 X54.039 Y133.911 E198.63652
G1 X54.039 Y134.810 E198.66080
G1 X145.418 Y43.432 E202.14877
G1 X145.509 Y43.523 E202.15224
G1 X145.660 Y44.089 E202.16805
G1 X54.039 Y135.710 E205.66528
G1 X54.039 Y136.609 E205.68955
G1 X145.850 Y44.798 E209.19404
G1 X145.961 Y45.210 E209.20554
G1 X145.961 Y45.587 E209.21573
G1 X54.039 Y137.508 E212.72442
G1 X54.039 Y138.408 E212.74870
G1 X145.961 Y46.487 E216.25739
G1 X145.961 Y47.386 E216.28167
G1 X54.039 Y139.307 E219.79036
G1 X54.039 Y140.206 E219.81464
G1 X145.961 Y48.285 E223.32333
G1 X145.961 Y49.185 E223.34761
G1 X54.039 Y141.106 E226.85630
G1 X54.039 Y142.005 E226.88058
G1 X145.961 Y50.084 E230.38927
G1 X145.961 Y50.983 E230.41355
G1 X54.039 Y142.905 E233.92224
G1 X54.039 Y143.804 E233.94652
G1 X145.961 Y51.883 E237.45522
G1 X145.961 Y52.782 E237.47949
G1 X54.039 Y144.703 E240.98819
G1 X54.039 Y145.603 E241.01246
G1 X145.961 Y53.682 E244.52116
G1 X145.961 Y54.581 E244.54543
G1 X54.039 Y146.502 E248.05413
G1 X54.039 Y147.401 E248.07840
G1 X145.961 Y55.480 E251.58710
G1 X145.961 Y56.380 E251.61137
G1 X54.039 Y148.301 E255.12007
G1 X54.039 Y149.200 E255.14434
G1 X145.961 Y57.279 E258.65304
G1 X145.961 Y58.178 E258.67731
G1 X54.039 Y150.100 E262.18601
G1 X54.039 Y150.999 E262.21028
G1 X145.961 Y59.078 E265.71898
G1 X145.961 Y59.977 E265.74325
G1 X54.039 Y151.898 E269.25195
G1 X54.039 Y152.798 E269.27622
G1 X145.961 Y60.877 E272.78492
G1 X145.961 Y61.776 E272.80919
G1 X54.039 Y153.697 E276.31789
G1 X54.039 Y154.596 E276.34216
G1 X145.961 Y62.675 E279.85086
G1 X145.961 Y63.575 E279.87513
G1 X54.039 Y155.496 E283.38383
G1 X54.039 Y156.395 E283.40810
G1 X145.961 Y64.474 E286.91680
G1 X145.961 Y65.373 E286.94108
G1 X54.039 Y157.295 E290.44977
G1 X54.039 Y158.194 E290.47405
G1 X145.961 Y66.273 E293.98274
G1 X145.961 Y67.172 E294.00702
G1 X54.039 Y159.093 E297.51571
G1 X54.039 Y159.993 E297.53999
G1 X145.961 Y68.072 E301.04868
G1 X145.961 Y68.971 E301.07296
G1 X54.039 Y160.892 E304.58165
G1 X54.039 Y161.792 E304.60593
G1 X145.961 Y69.870 E308.11462
G1 X145.961 Y70.770 E308.13890
G1 X54.039 Y162.691 E311.64759
G1 X54.039 Y163.590 E311.67187
G1 X145.961 Y71.669 E315.18056
G1 X145.961 Y72.568 E315.20484
G1 X54.039 Y164.490 E318.71353
G1 X54.039 Y165.389 E318.73781
G1 X145.961 Y73.468 E322.24650
G1 X145.961 Y74.367 E322.27078
G1 X54.039 Y166.288 E325.77947
G1 X54.039 Y167.188 E325.80375
G1 X145.961 Y75.267 E329.31244
G1 X145.961 Y76.166 E329.33672
G1 X54.039 Y168.087 E332.84542
G1 X54.039 Y168.987 E332.86969
G1 X145.961 Y77.065 E336.37839
G1 X145.961 Y77.965 E336.40266
G1 X54.039 Y169.886 E339.91136
G1 X54.039 Y170.785 E339.93563
G1 X145.961 Y78.864 E343.44433
G1 X145.961 Y79.764 E343.46860
G1 X54.039 Y171.685 E346.97730
G1 X54.039 Y172.584 E347.00157
G1 X145.961 Y80.663 E350.51027
G1 X145.961 Y81.562 E350.53454
G1 X54.039 Y173.483 E354.04324
