;FLAVOR:Marlin
;TIME:29097
;Filament used: 17.9138m
;Layer height: 0.2
;MINX:56.964
;MINY:38.213
;MINZ:0.2
;MAXX:177.744
;MAXY:206.881
;MAXZ:22
;Generated with Cura_SteamEngine master
M140 S85
M105
M190 S85
M104 S240
M105
M109 S240
M82 ;absolute extrusion mode
; Ender 3 Custom Start G-code
G92 E0 ; Reset Extruder
G28 ; Home all axes
G1 Z2.0 F3000 ; Move Z Axis up little to prevent scratching of Heat Bed
G1 X0.1 Y20 Z0.3 F5000.0 ; Move to start position
G1 X0.1 Y200.0 Z0.3 F1500.0 E15 ; Draw the first line
G1 X0.4 Y200.0 Z0.3 F5000.0 ; Move to side a little
G1 X0.4 Y20 Z0.3 F1500.0 E30 ; Draw the second line
G92 E0 ; Reset Extruder
G1 Z2.0 F3000 ; Move Z Axis up little to prevent scratching of Heat Bed
G1 X5 Y20 Z0.3 F5000.0 ; Move over to prevent blob squish
G92 E0
G92 E0
G1 F2700 E-5
;LAYER_COUNT:110
;LAYER:0
M107
G0 F6000 X58.968 Y43.301 Z0.2
;TYPE:SKIRT
G1 F2700 E0
G1 F900 X59.539 Y42.557 E0.03119
G1 X60.171 Y41.864 E0.06239
G1 X60.86 Y41.227 E0.0936
G1 X61.6 Y40.652 E0.12477
G1 X62.387 Y40.141 E0.15598
G1 X63.214 Y39.7 E0.18715
G1 X64.077 Y39.331 E0.21837
G1 X64.967 Y39.036 E0.24955
G1 X65.879 Y38.818 E0.28074
G1 X66.807 Y38.679 E0.31195
G1 X67.658 Y38.622 E0.34032
G1 X67.971 Y38.613 E0.35073
G1 X68.276 Y38.608 E0.36088
G1 X69.448 Y38.608 E0.39986
G1 X70.121 Y38.618 E0.42224
G1 X71.332 Y38.703 E0.46262
G1 X71.944 Y38.782 E0.48315
G1 X73.642 Y39.024 E0.54019
G1 X76.178 Y39.311 E0.62508
G1 X78.676 Y39.524 E0.70846
G1 X81.158 Y39.665 E0.79115
G1 X83.715 Y39.737 E0.87623
G1 X86.202 Y39.737 E0.95895
G1 X88.761 Y39.665 E1.04409
G1 X91.244 Y39.524 E1.12681
G1 X93.738 Y39.312 E1.21006
G1 X96.317 Y39.019 E1.29639
G1 X97.59 Y38.846 E1.33912
G1 X98.413 Y38.728 E1.36677
G1 X99.667 Y38.621 E1.40863
G1 X99.989 Y38.612 E1.41935
G1 X100.294 Y38.608 E1.42949
G1 X105.399 Y38.608 E1.59928
G1 X106.127 Y38.618 E1.6235
G1 X106.756 Y38.645 E1.64444
G1 X107.117 Y38.671 E1.65648
G1 X109.336 Y38.859 E1.73055
G1 X111.835 Y38.999 E1.81379
G1 X114.368 Y39.07 E1.89808
G1 X116.862 Y39.069 E1.98103
G1 X119.412 Y38.997 E2.06587
G1 X121.898 Y38.855 E2.14869
G1 X124.4 Y38.641 E2.23221
G1 X127.523 Y38.284 E2.33676
G1 X128.802 Y38.213 E2.37937
G1 X129.184 Y38.214 E2.39207
G1 X129.459 Y38.218 E2.40122
G1 X134.552 Y38.36 E2.57068
G1 X135.248 Y38.39 E2.59385
G1 X136.48 Y38.513 E2.63503
G1 X137.069 Y38.607 E2.65487
G1 X138.732 Y38.891 E2.71098
G1 X141.283 Y39.253 E2.79668
G1 X143.74 Y39.531 E2.87892
G1 X146.27 Y39.746 E2.96337
G1 X148.787 Y39.887 E3.04722
G1 X151.307 Y39.958 E3.13107
G1 X153.83 Y39.956 E3.21498
G1 X156.32 Y39.885 E3.29783
G1 X158.852 Y39.74 E3.38219
G1 X161.366 Y39.526 E3.4661
G1 X162.707 Y39.382 E3.51096
G1 X163.51 Y39.29 E3.53784
G1 X164.762 Y39.219 E3.57955
G1 X165.116 Y39.219 E3.59133
G1 X165.419 Y39.223 E3.60141
G1 X166.465 Y39.253 E3.63621
G1 X167.186 Y39.282 E3.66021
G1 X168.121 Y39.359 E3.69141
G1 X169.045 Y39.516 E3.72259
G1 X169.953 Y39.752 E3.75379
G1 X170.838 Y40.063 E3.78499
G1 X171.693 Y40.449 E3.81619
G1 X172.512 Y40.906 E3.84738
G1 X173.288 Y41.432 E3.87857
G1 X174.018 Y42.021 E3.90976
G1 X174.694 Y42.671 E3.94095
G1 X175.313 Y43.376 E3.97216
G1 X175.869 Y44.131 E4.00334
G1 X176.359 Y44.93 E4.03452
G1 X176.78 Y45.769 E4.06574
G1 X177.127 Y46.64 E4.09692
G1 X177.399 Y47.538 E4.12813
G1 X177.593 Y48.455 E4.15931
G1 X177.708 Y49.386 E4.19051
G1 X177.744 Y50.273 E4.22003
G1 X177.744 Y50.609 E4.23121
G1 X177.74 Y50.917 E4.24145
G1 X177.194 Y70.397 E4.88961
G1 X177.165 Y71.061 E4.91172
G1 X177.084 Y71.995 E4.9429
G1 X176.924 Y72.919 E4.97409
G1 X176.781 Y73.499 E4.99396
G1 X176.676 Y73.88 E5.0071
G1 X176.026 Y76.381 E5.09305
G1 X175.453 Y78.865 E5.17784
G1 X174.97 Y81.285 E5.25992
G1 X174.538 Y83.812 E5.34518
G1 X174.189 Y86.26 E5.42743
G1 X173.905 Y88.771 E5.51148
G1 X173.691 Y91.287 E5.59546
G1 X173.546 Y93.865 E5.68134
G1 X173.504 Y95.066 E5.72131
G1 X172.937 Y115.284 E6.39403
G1 X172.928 Y115.51 E6.40155
G1 X172.855 Y118.106 E6.48793
G1 X172.857 Y120.631 E6.57191
G1 X172.928 Y123.11 E6.6544
G1 X173.073 Y125.643 E6.73878
G1 X173.291 Y128.183 E6.82357
G1 X173.432 Y129.499 E6.8676
G1 X173.495 Y130.675 E6.90677
G1 X173.495 Y130.999 E6.91754
G1 X173.491 Y131.307 E6.92779
G1 X172.945 Y150.774 E7.57552
G1 X172.915 Y151.464 E7.59849
G1 X172.834 Y152.398 E7.62967
G1 X172.674 Y153.322 E7.66086
G1 X172.54 Y153.871 E7.67965
G1 X172.444 Y154.223 E7.69179
G1 X171.772 Y156.811 E7.78072
G1 X171.203 Y159.279 E7.86496
G1 X170.707 Y161.766 E7.94931
G1 X170.291 Y164.199 E8.0314
G1 X169.935 Y166.707 E8.11566
G1 X169.654 Y169.187 E8.19867
G1 X169.443 Y171.676 E8.28175
G1 X169.251 Y175.592 E8.41215
G1 X168.693 Y195.525 E9.07539
G1 X168.659 Y196.344 E9.10265
G1 X168.58 Y197.279 E9.13386
G1 X168.421 Y198.203 E9.16504
G1 X168.184 Y199.111 E9.19626
G1 X167.871 Y199.995 E9.22745
G1 X167.483 Y200.849 E9.25865
G1 X167.024 Y201.667 E9.28984
G1 X166.498 Y202.443 E9.32102
G1 X165.907 Y203.171 E9.35221
G1 X165.256 Y203.846 E9.3834
G1 X164.55 Y204.463 E9.41459
G1 X163.794 Y205.018 E9.44578
G1 X162.993 Y205.507 E9.47699
G1 X162.154 Y205.925 E9.50817
G1 X161.282 Y206.271 E9.53937
G1 X160.384 Y206.541 E9.57056
G1 X159.466 Y206.733 E9.60175
G1 X158.535 Y206.847 E9.63295
G1 X157.64 Y206.881 E9.66274
G1 X157.264 Y206.88 E9.67525
G1 X156.986 Y206.876 E9.68449
G1 X134.001 Y206.234 E10.44928
G1 X133.173 Y206.197 E10.47684
G1 X132.239 Y206.114 E10.50803
G1 X131.649 Y206.019 E10.52791
G1 X128.951 Y205.545 E10.61902
G1 X126.497 Y205.187 E10.7015
G1 X123.969 Y204.89 E10.78616
G1 X121.464 Y204.667 E10.86981
G1 X118.946 Y204.516 E10.95371
G1 X116.458 Y204.437 E11.0365
G1 X113.929 Y204.428 E11.12061
G1 X111.414 Y204.489 E11.20429
G1 X108.881 Y204.623 E11.28865
G1 X106.373 Y204.827 E11.37235
G1 X103.906 Y205.098 E11.45489
G1 X101.372 Y205.45 E11.53998
G1 X98.879 Y205.867 E11.62405
G1 X97.031 Y206.223 E11.68665
G1 X96.103 Y206.361 E11.71785
G1 X95.263 Y206.417 E11.74585
G1 X94.944 Y206.426 E11.75647
G1 X94.634 Y206.43 E11.76678
G1 X71.529 Y206.429 E12.53525
G1 X70.831 Y206.42 E12.55847
G1 X69.895 Y206.368 E12.58965
G1 X68.966 Y206.236 E12.62086
G1 X68.052 Y206.026 E12.65205
G1 X67.159 Y205.739 E12.68325
G1 X66.294 Y205.376 E12.71445
G1 X65.463 Y204.942 E12.74563
G1 X64.672 Y204.438 E12.77683
G1 X63.927 Y203.868 E12.80803
G1 X63.233 Y203.237 E12.83922
G1 X62.596 Y202.55 E12.87038
G1 X62.019 Y201.81 E12.90159
G1 X61.507 Y201.024 E12.93279
G1 X61.064 Y200.197 E12.964
G1 X60.693 Y199.336 E12.99518
G1 X60.397 Y198.446 E13.02638
G1 X60.178 Y197.534 E13.05757
G1 X60.037 Y196.607 E13.08876
G1 X59.977 Y195.718 E13.11839
G1 X59.968 Y195.385 E13.12947
G1 X59.964 Y195.088 E13.13935
G1 X59.964 Y174.791 E13.81443
G1 X59.927 Y172.182 E13.90122
G1 X59.82 Y169.66 E13.98518
G1 X59.643 Y167.166 E14.06834
G1 X59.396 Y164.671 E14.15172
G1 X59.076 Y162.17 E14.23559
G1 X58.685 Y159.681 E14.31939
G1 X58.224 Y157.201 E14.40328
G1 X57.695 Y154.741 E14.48697
G1 X57.352 Y153.326 E14.5354
G1 X57.261 Y152.928 E14.54898
G1 X57.091 Y152.005 E14.5802
G1 X56.986 Y150.69 E14.62407
G1 X56.966 Y149.664 E14.6582
G1 X56.964 Y149.45 E14.66532
G1 X56.965 Y130.644 E15.29081
G1 X56.976 Y129.935 E15.3144
G1 X57.031 Y128.999 E15.34558
G1 X57.165 Y128.071 E15.37677
G1 X57.292 Y127.484 E15.39674
G1 X57.388 Y127.094 E15.4101
G1 X57.959 Y124.612 E15.49481
G1 X58.467 Y122.09 E15.58038
G1 X58.884 Y119.647 E15.6628
G1 X59.242 Y117.138 E15.7471
G1 X59.524 Y114.658 E15.83012
G1 X59.741 Y112.127 E15.91461
G1 X59.882 Y109.625 E15.99796
G1 X59.955 Y107.108 E16.08171
G1 X59.964 Y105.758 E16.12661
G1 X59.964 Y94.291 E16.508
G1 X59.927 Y91.682 E16.59479
G1 X59.82 Y89.16 E16.67874
G1 X59.643 Y86.666 E16.7619
G1 X59.396 Y84.171 E16.84529
G1 X59.076 Y81.67 E16.92916
G1 X58.685 Y79.181 E17.01296
G1 X58.224 Y76.701 E17.09685
G1 X57.695 Y74.241 E17.18054
G1 X57.352 Y72.826 E17.22897
G1 X57.261 Y72.428 E17.24255
G1 X57.091 Y71.505 E17.27376
G1 X56.986 Y70.19 E17.31764
G1 X56.966 Y69.164 E17.35177
G1 X56.964 Y68.95 E17.35889
G1 X56.965 Y50.141 E17.98448
G1 X56.975 Y49.456 E18.00727
G1 X57.029 Y48.52 E18.03845
G1 X57.162 Y47.592 E18.06963
G1 X57.374 Y46.678 E18.10084
G1 X57.663 Y45.786 E18.13202
G1 X58.027 Y44.921 E18.16324
G1 X58.463 Y44.091 E18.19442
G1 X58.968 Y43.301 E18.2256
G0 F6000 X59.364 Y43.434
G1 F900 X59.933 Y42.71 E18.25623
G1 X60.563 Y42.039 E18.28684
G1 X61.248 Y41.424 E18.31746
G1 X61.984 Y40.871 E18.34808
G1 X62.766 Y40.385 E18.3787
G1 X63.587 Y39.968 E18.40933
G1 X64.44 Y39.623 E18.43994
G1 X65.321 Y39.354 E18.47057
G1 X66.221 Y39.163 E18.50117
G1 X67.135 Y39.05 E18.5318
G1 X67.669 Y39.021 E18.54959
G1 X67.982 Y39.012 E18.56001
G1 X68.276 Y39.008 E18.56979
G1 X69.442 Y39.008 E18.60857
G1 X70.115 Y39.018 E18.63095
G1 X71.282 Y39.1 E18.66986
G1 X71.888 Y39.178 E18.69019
G1 X73.612 Y39.423 E18.7481
G1 X76.1 Y39.705 E18.83138
G1 X78.656 Y39.923 E18.91671
G1 X81.158 Y40.065 E19.00006
G1 X83.704 Y40.137 E19.08477
G1 X86.213 Y40.137 E19.16822
G1 X88.759 Y40.065 E19.25293
G1 X91.266 Y39.923 E19.33645
G1 X93.816 Y39.706 E19.42157
G1 X96.326 Y39.421 E19.50559
G1 X97.65 Y39.242 E19.55003
G1 X98.47 Y39.124 E19.57758
G1 X99.678 Y39.021 E19.61791
G1 X100 Y39.012 E19.62862
G1 X100.294 Y39.008 E19.6384
G1 X105.394 Y39.008 E19.80803
G1 X106.122 Y39.018 E19.83224
G1 X106.728 Y39.044 E19.85242
G1 X107.084 Y39.07 E19.86429
G1 X109.316 Y39.259 E19.93879
G1 X111.802 Y39.399 E20.02161
G1 X114.357 Y39.47 E20.10662
G1 X116.873 Y39.469 E20.1903
G1 X119.412 Y39.397 E20.27478
G1 X121.954 Y39.252 E20.35947
G1 X124.443 Y39.039 E20.44255
G1 X127.568 Y38.682 E20.54717
G1 X128.801 Y38.613 E20.58824
G1 X129.183 Y38.614 E20.60095
G1 X129.448 Y38.618 E20.60976
G1 X134.371 Y38.754 E20.77356
G1 X135.23 Y38.79 E20.80216
G1 X136.418 Y38.908 E20.84187
G1 X137.002 Y39.001 E20.86154
G1 X138.681 Y39.287 E20.91818
G1 X141.219 Y39.648 E21.00345
G1 X143.732 Y39.932 E21.08756
G1 X146.248 Y40.146 E21.17155
G1 X148.754 Y40.287 E21.25503
G1 X151.296 Y40.358 E21.33961
G1 X153.807 Y40.356 E21.42313
G1 X156.352 Y40.283 E21.50781
G1 X158.875 Y40.139 E21.59186
G1 X161.443 Y39.921 E21.67758
G1 X162.773 Y39.778 E21.72207
G1 X163.555 Y39.688 E21.74825
G1 X164.762 Y39.619 E21.78846
G1 X165.116 Y39.619 E21.80024
G1 X165.408 Y39.623 E21.80995
G1 X166.449 Y39.653 E21.84459
G1 X167.17 Y39.682 E21.86859
G1 X168.087 Y39.758 E21.89919
G1 X168.995 Y39.915 E21.92984
G1 X169.885 Y40.149 E21.96045
G1 X170.752 Y40.46 E21.99108
G1 X171.588 Y40.845 E22.02169
G1 X172.388 Y41.3 E22.0523
G1 X173.145 Y41.824 E22.08293
G1 X173.854 Y42.411 E22.11354
G1 X174.51 Y43.058 E22.14419
G1 X175.106 Y43.759 E22.17479
G1 X175.64 Y44.509 E22.20541
G1 X176.107 Y45.303 E22.23605
G1 X176.503 Y46.134 E22.26667
G1 X176.825 Y46.996 E22.29727
G1 X177.071 Y47.884 E22.32792
G1 X177.24 Y48.789 E22.35854
G1 X177.329 Y49.705 E22.38915
G1 X177.344 Y50.273 E22.40805
G1 X177.344 Y50.609 E22.41922
G1 X177.34 Y50.905 E22.42907
G1 X176.794 Y70.38 E23.07706
G1 X176.765 Y71.044 E23.09917
G1 X176.685 Y71.961 E23.12979
G1 X176.525 Y72.867 E23.16039
G1 X176.395 Y73.393 E23.17841
G1 X176.3 Y73.737 E23.19028
G1 X175.635 Y76.296 E23.27822
G1 X175.065 Y78.77 E23.36266
G1 X174.57 Y81.246 E23.44664
G1 X174.145 Y83.73 E23.53046
G1 X173.79 Y86.225 E23.61428
G1 X173.506 Y88.728 E23.69806
G1 X173.291 Y91.264 E23.78271
G1 X173.147 Y93.832 E23.86826
G1 X173.104 Y95.055 E23.90896
G1 X172.537 Y115.267 E24.58148
G1 X172.528 Y115.48 E24.58857
G1 X172.455 Y118.095 E24.67558
G1 X172.457 Y120.607 E24.75913
G1 X172.53 Y123.143 E24.84351
G1 X172.676 Y125.701 E24.92873
G1 X172.891 Y128.216 E25.01268
G1 X173.034 Y129.542 E25.05704
G1 X173.095 Y130.675 E25.09478
G1 X173.095 Y130.999 E25.10556
G1 X173.091 Y131.296 E25.11544
G1 X172.551 Y150.593 E25.75751
G1 X172.515 Y151.446 E25.7859
G1 X172.435 Y152.364 E25.81655
G1 X172.276 Y153.27 E25.84715
G1 X172.154 Y153.766 E25.86414
G1 X172.026 Y154.237 E25.88037
G1 X171.388 Y156.692 E25.96474
G1 X170.815 Y159.183 E26.04975
G1 X170.314 Y161.691 E26.13481
G1 X169.895 Y164.142 E26.21752
G1 X169.54 Y166.643 E26.30153
G1 X169.253 Y169.179 E26.38642
G1 X169.044 Y171.651 E26.46893
G1 X168.851 Y175.562 E26.59917
G1 X168.288 Y195.664 E27.26803
G1 X168.26 Y196.328 E27.29013
G1 X168.181 Y197.245 E27.32075
G1 X168.023 Y198.152 E27.35137
G1 X167.787 Y199.042 E27.38199
G1 X167.474 Y199.908 E27.41262
G1 X167.088 Y200.743 E27.44322
G1 X166.631 Y201.542 E27.47383
G1 X166.105 Y202.299 E27.50449
G1 X165.517 Y203.006 E27.53507
G1 X164.869 Y203.661 E27.56572
G1 X164.167 Y204.256 E27.59633
G1 X163.415 Y204.788 E27.62696
G1 X162.621 Y205.253 E27.65757
G1 X161.789 Y205.648 E27.6882
G1 X160.926 Y205.968 E27.71881
G1 X160.038 Y206.213 E27.74945
G1 X159.133 Y206.379 E27.78005
G1 X158.216 Y206.467 E27.81069
G1 X157.641 Y206.481 E27.82982
G1 X157.265 Y206.48 E27.84233
G1 X156.997 Y206.476 E27.85125
G1 X134.012 Y205.834 E28.61603
G1 X133.817 Y205.827 E28.62252
G1 X133.192 Y205.798 E28.64333
G1 X132.275 Y205.715 E28.67395
G1 X131.723 Y205.626 E28.69255
G1 X131.618 Y205.606 E28.6961
G1 X129.041 Y205.155 E28.78312
G1 X126.531 Y204.788 E28.86749
G1 X124.018 Y204.493 E28.95164
G1 X121.487 Y204.268 E29.03616
G1 X118.982 Y204.117 E29.11963
G1 X116.437 Y204.036 E29.20432
G1 X113.921 Y204.028 E29.288
G1 X111.382 Y204.09 E29.37247
G1 X108.861 Y204.223 E29.45644
G1 X106.367 Y204.426 E29.53966
G1 X103.809 Y204.707 E29.62525
G1 X101.323 Y205.052 E29.70873
G1 X98.817 Y205.472 E29.79324
G1 X96.955 Y205.83 E29.85631
G1 X96.044 Y205.965 E29.88694
G1 X95.252 Y206.017 E29.91334
G1 X94.933 Y206.026 E29.92395
G1 X94.634 Y206.03 E29.9339
G1 X71.534 Y206.029 E30.70221
G1 X70.836 Y206.02 E30.72542
G1 X69.917 Y205.968 E30.75604
G1 X69.006 Y205.837 E30.78665
G1 X68.11 Y205.627 E30.81726
G1 X67.235 Y205.34 E30.84789
G1 X66.388 Y204.978 E30.87852
G1 X65.576 Y204.544 E30.90915
G1 X64.805 Y204.042 E30.93975
G1 X64.08 Y203.474 E30.97038
G1 X63.407 Y202.845 E31.00102
G1 X62.792 Y202.161 E31.03161
G1 X62.238 Y201.426 E31.06222
G1 X61.75 Y200.645 E31.09285
G1 X61.331 Y199.825 E31.12348
G1 X60.985 Y198.972 E31.1541
G1 X60.715 Y198.092 E31.18471
G1 X60.522 Y197.191 E31.21536
G1 X60.408 Y196.278 E31.24596
G1 X60.377 Y195.707 E31.26498
G1 X60.368 Y195.374 E31.27606
G1 X60.364 Y195.088 E31.28558
G1 X60.364 Y174.785 E31.96086
G1 X60.327 Y172.16 E32.04817
G1 X60.22 Y169.651 E32.1317
G1 X60.042 Y167.131 E32.21572
G1 X59.793 Y164.617 E32.29975
G1 X59.474 Y162.128 E32.38321
G1 X59.073 Y159.576 E32.46913
G1 X58.617 Y157.122 E32.55215
G1 X58.091 Y154.677 E32.63533
G1 X57.742 Y153.237 E32.68461
G1 X57.651 Y152.839 E32.69819
G1 X57.485 Y151.933 E32.72882
G1 X57.386 Y150.683 E32.77053
G1 X57.366 Y149.657 E32.80466
G1 X57.364 Y149.45 E32.81155
G1 X57.365 Y130.651 E33.4368
G1 X57.376 Y129.942 E33.46039
G1 X57.431 Y129.023 E33.49101
G1 X57.564 Y128.112 E33.52163
G1 X57.681 Y127.579 E33.53978
G1 X57.758 Y127.265 E33.55053
G1 X58.362 Y124.641 E33.64009
G1 X58.854 Y122.198 E33.72298
G1 X59.281 Y119.7 E33.80726
G1 X59.637 Y117.204 E33.89112
G1 X59.925 Y114.67 E33.97595
G1 X60.138 Y112.185 E34.0589
G1 X60.281 Y109.657 E34.14312
G1 X60.355 Y107.077 E34.22896
G1 X60.364 Y105.761 E34.27273
G1 X60.364 Y94.285 E34.65443
G1 X60.327 Y91.66 E34.74174
G1 X60.22 Y89.151 E34.82527
G1 X60.042 Y86.631 E34.90929
G1 X59.793 Y84.117 E34.99332
G1 X59.474 Y81.628 E35.07678
G1 X59.073 Y79.076 E35.1627
G1 X58.617 Y76.622 E35.24572
G1 X58.091 Y74.177 E35.3289
G1 X57.742 Y72.737 E35.37818
G1 X57.651 Y72.339 E35.39176
G1 X57.485 Y71.433 E35.4224
G1 X57.386 Y70.183 E35.4641
G1 X57.366 Y69.157 E35.49823
G1 X57.364 Y68.95 E35.50512
G1 X57.365 Y50.147 E36.13051
G1 X57.375 Y49.462 E36.15329
G1 X57.429 Y48.543 E36.18391
G1 X57.561 Y47.632 E36.21453
G1 X57.773 Y46.736 E36.24515
G1 X58.061 Y45.862 E36.27576
G1 X58.425 Y45.016 E36.30639
G1 X58.86 Y44.205 E36.337
G1 X59.364 Y43.434 E36.36764
G0 F6000 X59.76 Y43.57
G1 F900 X60.327 Y42.867 E36.39768
G1 X60.954 Y42.217 E36.42772
G1 X61.636 Y41.625 E36.45775
G1 X62.368 Y41.096 E36.48779
G1 X63.143 Y40.633 E36.51782
G1 X63.957 Y40.241 E36.54787
G1 X64.802 Y39.923 E36.5779
G1 X65.672 Y39.68 E36.60794
G1 X66.56 Y39.516 E36.63797
G1 X67.681 Y39.421 E36.67539
G1 X67.994 Y39.412 E36.68581
G1 X68.277 Y39.408 E36.69522
G1 X69.437 Y39.408 E36.7338
