;FLAVOR:Marlin
;TIME:9474
;Filament used: 6.99259m
;Layer height: 0.2
;MINX:81.127
;MINY:56.5
;MINZ:0.2
;MAXX:153.873
;MAXY:178.5
;MAXZ:29
;Generated with Cura_SteamEngine master
M140 S50
M105
M190 S50
M104 S200
M105
M109 S200
M82 ;absolute extrusion mode
; Ender 3 Custom Start G-code
G92 E0 ; Reset Extruder
G28 ; Home all axes
G1 Z2.0 F3000 ; Move Z Axis up little to prevent scratching of Heat Bed
G1 X0.1 Y20 Z0.3 F5000.0 ; Move to start position
G1 X0.1 Y200.0 Z0.3 F1500.0 E15 ; Draw the first line
G1 X0.4 Y200.0 Z0.3 F5000.0 ; Move to side a little
G1 X0.4 Y20 Z0.3 F1500.0 E30 ; Draw the second line
G92 E0 ; Reset Extruder
G1 Z2.0 F3000 ; Move Z Axis up little to prevent scratching of Heat Bed
G1 X5 Y20 Z0.3 F5000.0 ; Move over to prevent blob squish
G92 E0
G92 E0
G1 F2700 E-5
;LAYER_COUNT:145
;LAYER:0
M107
G0 F6000 X106.374 Y61.979 Z0.2
;TYPE:SKIRT
G1 F2700 E0
G1 F1200 X106.88 Y61.189 E0.0312
G1 X107.451 Y60.445 E0.0624
G1 X108.083 Y59.752 E0.09359
G1 X108.772 Y59.116 E0.12478
G1 X109.513 Y58.541 E0.15597
G1 X110.3 Y58.031 E0.18717
G1 X111.128 Y57.59 E0.21837
G1 X111.99 Y57.221 E0.24955
G1 X112.881 Y56.927 E0.28076
G1 X113.793 Y56.709 E0.31195
G1 X114.72 Y56.571 E0.34312
G1 X115.574 Y56.513 E0.37159
G1 X115.894 Y56.504 E0.38224
G1 X116.203 Y56.5 E0.39252
G1 X139.166 Y56.5 E1.15627
G1 X140.022 Y56.511 E1.18474
G1 X140.958 Y56.565 E1.21592
G1 X141.886 Y56.697 E1.2471
G1 X142.8 Y56.909 E1.27831
G1 X143.692 Y57.198 E1.30949
G1 X144.557 Y57.561 E1.34069
G1 X145.387 Y57.997 E1.37188
G1 X146.178 Y58.502 E1.40309
G1 X146.922 Y59.073 E1.43428
G1 X147.615 Y59.705 E1.46548
G1 X148.252 Y60.393 E1.49666
G1 X148.827 Y61.134 E1.52786
G1 X149.338 Y61.92 E1.55904
G1 X149.78 Y62.748 E1.59026
G1 X150.149 Y63.61 E1.62144
G1 X150.444 Y64.5 E1.65263
G1 X150.646 Y65.332 E1.68111
G1 X150.949 Y66.835 E1.7321
G1 X150.988 Y67.042 E1.73911
G1 X151.526 Y69.508 E1.82306
G1 X152.123 Y71.92 E1.9057
G1 X152.799 Y74.346 E1.98946
G1 X153.013 Y75.042 E2.01368
G1 X153.411 Y76.387 E2.06034
G1 X153.638 Y77.297 E2.09153
G1 X153.788 Y78.223 E2.12273
G1 X153.857 Y79.132 E2.15305
G1 X153.867 Y79.52 E2.16596
G1 X153.873 Y80.063 E2.18402
G1 X153.872 Y82.947 E2.27994
G1 X153.862 Y83.648 E2.30326
G1 X153.809 Y84.584 E2.33444
G1 X153.62 Y85.792 E2.37511
G1 X153.429 Y86.685 E2.40548
G1 X153.208 Y87.646 E2.43828
G1 X152.708 Y90.139 E2.52285
G1 X152.284 Y92.611 E2.60627
G1 X151.93 Y95.098 E2.68982
G1 X151.644 Y97.616 E2.77411
G1 X151.431 Y100.108 E2.85729
G1 X151.289 Y102.606 E2.94051
G1 X151.216 Y105.183 E3.02626
G1 X151.207 Y106.486 E3.0696
G1 X151.206 Y166.93 E5.07997
G1 X151.195 Y167.657 E5.10415
G1 X151.141 Y168.594 E5.13537
G1 X151.007 Y169.522 E5.16656
G1 X150.795 Y170.436 E5.19776
G1 X150.505 Y171.328 E5.22896
G1 X150.141 Y172.192 E5.26014
G1 X149.704 Y173.022 E5.29134
G1 X149.199 Y173.812 E5.32253
G1 X148.627 Y174.556 E5.35374
G1 X147.995 Y175.248 E5.38491
G1 X147.306 Y175.884 E5.4161
G1 X146.565 Y176.46 E5.44731
G1 X145.778 Y176.969 E5.47849
G1 X144.95 Y177.411 E5.5097
G1 X144.088 Y177.779 E5.54088
G1 X143.197 Y178.074 E5.57209
G1 X142.285 Y178.291 E5.60327
G1 X141.358 Y178.43 E5.63445
G1 X140.506 Y178.487 E5.66285
G1 X140.187 Y178.496 E5.67347
G1 X139.877 Y178.5 E5.68378
G1 X115.201 Y178.499 E6.50451
G1 X114.499 Y178.489 E6.52786
G1 X113.563 Y178.436 E6.55904
G1 X112.635 Y178.303 E6.59022
G1 X111.721 Y178.091 E6.62143
G1 X110.828 Y177.803 E6.65263
G1 X109.964 Y177.439 E6.68382
G1 X109.133 Y177.003 E6.71503
G1 X108.343 Y176.498 E6.74621
G1 X107.599 Y175.928 E6.77739
G1 X106.906 Y175.296 E6.80858
G1 X106.305 Y174.649 E6.83795
G1 X105.275 Y173.446 E6.89063
G1 X103.592 Y171.543 E6.97512
G1 X101.884 Y169.713 E7.05838
G1 X100.117 Y167.926 E7.14197
G1 X98.297 Y166.188 E7.22567
G1 X96.42 Y164.494 E7.30976
G1 X94.516 Y162.871 E7.39297
G1 X92.542 Y161.282 E7.47726
G1 X90.535 Y159.76 E7.56104
G1 X88.505 Y158.306 E7.64409
G1 X86.387 Y156.878 E7.72905
G1 X86.082 Y156.677 E7.7412
G1 X85.322 Y156.128 E7.77238
G1 X84.611 Y155.516 E7.80358
G1 X83.955 Y154.846 E7.83477
G1 X83.358 Y154.122 E7.86598
G1 X82.825 Y153.35 E7.89718
G1 X82.36 Y152.536 E7.92836
G1 X81.966 Y151.685 E7.95955
G1 X81.646 Y150.803 E7.99076
G1 X81.402 Y149.898 E8.02193
G1 X81.236 Y148.975 E8.05313
G1 X81.14 Y147.799 E8.09237
G1 X81.131 Y147.476 E8.10312
G1 X81.127 Y147.17 E8.11329
G1 X81.128 Y144.051 E8.21703
G1 X81.138 Y143.348 E8.24042
G1 X81.191 Y142.411 E8.27163
G1 X81.324 Y141.483 E8.30281
G1 X81.536 Y140.569 E8.33402
G1 X81.824 Y139.677 E8.3652
G1 X82.188 Y138.812 E8.39641
G1 X82.624 Y137.982 E8.42759
G1 X83.129 Y137.191 E8.45881
G1 X83.676 Y136.474 E8.4888
G1 X84.29 Y135.735 E8.52076
G1 X85.936 Y133.695 E8.60794
G1 X87.45 Y131.705 E8.6911
G1 X88.915 Y129.663 E8.77469
G1 X90.313 Y127.593 E8.85777
G1 X91.679 Y125.443 E8.94249
G1 X92.949 Y123.31 E9.02506
G1 X94.196 Y121.077 E9.11013
G1 X95.354 Y118.859 E9.19335
G1 X96.45 Y116.603 E9.27677
G1 X97.495 Y114.291 E9.36116
G1 X98.459 Y111.985 E9.44429
G1 X99.376 Y109.608 E9.52902
G1 X100.206 Y107.253 E9.61207
G1 X100.967 Y104.885 E9.6948
G1 X101.683 Y102.424 E9.78005
G1 X102.308 Y100.024 E9.86253
G1 X102.875 Y97.559 E9.94666
G1 X103.38 Y95.049 E10.03182
G1 X103.793 Y92.634 E10.11331
G1 X104.154 Y90.088 E10.19883
G1 X104.436 Y87.611 E10.28175
G1 X104.65 Y85.105 E10.36541
G1 X104.791 Y82.621 E10.44816
G1 X104.864 Y80.033 E10.53427
G1 X104.873 Y78.736 E10.57741
G1 X104.874 Y68.009 E10.93419
G1 X104.884 Y67.344 E10.95631
G1 X104.938 Y66.407 E10.98753
G1 X105.072 Y65.479 E11.01871
G1 X105.284 Y64.565 E11.04992
G1 X105.573 Y63.673 E11.0811
G1 X105.938 Y62.809 E11.1123
G1 X106.374 Y61.979 E11.14348
G0 F6000 X106.771 Y62.093
G1 F1200 X107.276 Y61.322 E11.17414
G1 X107.845 Y60.599 E11.20474
G1 X108.475 Y59.927 E11.23538
G1 X109.161 Y59.313 E11.266
G1 X109.897 Y58.761 E11.2966
G1 X110.679 Y58.274 E11.32724
G1 X111.5 Y57.858 E11.35785
G1 X112.354 Y57.514 E11.38847
G1 X113.234 Y57.245 E11.41908
G1 X114.135 Y57.054 E11.44971
G1 X115.049 Y56.942 E11.48034
G1 X115.585 Y56.913 E11.49819
G1 X115.905 Y56.904 E11.50884
G1 X116.203 Y56.9 E11.51875
G1 X139.166 Y56.9 E12.2825
G1 X140.016 Y56.911 E12.31078
G1 X140.935 Y56.964 E12.34139
G1 X141.846 Y57.097 E12.37201
G1 X142.742 Y57.308 E12.40263
G1 X143.616 Y57.596 E12.43324
G1 X144.463 Y57.959 E12.46389
G1 X145.274 Y58.394 E12.4945
G1 X146.044 Y58.898 E12.5251
G1 X146.768 Y59.467 E12.55573
G1 X147.44 Y60.097 E12.58637
G1 X148.055 Y60.782 E12.61699
G1 X148.608 Y61.518 E12.64761
G1 X149.095 Y62.299 E12.67822
G1 X149.512 Y63.12 E12.70885
G1 X149.857 Y63.974 E12.73948
G1 X150.126 Y64.854 E12.77009
G1 X150.254 Y65.411 E12.78909
G1 X150.556 Y66.91 E12.83995
G1 X150.596 Y67.123 E12.84716
G1 X151.133 Y69.584 E12.93094
G1 X151.73 Y71.998 E13.01365
G1 X152.415 Y74.457 E13.09855
G1 X152.629 Y75.155 E13.12283
G1 X153.027 Y76.5 E13.16948
G1 X153.25 Y77.394 E13.20013
G1 X153.394 Y78.303 E13.23074
G1 X153.457 Y79.145 E13.25882
G1 X153.467 Y79.524 E13.27143
G1 X153.473 Y80.063 E13.28936
G1 X153.472 Y82.941 E13.38509
G1 X153.462 Y83.642 E13.4084
G1 X153.409 Y84.561 E13.43902
G1 X153.229 Y85.708 E13.47764
G1 X153.038 Y86.601 E13.50801
G1 X152.812 Y87.583 E13.54152
G1 X152.323 Y90.02 E13.6242
G1 X151.887 Y92.559 E13.70988
G1 X151.53 Y95.068 E13.79417
G1 X151.25 Y97.538 E13.87685
G1 X151.032 Y100.088 E13.96197
G1 X150.889 Y102.606 E14.04585
G1 X150.816 Y105.17 E14.13117
G1 X150.807 Y106.483 E14.17484
G1 X150.806 Y166.924 E16.18512
G1 X150.795 Y167.651 E16.2093
G1 X150.741 Y168.57 E16.23992
G1 X150.607 Y169.481 E16.27054
G1 X150.395 Y170.377 E16.30117
G1 X150.107 Y171.251 E16.33177
G1 X149.743 Y172.097 E16.36241
G1 X149.307 Y172.908 E16.39303
G1 X148.803 Y173.678 E16.42364
G1 X148.233 Y174.402 E16.45429
G1 X147.603 Y175.073 E16.4849
G1 X146.918 Y175.687 E16.5155
G1 X146.181 Y176.24 E16.54614
G1 X145.399 Y176.726 E16.57676
G1 X144.578 Y177.143 E16.60739
G1 X143.724 Y177.487 E16.63801
G1 X142.844 Y177.755 E16.66861
G1 X141.943 Y177.946 E16.69924
G1 X141.029 Y178.058 E16.72987
G1 X140.495 Y178.087 E16.74766
G1 X140.176 Y178.096 E16.75827
G1 X139.877 Y178.1 E16.76822
G1 X115.207 Y178.099 E17.58874
G1 X114.505 Y178.089 E17.6121
G1 X113.586 Y178.036 E17.64271
G1 X112.675 Y177.903 E17.67333
G1 X111.779 Y177.692 E17.70395
G1 X110.904 Y177.404 E17.73459
G1 X110.058 Y177.041 E17.76521
G1 X109.247 Y176.606 E17.79582
G1 X108.476 Y176.102 E17.82645
G1 X107.752 Y175.534 E17.85706
G1 X107.08 Y174.904 E17.8877
G1 X106.608 Y174.389 E17.91093
G1 X105.582 Y173.19 E17.96342
G1 X103.902 Y171.288 E18.04782
G1 X102.177 Y169.442 E18.13186
G1 X100.394 Y167.639 E18.21619
G1 X98.559 Y165.885 E18.30062
G1 X96.701 Y164.209 E18.38385
G1 X94.742 Y162.539 E18.46947
G1 X92.789 Y160.967 E18.55285
G1 X90.788 Y159.448 E18.63641
G1 X88.715 Y157.965 E18.72118
G1 X86.657 Y156.577 E18.80375
G1 X86.302 Y156.343 E18.81789
G1 X85.556 Y155.803 E18.84852
G1 X84.86 Y155.201 E18.87913
G1 X84.218 Y154.541 E18.90975
G1 X83.637 Y153.827 E18.94037
G1 X83.119 Y153.066 E18.97098
G1 X82.67 Y152.262 E19.00161
G1 X82.291 Y151.423 E19.03223
G1 X81.988 Y150.554 E19.06284
G1 X81.76 Y149.662 E19.09346
G1 X81.611 Y148.753 E19.1241
G1 X81.54 Y147.788 E19.15628
G1 X81.531 Y147.465 E19.16703
G1 X81.527 Y147.17 E19.17684
G1 X81.528 Y144.056 E19.28042
G1 X81.538 Y143.353 E19.3038
G1 X81.591 Y142.434 E19.33442
G1 X81.724 Y141.523 E19.36504
G1 X81.935 Y140.627 E19.39565
G1 X82.223 Y139.753 E19.42626
G1 X82.586 Y138.906 E19.45691
G1 X83.021 Y138.095 E19.48752
G1 X83.525 Y137.324 E19.51816
G1 X83.984 Y136.73 E19.54312
G1 X84.632 Y135.95 E19.57685
G1 X86.22 Y133.982 E19.66096
G1 X87.778 Y131.935 E19.74652
G1 X89.239 Y129.898 E19.8299
G1 X90.655 Y127.801 E19.91405
G1 X92.011 Y125.666 E19.99818
G1 X93.314 Y123.477 E20.08291
G1 X94.548 Y121.268 E20.16706
G1 X95.711 Y119.04 E20.25066
G1 X96.817 Y116.764 E20.33482
G1 X97.858 Y114.461 E20.41888
G1 X98.825 Y112.148 E20.50226
G1 X99.751 Y109.749 E20.58779
G1 X100.588 Y107.371 E20.67164
G1 X101.349 Y105.004 E20.75434
G1 X102.068 Y102.532 E20.83996
G1 X102.699 Y100.109 E20.92324
G1 X103.271 Y97.622 E21.00812
G1 X103.766 Y95.162 E21.09158
G1 X104.189 Y92.685 E21.17516
G1 X104.55 Y90.149 E21.26035
G1 X104.833 Y87.661 E21.34364
G1 X105.049 Y85.124 E21.42832
G1 X105.191 Y82.619 E21.51177
G1 X105.264 Y80.047 E21.59735
G1 X105.273 Y78.738 E21.64089
G1 X105.274 Y68.015 E21.99754
G1 X105.284 Y67.35 E22.01966
G1 X105.338 Y66.431 E22.05028
G1 X105.471 Y65.52 E22.0809
G1 X105.683 Y64.624 E22.11153
G1 X105.972 Y63.749 E22.14217
G1 X106.336 Y62.904 E22.17278
G1 X106.771 Y62.093 E22.20339
G0 F6000 X107.168 Y62.209
G1 F1200 X107.671 Y61.458 E22.23345
G1 X108.239 Y60.756 E22.26348
G1 X108.866 Y60.106 E22.29352
G1 X109.548 Y59.514 E22.32356
G1 X110.28 Y58.985 E22.3536
G1 X111.056 Y58.523 E22.38363
G1 X111.87 Y58.132 E22.41367
G1 X112.715 Y57.813 E22.44371
G1 X113.585 Y57.571 E22.47375
G1 X114.473 Y57.407 E22.50378
G1 X115.596 Y57.313 E22.54126
G1 X115.916 Y57.304 E22.55191
G1 X116.203 Y57.3 E22.56146
G1 X139.166 Y57.3 E23.32521
G1 X140.01 Y57.311 E23.35328
G1 X140.912 Y57.364 E23.38333
G1 X141.805 Y57.496 E23.41336
G1 X142.683 Y57.707 E23.44339
G1 X143.539 Y57.995 E23.47343
G1 X144.366 Y58.357 E23.50346
G1 X145.158 Y58.792 E23.53351
G1 X145.909 Y59.294 E23.56356
G1 X146.612 Y59.861 E23.5936
G1 X147.262 Y60.488 E23.62363
G1 X147.854 Y61.17 E23.65367
G1 X148.384 Y61.901 E23.6837
G1 X148.846 Y62.677 E23.71374
G1 X149.239 Y63.49 E23.74377
G1 X149.557 Y64.335 E23.7738
G1 X149.862 Y65.49 E23.81353
G1 X150.163 Y66.984 E23.86422
G1 X150.206 Y67.211 E23.87191
G1 X150.74 Y69.659 E23.95524
G1 X151.35 Y72.125 E24.03974
G1 X152.045 Y74.62 E24.12588
G1 X152.246 Y75.269 E24.14848
G1 X152.644 Y76.614 E24.19513
G1 X152.861 Y77.49 E24.22514
G1 X153.001 Y78.383 E24.25521
G1 X153.057 Y79.159 E24.28109
G1 X153.067 Y79.529 E24.2934
G1 X153.073 Y80.063 E24.31116
G1 X153.072 Y82.935 E24.40668
G1 X153.062 Y83.636 E24.43
G1 X153.009 Y84.538 E24.46005
G1 X152.837 Y85.624 E24.49662
G1 X152.611 Y86.675 E24.53238
G1 X152.424 Y87.487 E24.56009
G1 X151.921 Y89.99 E24.64501
G1 X151.496 Y92.471 E24.72873
G1 X151.136 Y94.998 E24.81362
G1 X150.848 Y97.531 E24.89841
G1 X150.633 Y100.058 E24.98277
G1 X150.489 Y102.571 E25.06649
G1 X150.416 Y105.156 E25.1525
G1 X150.407 Y106.481 E25.19657
G1 X150.406 Y166.918 E27.20671
G1 X150.395 Y167.645 E27.23089
G1 X150.341 Y168.547 E27.26095
G1 X150.208 Y169.44 E27.29098
G1 X149.996 Y170.318 E27.32102
G1 X149.708 Y171.174 E27.35106
G1 X149.345 Y172.001 E27.3811
G1 X148.91 Y172.792 E27.41112
G1 X148.407 Y173.542 E27.44116
G1 X147.84 Y174.245 E27.4712
G1 X147.212 Y174.895 E27.50126
G1 X146.53 Y175.486 E27.53127
G1 X145.798 Y176.015 E27.56131
G1 X145.022 Y176.477 E27.59135
G1 X144.208 Y176.869 E27.6214
G1 X143.363 Y177.187 E27.65143
G1 X142.493 Y177.429 E27.68146
G1 X141.605 Y177.593 E27.7115
G1 X140.484 Y177.687 E27.74891
G1 X140.165 Y177.696 E27.75953
G1 X139.877 Y177.7 E27.76911
G1 X115.213 Y177.699 E28.58944
G1 X114.511 Y177.689 E28.61279
G1 X113.609 Y177.636 E28.64284
G1 X112.716 Y177.504 E28.67286
G1 X111.838 Y177.293 E28.7029
G1 X110.982 Y177.005 E28.73294
G1 X110.154 Y176.643 E28.76299
G1 X109.362 Y176.209 E28.79303
G1 X108.612 Y175.706 E28.82307
G1 X107.909 Y175.14 E28.85308
G1 X107.259 Y174.513 E28.88312
G1 X106.912 Y174.129 E28.90034
G1 X105.889 Y172.934 E28.95266
G1 X104.211 Y171.034 E29.03697
G1 X102.454 Y169.152 E29.1226
G1 X100.673 Y167.351 E29.20685
G1 X98.838 Y165.598 E29.29125
G1 X96.946 Y163.891 E29.37601
G1 X95.007 Y162.238 E29.46075
G1 X93.058 Y160.669 E29.54397
G1 X91.017 Y159.12 E29.62919
G1 X88.926 Y157.624 E29.71471
G1 X86.924 Y156.274 E29.79502
G1 X86.522 Y156.009 E29.81103
G1 X85.791 Y155.479 E29.84106
G1 X85.109 Y154.887 E29.8711
G1 X84.483 Y154.236 E29.90114
G1 X83.916 Y153.533 E29.93118
G1 X83.414 Y152.782 E29.96122
G1 X82.981 Y151.99 E29.99124
G1 X82.619 Y151.162 E30.0213
G1 X82.332 Y150.306 E30.05133
G1 X82.121 Y149.428 E30.08136
G1 X81.989 Y148.535 E30.11139
G1 X81.94 Y147.777 E30.13665
G1 X81.931 Y147.454 E30.1474
G1 X81.927 Y147.17 E30.15685
G1 X81.928 Y144.062 E30.26022
G1 X81.938 Y143.359 E30.2836
G1 X81.991 Y142.457 E30.31365
G1 X82.123 Y141.564 E30.34368
G1 X82.334 Y140.686 E30.37371
G1 X82.622 Y139.83 E30.40375
G1 X82.984 Y139.003 E30.43378
G1 X83.418 Y138.211 E30.46381
G1 X83.92 Y137.46 E30.49386
G1 X84.292 Y136.986 E30.5139
G1 X84.897 Y136.258 E30.54538
G1 X86.533 Y134.23 E30.63205
G1 X88.105 Y132.165 E30.71837
G1 X89.579 Y130.109 E30.80251
G1 X90.991 Y128.018 E30.88643
G1 X92.34 Y125.895 E30.97009
G1 X93.658 Y123.682 E31.05576
G1 X94.888 Y121.48 E31.13965
G1 X96.081 Y119.194 E31.22541
G1 X97.169 Y116.954 E31.30824
G1 X98.227 Y114.614 E31.39365
G1 X99.196 Y112.297 E31.47718
G1 X100.125 Y109.889 E31.56303
G1 X100.959 Y107.521 E31.64653
G1 X101.741 Y105.091 E31.73143
G1 X102.451 Y102.648 E31.81605
G1 X103.09 Y100.194 E31.90039
G1 X103.661 Y97.711 E31.98513
G1 X104.159 Y95.237 E32.06907
G1 X104.592 Y92.703 E32.15457
G1 X104.945 Y90.219 E32.23802
G1 X105.231 Y87.704 E32.32221
G1 X105.446 Y85.18 E32.40646
G1 X105.591 Y82.619 E32.49177
G1 X105.664 Y80.06 E32.57692
G1 X105.673 Y78.741 E32.62079
G1 X105.674 Y68.021 E32.97734
G1 X105.684 Y67.356 E32.99946
G1 X105.738 Y66.454 E33.02952
G1 X105.871 Y65.561 E33.05955
G1 X106.082 Y64.683 E33.08958
G1 X106.371 Y63.827 E33.11963
G1 X106.734 Y63 E33.14967
G1 X107.168 Y62.209 E33.17968
G1 F2700 E28.17968
G0 F6000 X140.03 Y66.839
G0 X140.534 Y67.343
G0 X141.673 Y80.384
G1 F2700 E33.17968
G1 F1200 X141.873 Y80.384 E33.18633
G1 X141.873 Y82.615 E33.26053
G1 X141.673 Y82.615 E33.26718
G1 X141.673 Y80.384 E33.34139
G0 F6000 X141.273 Y79.984
G1 F1200 X142.273 Y79.984 E33.37465
G1 X142.273 Y83.015 E33.47546
G1 X141.273 Y83.015 E33.50872
G1 X141.273 Y79.984 E33.60953
G0 F6000 X140.873 Y79.584
G1 F1200 X142.673 Y79.584 E33.6694
G1 X142.673 Y83.415 E33.79682
G1 X140.873 Y83.415 E33.85669
G1 X140.873 Y79.584 E33.98411
G1 F2700 E28.98411
;MESH:Tronco2_lateral_unico.stl
G0 F6000 X129.344 Y86.842
G0 X130.648 Y86.089
G0 X130.661 Y87.5
G0 X130.331 Y88.728
G0 X129.435 Y89.624
G0 X128.207 Y90.121
;TYPE:WALL-INNER
G1 F2700 E33.98411
G1 F1200 X129.518 Y89.77 E34.02925
G1 X130.477 Y88.811 E34.07435
