;FLAVOR:Marlin
;TIME:12277
;Filament used: 9.86796m
;Layer height: 0.2
;MINX:75.5
;MINY:67.7
;MINZ:0.2
;MAXX:159.5
;MAXY:178.5
;MAXZ:25.2
;Generated with Cura_SteamEngine master
M140 S85
M105
M190 S85
M104 S240
M105
M109 S240
M82 ;absolute extrusion mode
; Ender 3 Custom Start G-code
G92 E0 ; Reset Extruder
G28 ; Home all axes
G1 Z2.0 F3000 ; Move Z Axis up little to prevent scratching of Heat Bed
G1 X0.1 Y20 Z0.3 F5000.0 ; Move to start position
G1 X0.1 Y200.0 Z0.3 F1500.0 E15 ; Draw the first line
G1 X0.4 Y200.0 Z0.3 F5000.0 ; Move to side a little
G1 X0.4 Y20 Z0.3 F1500.0 E30 ; Draw the second line
G92 E0 ; Reset Extruder
G1 Z2.0 F3000 ; Move Z Axis up little to prevent scratching of Heat Bed
G1 X5 Y20 Z0.3 F5000.0 ; Move over to prevent blob squish
G92 E0
G92 E0
G1 F2700 E-5
;LAYER_COUNT:126
;LAYER:0
M107
G0 F6000 X79.385 Y100.828 Z0.2
;TYPE:SKIRT
G1 F2700 E0
G1 F900 X80.125 Y100.251 E0.03121
G1 X80.911 Y99.74 E0.06239
G1 X81.738 Y99.297 E0.0936
G1 X82.6 Y98.927 E0.1248
G1 X83.49 Y98.631 E0.15599
G1 X84.402 Y98.413 E0.18718
G1 X85.329 Y98.272 E0.21837
G1 X86.194 Y98.214 E0.2472
G1 X86.508 Y98.205 E0.25765
G1 X86.812 Y98.2 E0.26776
G1 X87.984 Y98.2 E0.30674
G1 X88.657 Y98.21 E0.32913
G1 X89.594 Y98.264 E0.36034
G1 X90.522 Y98.398 E0.39153
G1 X91.359 Y98.589 E0.42008
G1 X91.77 Y98.701 E0.43425
G1 X93.955 Y99.334 E0.50991
G1 X96.378 Y99.962 E0.59317
G1 X98.871 Y100.535 E0.67825
G1 X101.294 Y101.016 E0.76041
G1 X103.768 Y101.439 E0.84389
G1 X106.29 Y101.795 E0.9286
G1 X108.771 Y102.074 E1.01164
G1 X111.29 Y102.287 E1.09572
G1 X113.792 Y102.426 E1.17907
G1 X116.318 Y102.495 E1.26311
G1 X118.84 Y102.493 E1.34699
G1 X121.337 Y102.42 E1.43008
G1 X123.873 Y102.274 E1.51457
G1 X126.37 Y102.059 E1.59793
G1 X128.853 Y101.774 E1.68105
G1 X131.372 Y101.414 E1.76569
G1 X133.841 Y100.988 E1.84902
G1 X136.293 Y100.494 E1.93221
G1 X138.699 Y99.939 E2.01434
G1 X142.554 Y98.903 E2.1471
G1 X143.399 Y98.656 E2.17639
G1 X144.281 Y98.437 E2.20661
G1 X145.207 Y98.286 E2.23782
G1 X146.194 Y98.214 E2.27073
G1 X146.507 Y98.205 E2.28115
G1 X146.812 Y98.2 E2.29129
G1 X147.81 Y98.199 E2.32449
G1 X148.654 Y98.21 E2.35256
G1 X149.591 Y98.264 E2.38378
G1 X150.519 Y98.398 E2.41496
G1 X151.433 Y98.61 E2.44617
G1 X152.325 Y98.899 E2.47736
G1 X153.189 Y99.263 E2.50854
G1 X154.019 Y99.7 E2.53974
G1 X154.809 Y100.205 E2.57092
G1 X155.553 Y100.776 E2.60212
G1 X156.246 Y101.409 E2.63333
G1 X156.882 Y102.098 E2.66452
G1 X157.457 Y102.838 E2.69569
G1 X157.967 Y103.625 E2.72688
G1 X158.409 Y104.453 E2.7581
G1 X158.778 Y105.315 E2.78928
G1 X159.072 Y106.206 E2.82049
G1 X159.289 Y107.118 E2.85167
G1 X159.428 Y108.045 E2.88285
G1 X159.485 Y108.868 E2.91029
G1 X159.495 Y109.19 E2.921
G1 X159.5 Y109.531 E2.93234
G1 X159.499 Y166.9 E4.84044
G1 X159.49 Y167.627 E4.86463
G1 X159.439 Y168.564 E4.89584
G1 X159.307 Y169.492 E4.92701
G1 X159.098 Y170.406 E4.9582
G1 X158.811 Y171.299 E4.9894
G1 X158.449 Y172.165 E5.02061
G1 X158.015 Y172.996 E5.0518
G1 X157.511 Y173.787 E5.08299
G1 X156.942 Y174.532 E5.11417
G1 X156.311 Y175.227 E5.14539
G1 X155.624 Y175.865 E5.17658
G1 X154.885 Y176.442 E5.20776
G1 X154.099 Y176.954 E5.23896
G1 X153.273 Y177.397 E5.27013
G1 X152.411 Y177.769 E5.30136
G1 X151.522 Y178.065 E5.33252
G1 X150.61 Y178.285 E5.36373
G1 X149.683 Y178.426 E5.39491
G1 X148.799 Y178.487 E5.42439
G1 X148.478 Y178.496 E5.43507
G1 X148.17 Y178.5 E5.44531
G1 X147.05 Y178.499 E5.48256
G1 X146.35 Y178.489 E5.50585
G1 X145.127 Y178.403 E5.54663
G1 X144.202 Y178.247 E5.57783
G1 X143.557 Y178.089 E5.59991
G1 X143.149 Y177.976 E5.61399
G1 X141.12 Y177.386 E5.68427
G1 X138.685 Y176.753 E5.76795
G1 X136.21 Y176.182 E5.85243
G1 X133.76 Y175.693 E5.93553
G1 X131.305 Y175.273 E6.01837
G1 X128.797 Y174.916 E6.10263
G1 X126.304 Y174.633 E6.18608
G1 X123.788 Y174.419 E6.27006
G1 X121.274 Y174.278 E6.35381
G1 X118.742 Y174.206 E6.43806
G1 X116.255 Y174.206 E6.52078
G1 X113.707 Y174.278 E6.60556
G1 X111.205 Y174.421 E6.68891
G1 X108.722 Y174.632 E6.77179
G1 X106.19 Y174.92 E6.85655
G1 X103.721 Y175.271 E6.93949
G1 X101.235 Y175.698 E7.02339
G1 X98.729 Y176.201 E7.1084
G1 X96.345 Y176.749 E7.18976
G1 X93.827 Y177.405 E7.27631
G1 X92.534 Y177.772 E7.32101
G1 X91.557 Y178.055 E7.35484
G1 X90.646 Y178.278 E7.38604
G1 X89.719 Y178.422 E7.41724
G1 X88.833 Y178.485 E7.44678
G1 X88.507 Y178.495 E7.45763
G1 X88.17 Y178.5 E7.46884
G1 X87.065 Y178.499 E7.50559
G1 X86.367 Y178.49 E7.52881
G1 X85.431 Y178.438 E7.55999
G1 X84.502 Y178.306 E7.5912
G1 X83.588 Y178.096 E7.62239
G1 X82.695 Y177.809 E7.65359
G1 X81.83 Y177.446 E7.68479
G1 X80.999 Y177.012 E7.71597
G1 X80.208 Y176.508 E7.74716
G1 X79.463 Y175.938 E7.77836
G1 X78.769 Y175.307 E7.80956
G1 X78.132 Y174.62 E7.84072
G1 X77.555 Y173.88 E7.87193
G1 X77.043 Y173.094 E7.90313
G1 X76.6 Y172.267 E7.93433
G1 X76.229 Y171.406 E7.96552
G1 X75.933 Y170.516 E7.99671
G1 X75.714 Y169.604 E8.02791
G1 X75.573 Y168.677 E8.0591
G1 X75.513 Y167.788 E8.08873
G1 X75.504 Y167.455 E8.09981
G1 X75.5 Y167.158 E8.10969
G1 X75.501 Y109.73 E10.01975
G1 X75.51 Y109.061 E10.04201
G1 X75.563 Y108.125 E10.07319
G1 X75.695 Y107.196 E10.1044
G1 X75.906 Y106.282 E10.1356
G1 X76.193 Y105.39 E10.16676
G1 X76.556 Y104.525 E10.19796
G1 X76.991 Y103.694 E10.22916
G1 X77.496 Y102.903 E10.26037
G1 X78.066 Y102.158 E10.29157
G1 X78.697 Y101.465 E10.32274
G1 X79.385 Y100.828 E10.35393
G0 F6000 X79.774 Y101.024
G1 F900 X80.509 Y100.47 E10.38454
G1 X81.29 Y99.983 E10.41515
G1 X82.111 Y99.565 E10.4458
G1 X82.964 Y99.219 E10.47641
G1 X83.844 Y98.949 E10.50703
G1 X84.744 Y98.757 E10.53764
G1 X85.658 Y98.643 E10.56827
G1 X86.205 Y98.613 E10.58649
G1 X86.519 Y98.604 E10.59694
G1 X86.812 Y98.6 E10.60669
G1 X87.978 Y98.6 E10.64547
G1 X88.651 Y98.61 E10.66785
G1 X89.571 Y98.664 E10.69851
G1 X90.482 Y98.797 E10.72913
G1 X91.255 Y98.975 E10.75551
G1 X91.659 Y99.086 E10.76944
G1 X93.816 Y99.711 E10.84414
G1 X96.294 Y100.353 E10.92928
G1 X98.776 Y100.924 E11.01399
G1 X101.226 Y101.41 E11.09706
G1 X103.711 Y101.834 E11.18091
G1 X106.226 Y102.19 E11.26539
G1 X108.765 Y102.476 E11.35037
G1 X111.233 Y102.684 E11.43275
G1 X113.795 Y102.826 E11.51809
G1 X116.307 Y102.895 E11.60167
G1 X118.852 Y102.893 E11.68632
G1 X121.334 Y102.82 E11.76891
G1 X123.899 Y102.673 E11.85436
G1 X126.414 Y102.456 E11.93832
G1 X128.92 Y102.169 E12.02221
G1 X131.425 Y101.81 E12.10638
G1 X133.917 Y101.381 E12.19049
G1 X136.39 Y100.883 E12.27439
G1 X138.809 Y100.325 E12.35696
G1 X142.629 Y99.297 E12.48853
G1 X143.511 Y99.04 E12.51909
G1 X144.362 Y98.829 E12.54825
G1 X145.271 Y98.682 E12.57888
G1 X146.205 Y98.613 E12.61002
G1 X146.518 Y98.604 E12.62044
G1 X146.812 Y98.6 E12.63022
G1 X147.81 Y98.599 E12.66341
G1 X148.648 Y98.61 E12.69129
G1 X149.568 Y98.664 E12.72194
G1 X150.478 Y98.797 E12.75253
G1 X151.374 Y99.009 E12.78315
G1 X152.249 Y99.298 E12.8138
G1 X153.094 Y99.661 E12.84439
G1 X153.906 Y100.097 E12.87504
G1 X154.676 Y100.601 E12.90565
G1 X155.399 Y101.17 E12.93625
G1 X156.071 Y101.8 E12.96689
G1 X156.685 Y102.486 E12.99751
G1 X157.238 Y103.222 E13.02813
G1 X157.724 Y104.004 E13.05875
G1 X158.141 Y104.825 E13.08938
G1 X158.485 Y105.679 E13.12
G1 X158.754 Y106.56 E13.15064
G1 X158.945 Y107.46 E13.18124
G1 X159.057 Y108.374 E13.21187
G1 X159.085 Y108.88 E13.22872
G1 X159.095 Y109.202 E13.23944
G1 X159.1 Y109.531 E13.25038
G1 X159.099 Y166.895 E15.15832
G1 X159.09 Y167.622 E15.1825
G1 X159.039 Y168.541 E15.21311
G1 X158.908 Y169.453 E15.24376
G1 X158.698 Y170.349 E15.27436
G1 X158.412 Y171.224 E15.30498
G1 X158.051 Y172.071 E15.3356
G1 X157.617 Y172.883 E15.36623
G1 X157.115 Y173.655 E15.39686
G1 X156.547 Y174.38 E15.42749
G1 X155.919 Y175.053 E15.4581
G1 X155.235 Y175.669 E15.48872
G1 X154.5 Y176.223 E15.51933
G1 X153.72 Y176.712 E15.54995
G1 X152.9 Y177.131 E15.58058
G1 X152.047 Y177.477 E15.6112
G1 X151.167 Y177.748 E15.64182
G1 X150.267 Y177.941 E15.67244
G1 X149.353 Y178.056 E15.70308
G1 X148.788 Y178.087 E15.7219
G1 X148.467 Y178.096 E15.73258
G1 X148.17 Y178.1 E15.74246
G1 X147.056 Y178.099 E15.77951
G1 X146.356 Y178.089 E15.80279
G1 X145.176 Y178.006 E15.84214
G1 X144.269 Y177.852 E15.87273
G1 X143.664 Y177.704 E15.89345
G1 X143.261 Y177.592 E15.90736
G1 X141.236 Y177.003 E15.9775
G1 X138.769 Y176.362 E16.06228
G1 X136.299 Y175.792 E16.14659
G1 X133.841 Y175.301 E16.22996
G1 X131.352 Y174.875 E16.31395
G1 X128.832 Y174.516 E16.39861
G1 X126.347 Y174.234 E16.48179
G1 X123.811 Y174.019 E16.56644
G1 X121.307 Y173.878 E16.64986
G1 X118.753 Y173.806 E16.73484
G1 X116.244 Y173.806 E16.81829
G1 X113.707 Y173.878 E16.9027
G1 X111.184 Y174.022 E16.98676
G1 X108.644 Y174.238 E17.07154
G1 X106.16 Y174.52 E17.15469
G1 X103.635 Y174.88 E17.23952
G1 X101.188 Y175.299 E17.32209
G1 X98.675 Y175.804 E17.40735
G1 X96.22 Y176.368 E17.49113
G1 X93.714 Y177.021 E17.57726
G1 X92.478 Y177.372 E17.62
G1 X91.446 Y177.671 E17.65573
G1 X90.551 Y177.889 E17.68637
G1 X89.641 Y178.028 E17.71699
G1 X88.821 Y178.085 E17.74433
G1 X88.495 Y178.095 E17.75518
G1 X88.17 Y178.1 E17.76599
G1 X87.07 Y178.099 E17.80257
G1 X86.372 Y178.09 E17.82579
G1 X85.453 Y178.038 E17.85641
G1 X84.542 Y177.907 E17.88702
G1 X83.646 Y177.697 E17.91763
G1 X82.771 Y177.41 E17.94825
G1 X81.924 Y177.048 E17.97889
G1 X81.112 Y176.614 E18.00951
G1 X80.341 Y176.112 E18.04011
G1 X79.616 Y175.544 E18.07075
G1 X78.943 Y174.915 E18.10138
G1 X78.328 Y174.231 E18.13198
G1 X77.774 Y173.496 E18.16259
G1 X77.286 Y172.715 E18.19322
G1 X76.867 Y171.895 E18.22385
G1 X76.521 Y171.042 E18.25446
G1 X76.251 Y170.162 E18.28508
G1 X76.058 Y169.261 E18.31573
G1 X75.944 Y168.348 E18.34633
G1 X75.913 Y167.777 E18.36535
G1 X75.904 Y167.444 E18.37643
G1 X75.9 Y167.158 E18.38594
G1 X75.901 Y109.735 E20.29584
G1 X75.91 Y109.066 E20.31809
G1 X75.962 Y108.147 E20.34871
G1 X76.094 Y107.236 E20.37932
G1 X76.305 Y106.34 E20.40994
G1 X76.592 Y105.465 E20.44057
G1 X76.954 Y104.619 E20.47117
G1 X77.389 Y103.807 E20.50181
G1 X77.892 Y103.036 E20.53243
G1 X78.46 Y102.312 E20.56304
G1 X79.089 Y101.639 E20.59368
G1 X79.774 Y101.024 E20.62429
G0 F6000 X80.162 Y101.225
G1 F900 X80.893 Y100.694 E20.65434
G1 X81.668 Y100.231 E20.68437
G1 X82.481 Y99.838 E20.7144
G1 X83.326 Y99.518 E20.74446
G1 X84.195 Y99.275 E20.77447
G1 X85.083 Y99.109 E20.80452
G1 X86.217 Y99.013 E20.84237
G1 X86.531 Y99.004 E20.85282
G1 X86.813 Y99 E20.8622
G1 X87.973 Y99 E20.90078
G1 X88.646 Y99.01 E20.92316
G1 X89.547 Y99.064 E20.95319
G1 X90.44 Y99.196 E20.98321
G1 X91.151 Y99.361 E21.00749
G1 X91.547 Y99.47 E21.02115
G1 X93.741 Y100.106 E21.09712
G1 X96.175 Y100.737 E21.18075
G1 X98.674 Y101.311 E21.26604
G1 X101.153 Y101.803 E21.3501
G1 X103.693 Y102.237 E21.4358
G1 X106.161 Y102.586 E21.5187
G1 X108.686 Y102.87 E21.60322
G1 X111.245 Y103.086 E21.68863
G1 X113.762 Y103.226 E21.77248
G1 X116.297 Y103.295 E21.85682
G1 X118.829 Y103.293 E21.94104
G1 X121.404 Y103.218 E22.02672
G1 X123.92 Y103.073 E22.11054
G1 X126.422 Y102.858 E22.19406
G1 X128.985 Y102.564 E22.27987
G1 X131.483 Y102.206 E22.3638
G1 X133.992 Y101.774 E22.44848
G1 X136.488 Y101.271 E22.53316
G1 X138.893 Y100.716 E22.61526
G1 X142.748 Y99.679 E22.74803
G1 X143.623 Y99.424 E22.77835
G1 X144.443 Y99.221 E22.80644
G1 X145.335 Y99.077 E22.83649
G1 X146.217 Y99.013 E22.86591
G1 X146.53 Y99.004 E22.87632
G1 X146.813 Y99 E22.88574
G1 X147.973 Y99 E22.92432
G1 X148.642 Y99.01 E22.94657
G1 X149.544 Y99.064 E22.97662
G1 X150.437 Y99.197 E23.00665
G1 X151.315 Y99.408 E23.03669
G1 X152.171 Y99.696 E23.06673
G1 X152.998 Y100.059 E23.09677
G1 X153.79 Y100.494 E23.12682
G1 X154.54 Y100.997 E23.15686
G1 X155.242 Y101.564 E23.18687
G1 X155.892 Y102.191 E23.21691
G1 X156.484 Y102.874 E23.24697
G1 X157.013 Y103.606 E23.27701
G1 X157.475 Y104.381 E23.30702
G1 X157.867 Y105.195 E23.33707
G1 X158.185 Y106.04 E23.3671
G1 X158.428 Y106.91 E23.39714
G1 X158.592 Y107.798 E23.42717
G1 X158.685 Y108.892 E23.46369
G1 X158.695 Y109.214 E23.47441
G1 X158.7 Y109.531 E23.48495
G1 X158.699 Y166.89 E25.39272
G1 X158.69 Y167.617 E25.4169
G1 X158.639 Y168.519 E25.44695
G1 X158.508 Y169.413 E25.477
G1 X158.299 Y170.291 E25.50702
G1 X158.013 Y171.148 E25.53707
G1 X157.652 Y171.976 E25.56711
G1 X157.22 Y172.768 E25.59712
G1 X156.719 Y173.52 E25.62717
G1 X156.153 Y174.224 E25.65722
G1 X155.528 Y174.875 E25.68723
G1 X154.847 Y175.469 E25.71729
G1 X154.116 Y176 E25.74734
G1 X153.342 Y176.464 E25.77735
G1 X152.529 Y176.858 E25.8074
G1 X151.685 Y177.178 E25.83742
G1 X150.815 Y177.423 E25.86749
G1 X149.928 Y177.589 E25.8975
G1 X148.777 Y177.687 E25.93592
G1 X148.456 Y177.696 E25.9466
G1 X148.17 Y177.7 E25.95611
G1 X147.061 Y177.699 E25.993
G1 X146.361 Y177.689 E26.01628
G1 X145.226 Y177.609 E26.05413
G1 X144.336 Y177.458 E26.08415
G1 X143.77 Y177.318 E26.10355
G1 X143.373 Y177.208 E26.11725
G1 X141.311 Y176.609 E26.18866
G1 X138.889 Y175.978 E26.27191
G1 X136.402 Y175.405 E26.3568
G1 X133.908 Y174.907 E26.44138
G1 X131.409 Y174.48 E26.52571
G1 X128.897 Y174.122 E26.6101
G1 X126.354 Y173.833 E26.69522
G1 X123.867 Y173.622 E26.77824
G1 X121.307 Y173.478 E26.86352
G1 X118.764 Y173.406 E26.94813
G1 X116.232 Y173.406 E27.03235
G1 X113.673 Y173.478 E27.11749
G1 X111.164 Y173.622 E27.20108
G1 X108.636 Y173.837 E27.28547
G1 X106.09 Y174.126 E27.37069
G1 X103.581 Y174.483 E27.45498
G1 X101.078 Y174.912 E27.53945
G1 X98.612 Y175.408 E27.62311
G1 X96.134 Y175.977 E27.70767
G1 X93.644 Y176.626 E27.79326
G1 X92.316 Y177.003 E27.83917
G1 X91.334 Y177.287 E27.87317
G1 X90.457 Y177.5 E27.90319
G1 X89.564 Y177.634 E27.93322
G1 X88.809 Y177.685 E27.95839
G1 X88.483 Y177.695 E27.96924
G1 X88.17 Y177.7 E27.97965
G1 X87.075 Y177.699 E28.01607
G1 X86.377 Y177.69 E28.03929
G1 X85.476 Y177.639 E28.0693
G1 X84.582 Y177.507 E28.09936
G1 X83.704 Y177.298 E28.12938
G1 X82.847 Y177.011 E28.15944
G1 X82.02 Y176.65 E28.18945
G1 X81.227 Y176.217 E28.2195
G1 X80.476 Y175.716 E28.24953
G1 X79.772 Y175.15 E28.27957
G1 X79.121 Y174.524 E28.30961
G1 X78.528 Y173.843 E28.33964
G1 X77.998 Y173.112 E28.36968
G1 X77.534 Y172.337 E28.39972
G1 X77.14 Y171.524 E28.42977
G1 X76.82 Y170.68 E28.45979
G1 X76.576 Y169.81 E28.48984
G1 X76.41 Y168.922 E28.51989
G1 X76.313 Y167.767 E28.55844
G1 X76.304 Y167.434 E28.56952
G1 X76.3 Y167.158 E28.5787
G1 X76.301 Y109.741 E30.4884
G1 X76.31 Y109.072 E30.51065
G1 X76.362 Y108.17 E30.5407
G1 X76.494 Y107.277 E30.57072
G1 X76.704 Y106.398 E30.60078
G1 X76.991 Y105.542 E30.63081
G1 X77.353 Y104.715 E30.66084
G1 X77.786 Y103.922 E30.69089
G1 X78.288 Y103.171 E30.72093
G1 X78.854 Y102.468 E30.75095
G1 X79.48 Y101.817 E30.78099
G1 X80.162 Y101.225 E30.81103
G1 F2700 E25.81103
;MESH:Tronco2_centro_2.stl
G0 F6000 X145.835 Y109.614
G0 X146.914 Y109.614
G0 X147.1 Y166.9
;TYPE:WALL-INNER
G1 F2700 E30.81103
G1 F900 X147.1 Y109.8 E32.71018
G1 X147.9 Y109.799 E32.73679
G1 X147.9 Y166.9 E34.63598
G1 X147.1 Y166.9 E34.66258
G0 F6000 X146.7 Y167.3
;TYPE:WALL-OUTER
G1 F900 X146.7 Y109.4 E36.58835
G1 X148.3 Y109.399 E36.64156
G1 X148.3 Y167.3 E38.56736
G1 X146.7 Y167.3 E38.62057
G0 F6000 X147.274 Y166.508
;TYPE:SKIN
G1 F900 X147.491 Y166.724 E38.62567
G0 F6000 X147.499 Y166.449
G1 F900 X147.499 Y166.167 E38.63629
G1 X147.499 Y111.012 E40.71346
G1 X147.517 Y110.181 E40.74476
G1 X147.658 Y110.04 E40.75227
G0 F6000 X147.591 Y110
G1 F2700 E35.75227
G0 F6000 X146.92 Y166.9
G0 X145.835 Y166.9
G0 X89.165 Y166.9
G0 X88.08 Y166.9
G0 X87.9 Y166.9
;TYPE:WALL-INNER
G1 F2700 E40.75227
G1 F900 X87.1 Y166.9 E40.77888
G1 X87.1 Y109.8 E42.67804
G1 X87.9 Y109.799 E42.70464
G1 X87.9 Y166.9 E44.60383
G0 F6000 X88.3 Y167.3
;TYPE:WALL-OUTER
G1 F900 X86.7 Y167.3 E44.65705
G1 X86.7 Y109.4 E46.58281
G1 X88.3 Y109.399 E46.63603
G1 X88.3 Y167.3 E48.56182
G0 F6000 X87.499 Y166.412
;TYPE:SKIN
G1 F900 X87.499 Y166.129 E48.57249
G1 X87.499 Y110.975 E50.65278
G1 X87.535 Y110.163 E50.68344
G1 X87.677 Y110.021 E50.69101
G1 F2700 E45.69101
G0 F6000 X87.629 Y109.974
G0 X87.274 Y166.47
G1 F2700 E50.69101
G1 F900 X87.528 Y166.724 E50.69698
G0 F6000 X87.528 Y166.7
G1 F2700 E45.69698
;MESH:NONMESH
G0 F300 X87.528 Y166.7 Z0.4
G0 F6000 X88.08 Y166.9
G0 X89.165 Y166.9
G0 X145.835 Y166.9
G0 X146.92 Y166.9
G0 X147.1 Y166.9
;TIME_ELAPSED:111.647047
;LAYER:1
M106 S42.5
