;FLAVOR:Marlin
;TIME:12557
;Filament used: 7.5108m
;Layer height: 0.2
;MINX:79.5
;MINY:60.5
;MINZ:0.2
;MAXX:155.5
;MAXY:174.5
;MAXZ:33
;Generated with Cura_SteamEngine master
M140 S65
M105
M190 S65
M104 S200
M105
M109 S200
M82 ;absolute extrusion mode
; Ender 3 Custom Start G-code
G92 E0 ; Reset Extruder
G28 ; Home all axes
G1 Z2.0 F3000 ; Move Z Axis up little to prevent scratching of Heat Bed
G1 X0.1 Y20 Z0.3 F5000.0 ; Move to start position
G1 X0.1 Y200.0 Z0.3 F1500.0 E15 ; Draw the first line
G1 X0.4 Y200.0 Z0.3 F5000.0 ; Move to side a little
G1 X0.4 Y20 Z0.3 F1500.0 E30 ; Draw the second line
G92 E0 ; Reset Extruder
G1 Z2.0 F3000 ; Move Z Axis up little to prevent scratching of Heat Bed
G1 X5 Y20 Z0.3 F5000.0 ; Move over to prevent blob squish
G92 E0
G92 E0
G1 F2700 E-5
;LAYER_COUNT:165
;LAYER:0
M107
G0 F6000 X82.074 Y66.45 Z0.2
;TYPE:SKIRT
G1 F2700 E0
G1 F1200 X82.706 Y65.757 E0.03119
G1 X83.395 Y65.12 E0.0624
G1 X84.135 Y64.544 E0.09359
G1 X84.922 Y64.034 E0.12479
G1 X85.75 Y63.592 E0.156
G1 X86.612 Y63.223 E0.18719
G1 X87.502 Y62.928 E0.21838
G1 X88.414 Y62.71 E0.24956
G1 X89.342 Y62.571 E0.28077
G1 X90.201 Y62.513 E0.30941
G1 X90.521 Y62.504 E0.32006
G1 X90.83 Y62.5 E0.33033
G1 X102.567 Y62.5 E0.72071
G1 X105.175 Y62.463 E0.80746
G1 X107.696 Y62.356 E0.89138
G1 X110.191 Y62.179 E0.97458
G1 X112.691 Y61.931 E1.05813
G1 X115.184 Y61.612 E1.14173
G1 X117.704 Y61.216 E1.22657
G1 X120.494 Y60.696 E1.32097
G1 X121.422 Y60.563 E1.35215
G1 X122.201 Y60.513 E1.37811
G1 X122.52 Y60.504 E1.38872
G1 X122.83 Y60.5 E1.39904
G1 X143.793 Y60.5 E2.09627
G1 X144.649 Y60.511 E2.12474
G1 X145.585 Y60.565 E2.15592
G1 X146.513 Y60.697 E2.1871
G1 X147.427 Y60.909 E2.21831
G1 X148.319 Y61.198 E2.24949
G1 X149.184 Y61.561 E2.28069
G1 X150.014 Y61.997 E2.31188
G1 X150.805 Y62.502 E2.34309
G1 X151.549 Y63.073 E2.37428
G1 X152.242 Y63.705 E2.40548
G1 X152.879 Y64.393 E2.43666
G1 X153.454 Y65.134 E2.46786
G1 X153.965 Y65.92 E2.49904
G1 X154.407 Y66.748 E2.53026
G1 X154.776 Y67.61 E2.56144
G1 X155.071 Y68.5 E2.59263
G1 X155.289 Y69.412 E2.62382
G1 X155.429 Y70.34 E2.65503
G1 X155.487 Y71.201 E2.68373
G1 X155.496 Y71.521 E2.69438
G1 X155.5 Y71.83 E2.70466
G1 X155.499 Y108.949 E3.93924
G1 X155.489 Y109.655 E3.96273
G1 X155.463 Y110.27 E3.9832
G1 X155.398 Y111.197 E4.01411
G1 X155.254 Y113.732 E4.09856
G1 X155.183 Y116.282 E4.1834
G1 X155.183 Y118.795 E4.26699
G1 X155.255 Y121.303 E4.35044
G1 X155.397 Y123.823 E4.43439
G1 X155.444 Y124.421 E4.45434
G1 X155.471 Y124.86 E4.46897
G1 X155.485 Y125.166 E4.47915
G1 X155.495 Y125.495 E4.4901
G1 X155.5 Y125.829 E4.50121
G1 X155.499 Y162.915 E5.7347
G1 X155.489 Y163.642 E5.75888
G1 X155.436 Y164.579 E5.79009
G1 X155.304 Y165.507 E5.82127
G1 X155.093 Y166.421 E5.85247
G1 X154.804 Y167.313 E5.88366
G1 X154.441 Y168.178 E5.91486
G1 X154.006 Y169.009 E5.94605
G1 X153.501 Y169.799 E5.97724
G1 X152.931 Y170.544 E6.00844
G1 X152.3 Y171.238 E6.03964
G1 X151.611 Y171.875 E6.07085
G1 X150.871 Y172.451 E6.10203
G1 X150.085 Y172.962 E6.13322
G1 X149.258 Y173.404 E6.1644
G1 X148.396 Y173.774 E6.1956
G1 X147.506 Y174.069 E6.22679
G1 X146.594 Y174.288 E6.25799
G1 X145.667 Y174.428 E6.28917
G1 X144.799 Y174.487 E6.3181
G1 X144.479 Y174.496 E6.32875
G1 X144.17 Y174.5 E6.33903
G1 X123.05 Y174.499 E7.04148
G1 X122.351 Y174.489 E7.06473
G1 X121.414 Y174.435 E7.09595
G1 X120.499 Y174.305 E7.12669
G1 X119.107 Y174.045 E7.17379
G1 X118.853 Y173.994 E7.18241
G1 X116.383 Y173.572 E7.26575
G1 X113.874 Y173.216 E7.35003
G1 X111.397 Y172.936 E7.43294
G1 X108.867 Y172.721 E7.5174
G1 X106.393 Y172.582 E7.59981
G1 X102.481 Y172.5 E7.72995
G1 X91.049 Y172.499 E8.11018
G1 X90.351 Y172.489 E8.1334
G1 X89.415 Y172.435 E8.16458
G1 X88.487 Y172.303 E8.19576
G1 X87.573 Y172.091 E8.22697
G1 X86.681 Y171.802 E8.25815
G1 X85.816 Y171.439 E8.28935
G1 X84.986 Y171.003 E8.32054
G1 X84.195 Y170.498 E8.35175
G1 X83.451 Y169.927 E8.38294
G1 X82.758 Y169.295 E8.41414
G1 X82.121 Y168.607 E8.44532
G1 X81.546 Y167.866 E8.47652
G1 X81.035 Y167.08 E8.5077
G1 X80.593 Y166.252 E8.53892
G1 X80.224 Y165.39 E8.5701
G1 X79.929 Y164.5 E8.60129
G1 X79.711 Y163.588 E8.63248
G1 X79.571 Y162.66 E8.66369
G1 X79.513 Y161.788 E8.69276
G1 X79.504 Y161.456 E8.70381
G1 X79.5 Y161.158 E8.71372
G1 X79.501 Y124.051 E9.9479
G1 X79.511 Y123.345 E9.97139
G1 X79.52 Y123.033 E9.98177
G1 X79.573 Y121.807 E10.02258
G1 X79.609 Y121.157 E10.04423
G1 X79.678 Y118.632 E10.12825
G1 X79.676 Y116.168 E10.2102
G1 X79.529 Y112.156 E10.34373
G1 X79.515 Y111.834 E10.35445
G1 X79.505 Y111.488 E10.36596
G1 X79.5 Y111.17 E10.37654
G1 X79.501 Y74.038 E11.61156
G1 X79.511 Y73.349 E11.63447
G1 X79.565 Y72.413 E11.66566
G1 X79.698 Y71.485 E11.69684
G1 X79.91 Y70.571 E11.72805
G1 X80.198 Y69.679 E11.75922
G1 X80.562 Y68.814 E11.79044
G1 X80.998 Y67.984 E11.82162
G1 X81.503 Y67.194 E11.8528
G1 X82.074 Y66.45 E11.884
G0 F6000 X82.468 Y66.603
G1 F1200 X83.098 Y65.931 E11.91463
G1 X83.783 Y65.317 E11.94523
G1 X84.52 Y64.764 E11.97588
G1 X85.301 Y64.277 E12.00649
G1 X86.122 Y63.86 E12.03711
G1 X86.976 Y63.516 E12.06774
G1 X87.856 Y63.247 E12.09834
G1 X88.757 Y63.055 E12.12898
G1 X89.67 Y62.942 E12.15958
G1 X90.212 Y62.913 E12.17763
G1 X90.532 Y62.904 E12.18828
G1 X90.83 Y62.9 E12.19819
G1 X102.573 Y62.9 E12.58877
G1 X105.198 Y62.863 E12.67608
G1 X107.706 Y62.756 E12.75958
G1 X110.226 Y62.578 E12.8436
G1 X112.741 Y62.329 E12.92766
G1 X115.23 Y62.01 E13.01112
G1 X117.768 Y61.611 E13.09657
G1 X120.567 Y61.089 E13.19127
G1 X121.479 Y60.959 E13.22191
G1 X122.212 Y60.913 E13.24634
G1 X122.531 Y60.904 E13.25695
G1 X122.83 Y60.9 E13.2669
G1 X143.793 Y60.9 E13.96413
G1 X144.643 Y60.911 E13.9924
G1 X145.562 Y60.964 E14.02302
G1 X146.473 Y61.097 E14.05364
G1 X147.369 Y61.308 E14.08426
G1 X148.243 Y61.596 E14.11487
G1 X149.09 Y61.959 E14.14552
G1 X149.901 Y62.394 E14.17612
G1 X150.671 Y62.898 E14.20673
G1 X151.395 Y63.467 E14.23736
G1 X152.067 Y64.097 E14.268
G1 X152.682 Y64.782 E14.29862
G1 X153.235 Y65.518 E14.32924
G1 X153.722 Y66.299 E14.35985
G1 X154.139 Y67.12 E14.39047
G1 X154.484 Y67.974 E14.42111
G1 X154.753 Y68.854 E14.45171
G1 X154.945 Y69.755 E14.48236
G1 X155.058 Y70.668 E14.51295
G1 X155.087 Y71.212 E14.53107
G1 X155.096 Y71.532 E14.54172
G1 X155.1 Y71.83 E14.55163
G1 X155.099 Y108.943 E15.78602
G1 X155.089 Y109.649 E15.8095
G1 X155.064 Y110.242 E15.82924
G1 X155.001 Y111.144 E15.85931
G1 X154.854 Y113.734 E15.9456
G1 X154.783 Y116.271 E16.03001
G1 X154.783 Y118.784 E16.11359
G1 X154.856 Y121.325 E16.19814
G1 X155 Y123.878 E16.28319
G1 X155.045 Y124.452 E16.30234
G1 X155.072 Y124.883 E16.3167
G1 X155.085 Y125.178 E16.32652
G1 X155.095 Y125.507 E16.33747
G1 X155.1 Y125.829 E16.34818
G1 X155.099 Y162.91 E17.5815
G1 X155.089 Y163.637 E17.60568
G1 X155.036 Y164.556 E17.6363
G1 X154.904 Y165.467 E17.66692
G1 X154.693 Y166.363 E17.69753
G1 X154.406 Y167.238 E17.72816
G1 X154.043 Y168.084 E17.75878
G1 X153.609 Y168.896 E17.7894
G1 X153.105 Y169.667 E17.82004
G1 X152.537 Y170.391 E17.85065
G1 X151.908 Y171.063 E17.88126
G1 X151.223 Y171.678 E17.91188
G1 X150.487 Y172.231 E17.9425
G1 X149.706 Y172.719 E17.97313
G1 X148.886 Y173.137 E18.00374
G1 X148.032 Y173.482 E18.03438
G1 X147.152 Y173.751 E18.06498
G1 X146.251 Y173.944 E18.09563
G1 X145.338 Y174.057 E18.12623
G1 X144.788 Y174.087 E18.14455
G1 X144.468 Y174.096 E18.1552
G1 X144.17 Y174.1 E18.16511
G1 X123.055 Y174.099 E18.8674
G1 X122.356 Y174.089 E18.89065
G1 X121.437 Y174.036 E18.92126
G1 X120.572 Y173.912 E18.95033
G1 X119.185 Y173.653 E18.99726
G1 X118.927 Y173.602 E19.006
G1 X116.435 Y173.175 E19.0901
G1 X113.939 Y172.821 E19.17394
G1 X111.404 Y172.535 E19.25879
G1 X108.889 Y172.321 E19.34274
G1 X106.424 Y172.182 E19.42486
G1 X102.489 Y172.1 E19.55577
G1 X91.055 Y172.099 E19.93606
G1 X90.357 Y172.089 E19.95928
G1 X89.438 Y172.036 E19.9899
G1 X88.527 Y171.903 E20.02052
G1 X87.631 Y171.692 E20.05114
G1 X86.757 Y171.404 E20.08174
G1 X85.91 Y171.041 E20.11239
G1 X85.099 Y170.606 E20.143
G1 X84.329 Y170.102 E20.17361
G1 X83.605 Y169.533 E20.20424
G1 X82.933 Y168.903 E20.23488
G1 X82.318 Y168.218 E20.26549
G1 X81.765 Y167.482 E20.29611
G1 X81.278 Y166.701 E20.32673
G1 X80.861 Y165.88 E20.35735
G1 X80.516 Y165.026 E20.38799
G1 X80.247 Y164.146 E20.41859
G1 X80.055 Y163.245 E20.44923
G1 X79.942 Y162.332 E20.47983
G1 X79.913 Y161.777 E20.49832
G1 X79.904 Y161.445 E20.50936
G1 X79.9 Y161.158 E20.51891
G1 X79.901 Y124.057 E21.75289
G1 X79.911 Y123.351 E21.77638
G1 X79.92 Y123.05 E21.78639
G1 X79.972 Y121.829 E21.82704
G1 X80.01 Y121.155 E21.84949
G1 X80.078 Y118.644 E21.93304
G1 X80.076 Y116.153 E22.01589
G1 X79.933 Y112.219 E22.14682
G1 X79.914 Y111.822 E22.16004
G1 X79.904 Y111.476 E22.17156
G1 X79.9 Y111.17 E22.18173
G1 X79.901 Y74.044 E23.41655
G1 X79.911 Y73.355 E23.43947
G1 X79.964 Y72.436 E23.47008
G1 X80.097 Y71.525 E23.50071
G1 X80.309 Y70.629 E23.53133
G1 X80.597 Y69.755 E23.56194
G1 X80.96 Y68.909 E23.59256
G1 X81.395 Y68.097 E23.62319
G1 X81.899 Y67.327 E23.6538
G1 X82.468 Y66.603 E23.68443
G0 F6000 X82.862 Y66.76
G1 F1200 X83.489 Y66.11 E23.71447
G1 X84.171 Y65.518 E23.74451
G1 X84.903 Y64.988 E23.77456
G1 X85.679 Y64.526 E23.8046
G1 X86.492 Y64.134 E23.83462
G1 X87.337 Y63.815 E23.86466
G1 X88.207 Y63.572 E23.89471
G1 X89.095 Y63.408 E23.92474
G1 X90.223 Y63.313 E23.96239
G1 X90.543 Y63.304 E23.97304
G1 X90.83 Y63.3 E23.98258
G1 X102.579 Y63.3 E24.37336
G1 X105.185 Y63.263 E24.46004
G1 X107.75 Y63.154 E24.54543
G1 X110.257 Y62.976 E24.62902
G1 X112.798 Y62.725 E24.71395
G1 X115.306 Y62.404 E24.79805
G1 X117.804 Y62.011 E24.88215
G1 X120.641 Y61.482 E24.97814
G1 X121.535 Y61.356 E25.00817
G1 X122.223 Y61.313 E25.03109
G1 X122.542 Y61.304 E25.04171
G1 X122.83 Y61.3 E25.05129
G1 X143.793 Y61.3 E25.74852
G1 X144.637 Y61.311 E25.77659
G1 X145.539 Y61.364 E25.80665
G1 X146.432 Y61.496 E25.83667
G1 X147.31 Y61.707 E25.8667
G1 X148.166 Y61.995 E25.89674
G1 X148.993 Y62.357 E25.92677
G1 X149.785 Y62.792 E25.95682
G1 X150.536 Y63.294 E25.98687
G1 X151.239 Y63.861 E26.01691
G1 X151.889 Y64.488 E26.04694
G1 X152.481 Y65.17 E26.07698
G1 X153.011 Y65.901 E26.10701
G1 X153.473 Y66.677 E26.13705
G1 X153.866 Y67.49 E26.16708
G1 X154.184 Y68.335 E26.19711
G1 X154.427 Y69.205 E26.22716
G1 X154.592 Y70.093 E26.2572
G1 X154.687 Y71.223 E26.29492
G1 X154.696 Y71.543 E26.30556
G1 X154.7 Y71.83 E26.31511
G1 X154.699 Y108.937 E27.54929
G1 X154.689 Y109.643 E27.57278
G1 X154.665 Y110.214 E27.59179
G1 X154.603 Y111.095 E27.62116
G1 X154.454 Y113.734 E27.70907
G1 X154.383 Y116.26 E27.79312
G1 X154.383 Y118.787 E27.87717
G1 X154.456 Y121.335 E27.96195
G1 X154.603 Y123.93 E28.0484
G1 X154.66 Y124.683 E28.07352
G1 X154.673 Y124.906 E28.08095
G1 X154.685 Y125.19 E28.0904
G1 X154.695 Y125.519 E28.10135
G1 X154.7 Y125.829 E28.11166
G1 X154.699 Y162.904 E29.34478
G1 X154.689 Y163.631 E29.36896
G1 X154.637 Y164.533 E29.39901
G1 X154.505 Y165.426 E29.42904
G1 X154.294 Y166.305 E29.4591
G1 X154.007 Y167.161 E29.48913
G1 X153.645 Y167.988 E29.51916
G1 X153.211 Y168.78 E29.54919
G1 X152.709 Y169.531 E29.57924
G1 X152.143 Y170.234 E29.60926
G1 X151.516 Y170.885 E29.63932
G1 X150.835 Y171.477 E29.66933
G1 X150.104 Y172.007 E29.69936
G1 X149.328 Y172.47 E29.72942
G1 X148.515 Y172.863 E29.75945
G1 X147.67 Y173.183 E29.7895
G1 X146.801 Y173.426 E29.81952
G1 X145.913 Y173.591 E29.84956
G1 X144.777 Y173.687 E29.88747
G1 X144.457 Y173.696 E29.89812
G1 X144.17 Y173.7 E29.90767
G1 X123.061 Y173.699 E30.60976
G1 X122.362 Y173.689 E30.63301
G1 X121.461 Y173.636 E30.66303
G1 X120.645 Y173.518 E30.69045
G1 X119.263 Y173.261 E30.7372
G1 X118.995 Y173.208 E30.74629
G1 X116.488 Y172.779 E30.83089
G1 X113.973 Y172.422 E30.91537
G1 X111.482 Y172.14 E30.99875
G1 X108.91 Y171.922 E31.0846
G1 X106.427 Y171.782 E31.16732
G1 X102.497 Y171.7 E31.29806
G1 X91.061 Y171.699 E31.67842
G1 X90.363 Y171.689 E31.70164
G1 X89.461 Y171.636 E31.73169
G1 X88.568 Y171.504 E31.76172
G1 X87.69 Y171.293 E31.79175
G1 X86.834 Y171.005 E31.82179
G1 X86.007 Y170.643 E31.85182
G1 X85.215 Y170.208 E31.88187
G1 X84.464 Y169.706 E31.91192
G1 X83.761 Y169.139 E31.94196
G1 X83.111 Y168.512 E31.97199
G1 X82.519 Y167.83 E32.00203
G1 X81.989 Y167.099 E32.03206
G1 X81.527 Y166.323 E32.0621
G1 X81.134 Y165.51 E32.09213
G1 X80.816 Y164.665 E32.12216
G1 X80.573 Y163.795 E32.15221
G1 X80.408 Y162.907 E32.18225
G1 X80.313 Y161.766 E32.22033
G1 X80.304 Y161.434 E32.23137
G1 X80.3 Y161.158 E32.24056
G1 X80.301 Y124.063 E33.47434
G1 X80.311 Y123.357 E33.49782
G1 X80.319 Y123.067 E33.50747
G1 X80.372 Y121.851 E33.54796
G1 X80.409 Y121.187 E33.57008
G1 X80.478 Y118.655 E33.65432
G1 X80.476 Y116.139 E33.738
G1 X80.334 Y112.227 E33.8682
G1 X80.314 Y111.811 E33.88206
G1 X80.304 Y111.465 E33.89357
G1 X80.3 Y111.17 E33.90338
G1 X80.301 Y74.05 E35.138
G1 X80.311 Y73.361 E35.16092
G1 X80.364 Y72.459 E35.19097
G1 X80.497 Y71.566 E35.221
G1 X80.708 Y70.688 E35.25103
G1 X80.996 Y69.832 E35.28107
G1 X81.358 Y69.005 E35.3111
G1 X81.793 Y68.213 E35.34115
G1 X82.295 Y67.463 E35.37117
G1 X82.862 Y66.76 E35.40121
G1 F2700 E30.40121
;MESH:junta_v5.stl
G0 F6000 X89.847 Y112.153
G0 X113.153 Y112.153
G0 X113.146 Y110.77
G0 X136.678 Y144.967
G0 X135.747 Y143.802
G0 X135.292 Y144.937
G0 X135.05 Y146
G0 X135.292 Y147.063
G0 X135.904 Y147.829
G0 X136.918 Y148.55
;TYPE:WALL-INNER
G1 F2700 E35.40121
G1 F1200 X138.082 Y148.55 E35.43992
G1 X139.131 Y148.045 E35.47864
G1 X139.857 Y147.135 E35.51736
G1 X140.115 Y146 E35.55607
G1 X139.857 Y144.865 E35.59479
G1 X139.131 Y143.955 E35.63351
G1 X138.082 Y143.45 E35.67223
G1 X136.918 Y143.45 E35.71094
G1 X135.869 Y143.955 E35.74967
G1 X135.143 Y144.865 E35.78839
G1 X134.885 Y146 E35.8271
G1 X135.143 Y147.135 E35.86581
G1 X135.869 Y148.045 E35.90453
G1 X136.918 Y148.55 E35.94325
G0 F6000 X137.009 Y148.15
;TYPE:WALL-OUTER
G1 F1200 X137.991 Y148.15 E35.97591
G1 X138.875 Y147.724 E36.00855
G1 X139.487 Y146.957 E36.04119
G1 X139.705 Y146 E36.07383
G1 X139.487 Y145.043 E36.10648
G1 X138.875 Y144.276 E36.13912
G1 X137.991 Y143.85 E36.17175
G1 X137.009 Y143.85 E36.20441
G1 X136.125 Y144.276 E36.23705
G1 X135.513 Y145.043 E36.26969
G1 X135.295 Y146 E36.30233
G1 X135.513 Y146.957 E36.33498
G1 X136.125 Y147.724 E36.36762
G1 X137.009 Y148.15 E36.40025
G0 F6000 X136.912 Y148.578
G1 F2700 E31.40025
G0 F6000 X134.967 Y147.22
G0 X132.177 Y146.585
G0 X131.027 Y147.915
G0 X130.144 Y148.34
G0 X128.918 Y148.55
;TYPE:WALL-INNER
G1 F2700 E36.40025
G1 F1200 X130.082 Y148.55 E36.43897
G1 X131.131 Y148.045 E36.47769
G1 X131.857 Y147.135 E36.51641
G1 X132.115 Y146 E36.55512
G1 X131.857 Y144.865 E36.59384
G1 X131.131 Y143.955 E36.63255
G1 X130.082 Y143.45 E36.67128
G1 X128.918 Y143.45 E36.70999
G1 X127.869 Y143.955 E36.74871
G1 X127.143 Y144.865 E36.78743
G1 X126.885 Y146 E36.82615
G1 X127.143 Y147.135 E36.86486
G1 X127.869 Y148.045 E36.90358
G1 X128.918 Y148.55 E36.9423
G0 F6000 X129.009 Y148.15
;TYPE:WALL-OUTER
G1 F1200 X129.991 Y148.15 E36.97496
G1 X130.875 Y147.724 E37.0076
G1 X131.487 Y146.957 E37.04024
G1 X131.705 Y146 E37.07288
G1 X131.487 Y145.043 E37.10553
G1 X130.875 Y144.276 E37.13816
G1 X129.991 Y143.85 E37.1708
G1 X129.009 Y143.85 E37.20346
G1 X128.125 Y144.276 E37.2361
G1 X127.513 Y145.043 E37.26874
G1 X127.295 Y146 E37.30138
G1 X127.513 Y146.957 E37.33403
G1 X128.125 Y147.724 E37.36666
G1 X129.009 Y148.15 E37.3993
G0 F6000 X128.912 Y148.578
G1 F2700 E32.3993
G0 F6000 X129.205 Y147.286
G0 X121.835 Y148.741
G0 X123.31 Y148.741
G0 X123.1 Y162.9
;TYPE:WALL-INNER
G1 F2700 E37.3993
G1 F1200 X123.1 Y126.1 E38.62327
G1 X143.9 Y126.1 E39.31508
G1 X143.9 Y162.9 E40.53906
G1 X123.1 Y162.9 E41.23087
G0 F6000 X122.7 Y163.3
;TYPE:WALL-OUTER
G1 F1200 X122.7 Y125.7 E42.48145
G1 X144.3 Y125.7 E43.19987
G1 X144.3 Y163.3 E44.45045
G1 X122.7 Y163.3 E45.16887
G0 F6000 X122.97 Y163.03
G0 X123.21 Y162.51
G0 X123.49 Y162.51
;TYPE:SKIN
G1 F1200 X123.49 Y126.49 E46.3669
G1 X143.51 Y126.49 E47.03277
G1 X143.51 Y162.51 E48.2308
G1 X123.49 Y162.51 E48.89666
G1 F2700 E43.89666
G0 F6000 X123.21 Y162.51
G0 X123.31 Y148.66
G0 X121.835 Y148.66
G0 X128.311 Y146.571
G0 X126.967 Y147.22
G0 X128.892 Y148.66
G1 F2700 E48.89666
G0 F6000 X128.829 Y148.94
