; generated by Slic3r 1.3.0 on 2022-02-14 at 13:09:32

; external perimeters extrusion width = 0.44mm (3.38mm^3/s)
; perimeters extrusion width = 0.48mm (6.28mm^3/s)
; infill extrusion width = 0.48mm (7.54mm^3/s)
; solid infill extrusion width = 0.48mm (5.65mm^3/s)
; top infill extrusion width = 0.48mm (3.77mm^3/s)
; support material extrusion width = 0.21mm (2.18mm^3/s)

M107
M190 S60 ; set bed temperature and wait for it to be reached
M104 S180 ; set temperature
G28 ; home all axes
G1 Z5 F5000 ; lift nozzle

; Filament gcode

M109 S180 ; set temperature and wait for it to be reached
G21 ; set units to millimeters
G90 ; use absolute coordinates
M82 ; use absolute distances for extrusion
G92 E0
G1 Z0.300 F8400.000
G1 E-2.00000 F2400.00000
G92 E0
G1 X44.062 Y68.905 F8400.000
G1 E2.00000 F2400.00000
G1 F900
G1 X46.267 Y67.953 E2.12545
G1 X48.000 Y67.743 E2.21665
G1 X152.000 Y67.743 E7.65012
G1 X154.368 Y68.141 E7.77556
G1 X156.477 Y69.289 E7.90101
G1 X158.095 Y71.062 E8.02645
G1 X159.047 Y73.267 E8.15190
G1 X159.257 Y75.000 E8.24310
G1 X159.257 Y125.000 E10.85535
G1 X158.859 Y127.368 E10.98079
G1 X157.711 Y129.477 E11.10624
G1 X155.938 Y131.095 E11.23168
G1 X153.733 Y132.047 E11.35713
G1 X152.000 Y132.257 E11.44833
G1 X48.000 Y132.257 E16.88180
G1 X45.632 Y131.859 E17.00725
G1 X43.523 Y130.711 E17.13269
G1 X41.905 Y128.938 E17.25814
G1 X40.953 Y126.733 E17.38358
G1 X40.743 Y125.000 E17.47479
G1 X40.743 Y75.000 E20.08703
G1 X41.141 Y72.632 E20.21248
G1 X42.289 Y70.523 E20.33792
G1 X44.018 Y68.945 E20.46023
G1 X44.465 Y69.147 F8400.000
G1 F900
G1 X46.635 Y68.300 E20.58198
G1 X48.000 Y68.162 E20.65364
G1 X152.000 Y68.162 E26.08711
G1 X154.296 Y68.559 E26.20885
G1 X156.326 Y69.704 E26.33060
G1 X157.853 Y71.465 E26.45234
G1 X158.700 Y73.635 E26.57409
G1 X158.838 Y75.000 E26.64575
G1 X158.838 Y125.000 E29.25799
G1 X158.441 Y127.296 E29.37974
G1 X157.296 Y129.326 E29.50148
G1 X155.535 Y130.853 E29.62323
G1 X153.365 Y131.700 E29.74497
G1 X152.000 Y131.838 E29.81663
G1 X48.000 Y131.838 E35.25010
G1 X45.704 Y131.441 E35.37185
G1 X43.674 Y130.296 E35.49359
G1 X42.147 Y128.535 E35.61534
G1 X41.300 Y126.365 E35.73708
G1 X41.162 Y125.000 E35.80874
G1 X41.162 Y75.000 E38.42099
G1 X41.559 Y72.704 E38.54273
G1 X42.704 Y70.674 E38.66448
G1 X44.419 Y69.186 E38.78309
G1 X44.865 Y69.399 F8400.000
G1 F900
G1 X48.000 Y68.581 E38.95237
G1 X152.000 Y68.581 E44.38584
G1 X154.222 Y68.978 E44.50377
G1 X156.169 Y70.120 E44.62170
G1 X157.601 Y71.865 E44.73963
G1 X158.419 Y75.000 E44.90892
G1 X158.419 Y125.000 E47.52116
G1 X158.022 Y127.222 E47.63909
G1 X156.880 Y129.169 E47.75702
G1 X155.135 Y130.601 E47.87495
G1 X152.000 Y131.419 E48.04423
G1 X48.000 Y131.419 E53.47770
G1 X45.778 Y131.022 E53.59563
G1 X43.831 Y129.880 E53.71356
G1 X42.399 Y128.135 E53.83149
G1 X41.581 Y125.000 E54.00078
G1 X41.581 Y75.000 E56.61302
G1 X41.978 Y72.778 E56.73095
G1 X43.120 Y70.831 E56.84888
G1 X44.818 Y69.437 E56.96367
G1 E54.96367 F2400.00000
G92 E0
G1 X113.036 Y123.964 F8400.000
G1 E2.00000 F2400.00000
G1 F900
G1 X113.036 Y76.036 E4.50398
G1 X150.964 Y76.036 E6.48551
G1 X150.964 Y123.964 E8.98949
G1 X113.096 Y123.964 E10.96789
G1 X112.617 Y124.383 F8400.000
G1 F900
G1 X112.617 Y75.617 E13.51564
G1 X151.383 Y75.617 E15.54094
G1 X151.383 Y124.383 E18.08869
G1 X112.677 Y124.383 E20.11085
G1 X112.220 Y124.780 F8400.000
G1 F540
G1 X112.220 Y75.220 E22.43270
G1 X151.780 Y75.220 E24.28606
G1 X151.780 Y124.780 E26.60792
G1 X112.280 Y124.780 E28.45847
G1 X112.309 Y124.390 F8400.000
G1 E26.45847 F2400.00000
G92 E0
G1 X150.500 Y123.589 F8400.000
G1 E2.00000 F2400.00000
G1 F810
G1 X150.589 Y123.500 E2.00658
G1 X150.589 Y122.908 E2.03757
G1 X149.908 Y123.589 E2.08799
G1 X149.315 Y123.589 E2.11898
G1 X150.589 Y122.315 E2.21323
G1 X150.589 Y121.722 E2.24422
G1 X148.722 Y123.589 E2.38230
G1 X148.129 Y123.589 E2.41329
G1 X150.589 Y121.129 E2.59520
G1 X150.589 Y120.536 E2.62619
G1 X147.536 Y123.589 E2.85194
G1 X146.944 Y123.589 E2.88293
G1 X150.589 Y119.944 E3.15250
G1 X150.589 Y119.351 E3.18350
G1 X146.351 Y123.589 E3.49690
G1 X145.758 Y123.589 E3.52790
G1 X150.589 Y118.758 E3.88513
G1 X150.589 Y118.165 E3.91613
G1 X145.165 Y123.589 E4.31720
G1 X144.572 Y123.589 E4.34819
G1 X150.589 Y117.572 E4.79309
G1 X150.589 Y116.979 E4.82409
G1 X143.979 Y123.589 E5.31282
G1 X143.387 Y123.589 E5.34382
G1 X150.589 Y116.387 E5.87638
G1 X150.589 Y115.794 E5.90738
G1 X142.794 Y123.589 E6.48377
G1 X142.201 Y123.589 E6.51477
G1 X150.589 Y115.201 E7.13500
G1 X150.589 Y114.608 E7.16599
G1 X141.608 Y123.589 E7.83005
G1 X141.015 Y123.589 E7.86105
G1 X150.589 Y114.015 E8.56894
G1 X150.589 Y113.423 E8.59994
G1 X140.423 Y123.589 E9.35166
G1 X139.830 Y123.589 E9.38266
G1 X150.589 Y112.830 E10.17822
G1 X150.589 Y112.237 E10.20921
G1 X139.237 Y123.589 E11.04860
G1 X138.644 Y123.589 E11.07960
G1 X150.589 Y111.644 E11.96282
G1 X150.589 Y111.051 E11.99381
G1 X138.051 Y123.589 E12.92087
G1 X137.459 Y123.589 E12.95186
G1 X150.589 Y110.459 E13.92275
G1 X150.589 Y109.866 E13.95374
G1 X136.866 Y123.589 E14.96846
G1 X136.273 Y123.589 E14.99946
G1 X150.589 Y109.273 E16.05801
G1 X150.589 Y108.680 E16.08900
G1 X135.680 Y123.589 E17.19139
G1 X135.087 Y123.589 E17.22238
G1 X150.589 Y108.087 E18.36860
G1 X150.589 Y107.494 E18.39959
G1 X134.494 Y123.589 E19.58964
G1 X133.902 Y123.589 E19.62063
G1 X150.589 Y106.902 E20.85451
G1 X150.589 Y106.309 E20.88551
G1 X133.309 Y123.589 E22.16322
G1 X132.716 Y123.589 E22.19421
G1 X150.589 Y105.716 E23.51576
G1 X150.589 Y105.123 E23.54675
G1 X132.123 Y123.589 E24.91213
G1 X131.530 Y123.589 E24.94312
G1 X150.589 Y104.530 E26.35233
G1 X150.589 Y103.938 E26.38332
G1 X130.938 Y123.589 E27.83637
G1 X130.345 Y123.589 E27.86736
G1 X150.589 Y103.345 E29.36423
G1 X150.589 Y102.752 E29.39523
G1 X129.752 Y123.589 E30.93593
G1 X129.159 Y123.589 E30.96693
G1 X150.589 Y102.159 E32.55146
G1 X150.589 Y101.566 E32.58246
G1 X128.566 Y123.589 E34.21083
G1 X127.973 Y123.589 E34.24182
G1 X150.589 Y100.974 E35.91402
G1 X150.589 Y100.381 E35.94502
G1 X127.381 Y123.589 E37.66105
G1 X126.788 Y123.589 E37.69204
G1 X150.589 Y99.788 E39.45191
G1 X150.589 Y99.195 E39.48290
G1 X126.195 Y123.589 E41.28660
G1 X125.602 Y123.589 E41.31759
G1 X150.589 Y98.602 E43.16512
G1 X150.589 Y98.009 E43.19612
G1 X125.009 Y123.589 E45.08748
G1 X124.417 Y123.589 E45.11848
G1 X150.589 Y97.417 E47.05367
G1 X150.589 Y96.824 E47.08466
G1 X123.824 Y123.589 E49.06369
G1 X123.231 Y123.589 E49.09468
G1 X150.589 Y96.231 E51.11754
G1 X150.589 Y95.638 E51.14854
G1 X122.638 Y123.589 E53.21523
G1 X122.045 Y123.589 E53.24622
G1 X150.589 Y95.045 E55.35674
G1 X150.589 Y94.453 E55.38774
G1 X121.453 Y123.589 E57.54209
G1 X120.860 Y123.589 E57.57309
G1 X150.589 Y93.860 E59.77127
G1 X150.589 Y93.267 E59.80227
G1 X120.267 Y123.589 E62.04429
G1 X119.674 Y123.589 E62.07528
G1 X150.589 Y92.674 E64.36113
G1 X150.589 Y92.081 E64.39213
G1 X119.081 Y123.589 E66.72181
G1 X118.488 Y123.589 E66.75280
G1 X150.589 Y91.488 E69.12632
G1 X150.589 Y90.896 E69.15731
G1 X117.896 Y123.589 E71.57466
G1 X117.303 Y123.589 E71.60566
G1 X150.589 Y90.303 E74.06684
G1 X150.589 Y89.710 E74.09783
G1 X116.710 Y123.589 E76.60284
G1 X116.117 Y123.589 E76.63384
G1 X150.589 Y89.117 E79.18268
G1 X150.589 Y88.524 E79.21367
G1 X115.524 Y123.589 E81.80635
G1 X114.932 Y123.589 E81.83734
G1 X150.589 Y87.932 E84.47385
G1 X150.589 Y87.339 E84.50485
G1 X114.339 Y123.589 E87.18519
G1 X113.746 Y123.589 E87.21618
G1 X150.589 Y86.746 E89.94035
G1 X150.589 Y86.153 E89.97135
G1 X113.411 Y123.332 E92.72032
G1 X113.411 Y122.739 E92.75131
G1 X150.589 Y85.560 E95.50028
G1 X150.589 Y84.968 E95.53128
G1 X113.411 Y122.146 E98.28025
G1 X113.411 Y121.554 E98.31124
G1 X150.589 Y84.375 E101.06022
G1 X150.589 Y83.782 E101.09121
G1 X113.411 Y120.961 E103.84018
G1 X113.411 Y120.368 E103.87118
G1 X150.589 Y83.189 E106.62015
G1 X150.589 Y82.596 E106.65114
G1 X113.411 Y119.775 E109.40011
G1 X113.411 Y119.182 E109.43111
G1 X150.589 Y82.003 E112.18008
G1 X150.589 Y81.411 E112.21107
G1 X113.411 Y118.590 E114.96004
G1 X113.411 Y117.997 E114.99104
G1 X150.589 Y80.818 E117.74001
G1 X150.589 Y80.225 E117.77100
G1 X113.411 Y117.404 E120.51997
G1 X113.411 Y116.811 E120.55097
G1 X150.589 Y79.632 E123.29994
G1 X150.589 Y79.039 E123.33093
G1 X113.411 Y116.218 E126.07990
G1 X113.411 Y115.625 E126.11090
G1 X150.589 Y78.447 E128.85987
G1 X150.589 Y77.854 E128.89086
G1 X113.411 Y115.033 E131.63984
G1 X113.411 Y114.440 E131.67083
G1 X150.589 Y77.261 E134.41980
G1 X150.589 Y76.668 E134.45080
G1 X113.411 Y113.847 E137.19977
G1 X113.411 Y113.254 E137.23076
G1 X150.254 Y76.411 E139.95494
G1 X149.661 Y76.411 E139.98594
G1 X113.411 Y112.661 E142.66629
G1 X113.411 Y112.069 E142.69728
G1 X149.069 Y76.411 E145.33380
G1 X148.476 Y76.411 E145.36480
G1 X113.411 Y111.476 E147.95748
G1 X113.411 Y110.883 E147.98848
G1 X147.883 Y76.411 E150.53733
G1 X147.290 Y76.411 E150.56833
G1 X113.411 Y110.290 E153.07335
G1 X113.411 Y109.697 E153.10434
G1 X146.697 Y76.411 E155.56554
G1 X146.104 Y76.411 E155.59653
G1 X113.411 Y109.104 E158.01389
G1 X113.411 Y108.512 E158.04488
G1 X145.512 Y76.411 E160.41841
G1 X144.919 Y76.411 E160.44940
G1 X113.411 Y107.919 E162.77910
G1 X113.411 Y107.326 E162.81009
G1 X144.326 Y76.411 E165.09595
G1 X143.733 Y76.411 E165.12695
G1 X113.411 Y106.733 E167.36898
G1 X113.411 Y106.140 E167.39997
G1 X143.140 Y76.411 E169.59817
G1 X142.548 Y76.411 E169.62916
G1 X113.411 Y105.548 E171.78353
G1 X113.411 Y104.955 E171.81452
G1 X141.955 Y76.411 E173.92506
G1 X141.362 Y76.411 E173.95605
G1 X113.411 Y104.362 E176.02275
G1 X113.411 Y103.769 E176.05375
G1 X140.769 Y76.411 E178.07662
G1 X140.176 Y76.411 E178.10761
G1 X113.411 Y103.176 E180.08665
G1 X113.411 Y102.584 E180.11764
G1 X139.584 Y76.411 E182.05285
G1 X138.991 Y76.411 E182.08384
G1 X113.411 Y101.991 E183.97522
G1 X113.411 Y101.398 E184.00621
G1 X138.398 Y76.411 E185.85375
G1 X137.805 Y76.411 E185.88474
G1 X113.411 Y100.805 E187.68845
G1 X113.411 Y100.212 E187.71945
G1 X137.212 Y76.411 E189.47932
G1 X136.619 Y76.411 E189.51032
G1 X113.411 Y99.619 E191.22636
G1 X113.411 Y99.027 E191.25736
G1 X136.027 Y76.411 E192.92957
G1 X135.434 Y76.411 E192.96056
G1 X113.411 Y98.434 E194.58894
G1 X113.411 Y97.841 E194.61994
G1 X134.841 Y76.411 E196.20449
G1 X134.248 Y76.411 E196.23548
G1 X113.411 Y97.248 E197.77620
G1 X113.411 Y96.655 E197.80719
G1 X133.655 Y76.411 E199.30407
G1 X133.063 Y76.411 E199.33507
G1 X113.411 Y96.063 E200.78812
G1 X113.411 Y95.470 E200.81911
G1 X132.470 Y76.411 E202.22833
G1 X131.877 Y76.411 E202.25933
G1 X113.411 Y94.877 E203.62472
G1 X113.411 Y94.284 E203.65571
G1 X131.284 Y76.411 E204.97727
G1 X130.691 Y76.411 E205.00826
G1 X113.411 Y93.691 E206.28598
G1 X113.411 Y93.099 E206.31698
G1 X130.099 Y76.411 E207.55087
G1 X129.506 Y76.411 E207.58186
G1 X113.411 Y92.506 E208.77192
G1 X113.411 Y91.913 E208.80292
G1 X128.913 Y76.411 E209.94914
G1 X128.320 Y76.411 E209.98014
G1 X113.411 Y91.320 E211.08253
G1 X113.411 Y90.727 E211.11353
G1 X127.727 Y76.411 E212.17209
G1 X127.134 Y76.411 E212.20308
G1 X113.411 Y90.134 E213.21781
G1 X113.411 Y89.542 E213.24881
G1 X126.542 Y76.411 E214.21970
G1 X125.949 Y76.411 E214.25070
G1 X113.411 Y88.949 E215.17777
G1 X113.411 Y88.356 E215.20876
G1 X125.356 Y76.411 E216.09199
G1 X124.763 Y76.411 E216.12299
G1 X113.411 Y87.763 E216.96239
G1 X113.411 Y87.170 E216.99338
G1 X124.170 Y76.411 E217.78895
G1 X123.578 Y76.411 E217.81995
G1 X113.411 Y86.578 E218.57169
G1 X113.411 Y85.985 E218.60268
G1 X122.985 Y76.411 E219.31058
G1 X122.392 Y76.411 E219.34158
G1 X113.411 Y85.392 E220.00565
G1 X113.411 Y84.799 E220.03665
G1 X121.799 Y76.411 E220.65689
G1 X121.206 Y76.411 E220.68788
G1 X113.411 Y84.206 E221.26429
G1 X113.411 Y83.613 E221.29529
G1 X120.613 Y76.411 E221.82786
G1 X120.021 Y76.411 E221.85886
G1 X113.411 Y83.021 E222.34760
G1 X113.411 Y82.428 E222.37860
G1 X119.428 Y76.411 E222.82351
G1 X118.835 Y76.411 E222.85450
G1 X113.411 Y81.835 E223.25558
G1 X113.411 Y81.242 E223.28658
G1 X118.242 Y76.411 E223.64383
G1 X117.649 Y76.411 E223.67482
G1 X113.411 Y80.649 E223.98824
G1 X113.411 Y80.057 E224.01923
G1 X117.057 Y76.411 E224.28881
G1 X116.464 Y76.411 E224.31981
G1 X113.411 Y79.464 E224.54556
G1 X113.411 Y78.871 E224.57656
G1 X115.871 Y76.411 E224.75848
G1 X115.278 Y76.411 E224.78947
G1 X113.411 Y78.278 E224.92756
G1 X113.411 Y77.685 E224.95855
G1 X114.685 Y76.411 E225.05281
G1 X114.093 Y76.411 E225.08380
G1 X113.411 Y77.093 E225.13422
G1 X113.411 Y76.500 E225.16522
G1 X113.500 Y76.411 E225.17181
G1 E223.17181 F2400.00000
G92 E0
G1 X86.964 Y123.964 F8400.000
G1 E2.00000 F2400.00000
G1 F900
G1 X49.036 Y123.964 E3.98153
G1 X49.036 Y76.036 E6.48551
G1 X86.964 Y76.036 E8.46704
G1 X86.964 Y123.904 E10.96789
G1 X87.383 Y124.383 F8400.000
G1 F900
G1 X48.617 Y124.383 E12.99319
G1 X48.617 Y75.617 E15.54094
G1 X87.383 Y75.617 E17.56624
G1 X87.383 Y124.323 E20.11085
G1 X87.780 Y124.780 F8400.000
G1 F540
G1 X48.220 Y124.780 E21.96421
G1 X48.220 Y75.220 E24.28606
G1 X87.780 Y75.220 E26.13942
G1 X87.780 Y124.720 E28.45847
G1 X87.398 Y124.662 F8400.000
G1 X86.500 Y123.589 F8400.000
G1 F810
G1 X86.589 Y123.500 E28.46505
G1 X86.589 Y122.908 E28.49604
G1 X85.908 Y123.589 E28.54645
G1 X85.315 Y123.589 E28.57745
G1 X86.589 Y122.315 E28.67169
G1 X86.589 Y121.722 E28.70269
G1 X84.722 Y123.589 E28.84076
G1 X84.129 Y123.589 E28.87176
G1 X86.589 Y121.129 E29.05367
G1 X86.589 Y120.536 E29.08466
G1 X83.536 Y123.589 E29.31040
G1 X82.944 Y123.589 E29.34139
G1 X86.589 Y119.944 E29.61097
G1 X86.589 Y119.351 E29.64196
G1 X82.351 Y123.589 E29.95537
G1 X81.758 Y123.589 E29.98636
G1 X86.589 Y118.758 E30.34360
G1 X86.589 Y118.165 E30.37459
G1 X81.165 Y123.589 E30.77566
G1 X80.572 Y123.589 E30.80666
G1 X86.589 Y117.572 E31.25156
G1 X86.589 Y116.979 E31.28255
G1 X79.979 Y123.589 E31.77129
G1 X79.387 Y123.589 E31.80228
G1 X86.589 Y116.387 E32.33485
G1 X86.589 Y115.794 E32.36584
G1 X78.794 Y123.589 E32.94224
G1 X78.201 Y123.589 E32.97323
G1 X86.589 Y115.201 E33.59346
G1 X86.589 Y114.608 E33.62446
G1 X77.608 Y123.589 E34.28852
G1 X77.015 Y123.589 E34.31951
G1 X86.589 Y114.015 E35.02741
G1 X86.589 Y113.423 E35.05840
G1 X76.423 Y123.589 E35.81013
G1 X75.830 Y123.589 E35.84112
G1 X86.589 Y112.830 E36.63668
G1 X86.589 Y112.237 E36.66768
G1 X75.237 Y123.589 E37.50707
G1 X74.644 Y123.589 E37.53806
G1 X86.589 Y111.644 E38.42128
G1 X86.589 Y111.051 E38.45228
G1 X74.051 Y123.589 E39.37933
G1 X73.459 Y123.589 E39.41033
G1 X86.589 Y110.459 E40.38121
G1 X86.589 Y109.866 E40.41221
G1 X72.866 Y123.589 E41.42693
G1 X72.273 Y123.589 E41.45792
G1 X86.589 Y109.273 E42.51647
G1 X86.589 Y108.680 E42.54747
G1 X71.680 Y123.589 E43.64985
G1 X71.087 Y123.589 E43.68084
G1 X86.589 Y108.087 E44.82706
G1 X86.589 Y107.494 E44.85805
G1 X70.494 Y123.589 E46.04810
G1 X69.902 Y123.589 E46.07910
G1 X86.589 Y106.902 E47.31298
G1 X86.589 Y106.309 E47.34397
G1 X69.309 Y123.589 E48.62168
G1 X68.716 Y123.589 E48.65268
G1 X86.589 Y105.716 E49.97422
G1 X86.589 Y105.123 E50.00522
G1 X68.123 Y123.589 E51.37059
G1 X67.530 Y123.589 E51.40159
G1 X86.589 Y104.530 E52.81079
G1 X86.589 Y103.938 E52.84179
G1 X66.938 Y123.589 E54.29483
G1 X66.345 Y123.589 E54.32582
G1 X86.589 Y103.345 E55.82270
G1 X86.589 Y102.752 E55.85369
G1 X65.752 Y123.589 E57.39440
G1 X65.159 Y123.589 E57.42539
G1 X86.589 Y102.159 E59.00993
G1 X86.589 Y101.566 E59.04092
G1 X64.566 Y123.589 E60.66929
G1 X63.973 Y123.589 E60.70028
G1 X86.589 Y100.974 E62.37249
G1 X86.589 Y100.381 E62.40348
G1 X63.381 Y123.589 E64.11951
G1 X62.788 Y123.589 E64.15051
G1 X86.589 Y99.788 E65.91037
G1 X86.589 Y99.195 E65.94137
G1 X62.195 Y123.589 E67.74506
G1 X61.602 Y123.589 E67.77606
G1 X86.589 Y98.602 E69.62359
G1 X86.589 Y98.009 E69.65458
G1 X61.009 Y123.589 E71.54594
G1 X60.417 Y123.589 E71.57694
G1 X86.589 Y97.417 E73.51213
G1 X86.589 Y96.824 E73.54313
G1 X59.824 Y123.589 E75.52215
G1 X59.231 Y123.589 E75.55315
G1 X86.589 Y96.231 E77.57601
G1 X86.589 Y95.638 E77.60700
G1 X58.638 Y123.589 E79.67369
G1 X58.045 Y123.589 E79.70468
G1 X86.589 Y95.045 E81.81521
G1 X86.589 Y94.453 E81.84620
G1 X57.453 Y123.589 E84.00056
G1 X56.860 Y123.589 E84.03155
