; generated by Slic3r 1.3.0 on 2022-02-14 at 12:41:45

; external perimeters extrusion width = 0.55mm (4.37mm^3/s)
; perimeters extrusion width = 0.70mm (9.53mm^3/s)
; infill extrusion width = 0.62mm (10.09mm^3/s)
; solid infill extrusion width = 0.70mm (8.58mm^3/s)
; top infill extrusion width = 0.70mm (5.72mm^3/s)

M107
M190 S60 ; set bed temperature and wait for it to be reached
M104 S180 ; set temperature
G28 ; home all axes
G1 Z5 F5000 ; lift nozzle

; Filament gcode

M109 S180 ; set temperature and wait for it to be reached
G21 ; set units to millimeters
G90 ; use absolute coordinates
M82 ; use absolute distances for extrusion
G92 E0
G1 Z0.300 F8400.000
G1 E-2.00000 F2400.00000
G92 E0
G1 X43.435 Y68.544 F8400.000
G1 E2.00000 F2400.00000
G1 F900
G1 X45.685 Y67.440 E2.06763
G1 X48.000 Y67.093 E2.13077
G1 X152.000 Y67.093 E4.93633
G1 X154.475 Y67.491 E5.00397
G1 X156.702 Y68.643 E5.07160
G1 X158.456 Y70.435 E5.13923
G1 X159.560 Y72.685 E5.20686
G1 X159.907 Y75.000 E5.27000
G1 X159.907 Y125.000 E6.61883
G1 X159.509 Y127.475 E6.68646
G1 X158.357 Y129.702 E6.75410
G1 X156.565 Y131.456 E6.82173
G1 X154.315 Y132.560 E6.88936
G1 X152.000 Y132.907 E6.95250
G1 X48.000 Y132.907 E9.75806
G1 X45.525 Y132.509 E9.82569
G1 X43.298 Y131.357 E9.89333
G1 X41.544 Y129.565 E9.96096
G1 X40.440 Y127.315 E10.02859
G1 X40.093 Y125.000 E10.09173
G1 X40.093 Y75.000 E11.44056
G1 X40.491 Y72.525 E11.50819
G1 X41.643 Y70.298 E11.57582
G1 X43.381 Y68.597 E11.64143
G1 X44.048 Y68.896 F8400.000
G1 F900
G1 X46.254 Y67.941 E11.70627
G1 X48.000 Y67.729 E11.75372
G1 X152.000 Y67.729 E14.55928
G1 X154.370 Y68.126 E14.62412
G1 X156.482 Y69.274 E14.68896
G1 X158.104 Y71.048 E14.75379
G1 X159.059 Y73.254 E14.81863
G1 X159.271 Y75.000 E14.86608
G1 X159.271 Y125.000 E16.21491
G1 X158.874 Y127.370 E16.27975
G1 X157.726 Y129.482 E16.34459
G1 X155.952 Y131.104 E16.40943
G1 X153.746 Y132.059 E16.47426
G1 X152.000 Y132.271 E16.52171
G1 X48.000 Y132.271 E19.32727
G1 X45.630 Y131.874 E19.39211
G1 X43.518 Y130.726 E19.45695
G1 X41.896 Y128.952 E19.52179
G1 X40.941 Y126.746 E19.58663
G1 X40.729 Y125.000 E19.63408
G1 X40.729 Y75.000 E20.98290
G1 X41.126 Y72.630 E21.04774
G1 X42.274 Y70.518 E21.11258
G1 X43.993 Y68.947 E21.17540
G1 X44.658 Y69.267 F8400.000
G1 F900
G1 X46.811 Y68.472 E21.23732
G1 X48.000 Y68.364 E21.26952
G1 X152.000 Y68.364 E24.07508
G1 X154.261 Y68.761 E24.13700
G1 X156.251 Y69.905 E24.19892
G1 X157.733 Y71.658 E24.26084
G1 X158.528 Y73.811 E24.32276
G1 X158.636 Y75.000 E24.35497
G1 X158.636 Y125.000 E25.70379
G1 X158.239 Y127.261 E25.76571
G1 X157.095 Y129.251 E25.82763
G1 X155.342 Y130.733 E25.88955
G1 X153.189 Y131.528 E25.95147
G1 X152.000 Y131.636 E25.98368
G1 X48.000 Y131.636 E28.78924
G1 X45.739 Y131.239 E28.85116
G1 X43.749 Y130.095 E28.91308
G1 X42.267 Y128.342 E28.97500
G1 X41.472 Y126.189 E29.03692
G1 X41.364 Y125.000 E29.06913
G1 X41.364 Y75.000 E30.41795
G1 X41.761 Y72.739 E30.47987
G1 X42.905 Y70.749 E30.54179
G1 X44.601 Y69.316 E30.60169
G1 E28.60169 F2400.00000
G92 E0
G1 X113.471 Y123.529 F8400.000
G1 E2.00000 F2400.00000
G1 F900
G1 X113.471 Y76.471 E3.26945
G1 X150.529 Y76.471 E4.26913
G1 X150.529 Y123.529 E5.53858
G1 X113.546 Y123.529 E6.53624
G1 X112.836 Y124.164 F8400.000
G1 F900
G1 X112.836 Y75.836 E7.83998
G1 X151.164 Y75.836 E8.87396
G1 X151.164 Y124.164 E10.17770
G1 X112.911 Y124.164 E11.20966
G1 X112.275 Y124.725 F8400.000
G1 F540
G1 X112.275 Y75.275 E12.22884
G1 X151.725 Y75.275 E13.04191
G1 X151.725 Y124.725 E14.06109
G1 X112.350 Y124.725 E14.87263
G1 X112.386 Y124.238 F8400.000
G1 E12.87263 F2400.00000
G92 E0
G1 X149.826 Y122.961 F8400.000
G1 E2.00000 F2400.00000
G1 F810
G1 X149.961 Y122.826 E2.00519
G1 X149.961 Y121.919 E2.02985
G1 X148.919 Y122.961 E2.06990
G1 X148.013 Y122.961 E2.09456
G1 X149.961 Y121.013 E2.16948
G1 X149.961 Y120.107 E2.19413
G1 X147.107 Y122.961 E2.30392
G1 X146.200 Y122.961 E2.32857
G1 X149.961 Y119.200 E2.47322
G1 X149.961 Y118.294 E2.49788
G1 X145.294 Y122.961 E2.67739
G1 X144.387 Y122.961 E2.70205
G1 X149.961 Y117.387 E2.91643
G1 X149.961 Y116.481 E2.94108
G1 X143.481 Y122.961 E3.19033
G1 X142.575 Y122.961 E3.21498
G1 X149.961 Y115.575 E3.49910
G1 X149.961 Y114.668 E3.52375
G1 X141.668 Y122.961 E3.84273
G1 X140.762 Y122.961 E3.86738
G1 X149.961 Y113.762 E4.22122
G1 X149.961 Y112.856 E4.24588
G1 X139.856 Y122.961 E4.63458
G1 X138.949 Y122.961 E4.65924
G1 X149.961 Y111.949 E5.08281
G1 X149.961 Y111.043 E5.10746
G1 X138.043 Y122.961 E5.56590
G1 X137.137 Y122.961 E5.59055
G1 X149.961 Y110.137 E6.08386
G1 X149.961 Y109.230 E6.10851
G1 X136.230 Y122.961 E6.63668
G1 X135.324 Y122.961 E6.66133
G1 X149.961 Y108.324 E7.22436
G1 X149.961 Y107.417 E7.24902
G1 X134.417 Y122.961 E7.84691
G1 X133.511 Y122.961 E7.87157
G1 X149.961 Y106.511 E8.50433
G1 X149.961 Y105.605 E8.52898
G1 X132.605 Y122.961 E9.19661
G1 X131.698 Y122.961 E9.22126
G1 X149.961 Y104.698 E9.92376
G1 X149.961 Y103.792 E9.94841
G1 X130.792 Y122.961 E10.68577
G1 X129.886 Y122.961 E10.71042
G1 X149.961 Y102.886 E11.48264
G1 X149.961 Y101.979 E11.50730
G1 X128.979 Y122.961 E12.31438
G1 X128.073 Y122.961 E12.33904
G1 X149.961 Y101.073 E13.18099
G1 X149.961 Y100.167 E13.20564
G1 X127.167 Y122.961 E14.08246
G1 X126.260 Y122.961 E14.10711
G1 X149.961 Y99.260 E15.01880
G1 X149.961 Y98.354 E15.04345
G1 X125.354 Y122.961 E15.99000
G1 X124.448 Y122.961 E16.01465
G1 X149.961 Y97.448 E16.99606
G1 X149.961 Y96.541 E17.02072
G1 X123.541 Y122.961 E18.03699
G1 X122.635 Y122.961 E18.06165
G1 X149.961 Y95.635 E19.11279
G1 X149.961 Y94.728 E19.13744
G1 X121.728 Y122.961 E20.22345
G1 X120.822 Y122.961 E20.24810
G1 X149.961 Y93.822 E21.36898
G1 X149.961 Y92.916 E21.39363
G1 X119.916 Y122.961 E22.54937
G1 X119.009 Y122.961 E22.57402
G1 X149.961 Y92.009 E23.76462
G1 X149.961 Y91.103 E23.78928
G1 X118.103 Y122.961 E25.01475
G1 X117.197 Y122.961 E25.03940
G1 X149.961 Y90.197 E26.29973
G1 X149.961 Y89.290 E26.32438
G1 X116.290 Y122.961 E27.61958
G1 X115.384 Y122.961 E27.64424
G1 X149.961 Y88.384 E28.97430
G1 X149.961 Y87.478 E28.99895
G1 X114.478 Y122.961 E30.36388
G1 X114.039 Y122.961 E30.37580
G1 X114.039 Y122.492 E30.38853
G1 X149.961 Y86.571 E31.77032
G1 X149.961 Y85.665 E31.79497
G1 X114.039 Y121.586 E33.17675
G1 X114.039 Y120.680 E33.20141
G1 X149.961 Y84.759 E34.58319
G1 X149.961 Y83.852 E34.60784
G1 X114.039 Y119.773 E35.98962
G1 X114.039 Y118.867 E36.01428
G1 X149.961 Y82.946 E37.39606
G1 X149.961 Y82.039 E37.42071
G1 X114.039 Y117.961 E38.80250
G1 X114.039 Y117.054 E38.82715
G1 X149.961 Y81.133 E40.20893
G1 X149.961 Y80.227 E40.23358
G1 X114.039 Y116.148 E41.61537
G1 X114.039 Y115.242 E41.64002
G1 X149.961 Y79.320 E43.02180
G1 X149.961 Y78.414 E43.04646
G1 X114.039 Y114.335 E44.42824
G1 X114.039 Y113.429 E44.45289
G1 X149.961 Y77.508 E45.83467
G1 X149.961 Y77.039 E45.84741
G1 X149.522 Y77.039 E45.85933
G1 X114.039 Y112.522 E47.22426
G1 X114.039 Y111.616 E47.24891
G1 X148.616 Y77.039 E48.57897
G1 X147.710 Y77.039 E48.60363
G1 X114.039 Y110.710 E49.89882
G1 X114.039 Y109.803 E49.92348
G1 X146.803 Y77.039 E51.18381
G1 X145.897 Y77.039 E51.20846
G1 X114.039 Y108.897 E52.43393
G1 X114.039 Y107.991 E52.45859
G1 X144.991 Y77.039 E53.64919
G1 X144.084 Y77.039 E53.67384
G1 X114.039 Y107.084 E54.82958
G1 X114.039 Y106.178 E54.85423
G1 X143.178 Y77.039 E55.97511
G1 X142.272 Y77.039 E55.99976
G1 X114.039 Y105.272 E57.08577
G1 X114.039 Y104.365 E57.11042
G1 X141.365 Y77.039 E58.16157
G1 X140.459 Y77.039 E58.18622
G1 X114.039 Y103.459 E59.20250
G1 X114.039 Y102.552 E59.22715
G1 X139.552 Y77.039 E60.20856
G1 X138.646 Y77.039 E60.23322
G1 X114.039 Y101.646 E61.17977
G1 X114.039 Y100.740 E61.20442
G1 X137.740 Y77.039 E62.11610
G1 X136.833 Y77.039 E62.14076
G1 X114.039 Y99.833 E63.01757
G1 X114.039 Y98.927 E63.04223
G1 X135.927 Y77.039 E63.88418
G1 X135.021 Y77.039 E63.90883
G1 X114.039 Y98.021 E64.71592
G1 X114.039 Y97.114 E64.74057
G1 X134.114 Y77.039 E65.51280
G1 X133.208 Y77.039 E65.53745
G1 X114.039 Y96.208 E66.27481
G1 X114.039 Y95.302 E66.29946
G1 X132.302 Y77.039 E67.00196
G1 X131.395 Y77.039 E67.02661
G1 X114.039 Y94.395 E67.69424
G1 X114.039 Y93.489 E67.71889
G1 X130.489 Y77.039 E68.35165
G1 X129.583 Y77.039 E68.37631
G1 X114.039 Y92.583 E68.97420
G1 X114.039 Y91.676 E68.99886
G1 X128.676 Y77.039 E69.56189
G1 X127.770 Y77.039 E69.58654
G1 X114.039 Y90.770 E70.11471
G1 X114.039 Y89.863 E70.13937
G1 X126.863 Y77.039 E70.63267
G1 X125.957 Y77.039 E70.65732
G1 X114.039 Y88.957 E71.11576
G1 X114.039 Y88.051 E71.14041
G1 X125.051 Y77.039 E71.56399
G1 X124.144 Y77.039 E71.58864
G1 X114.039 Y87.144 E71.97735
G1 X114.039 Y86.238 E72.00200
G1 X123.238 Y77.039 E72.35584
G1 X122.332 Y77.039 E72.38050
G1 X114.039 Y85.332 E72.69947
G1 X114.039 Y84.425 E72.72413
G1 X121.425 Y77.039 E73.00824
G1 X120.519 Y77.039 E73.03289
G1 X114.039 Y83.519 E73.28214
G1 X114.039 Y82.613 E73.30680
G1 X119.613 Y77.039 E73.52118
G1 X118.706 Y77.039 E73.54583
G1 X114.039 Y81.706 E73.72535
G1 X114.039 Y80.800 E73.75000
G1 X117.800 Y77.039 E73.89466
G1 X116.893 Y77.039 E73.91931
G1 X114.039 Y79.893 E74.02910
G1 X114.039 Y78.987 E74.05375
G1 X115.987 Y77.039 E74.12867
G1 X115.081 Y77.039 E74.15333
G1 X114.039 Y78.081 E74.19338
G1 X114.039 Y77.174 E74.21804
G1 X114.174 Y77.039 E74.22323
G1 E72.22323 F2400.00000
G92 E0
G1 X86.529 Y123.529 F8400.000
G1 E2.00000 F2400.00000
G1 F900
G1 X49.471 Y123.529 E2.99968
G1 X49.471 Y76.471 E4.26913
G1 X86.529 Y76.471 E5.26882
G1 X86.529 Y123.454 E6.53624
G1 X87.164 Y124.164 F8400.000
G1 F900
G1 X48.836 Y124.164 E7.57022
G1 X48.836 Y75.836 E8.87396
G1 X87.164 Y75.836 E9.90794
G1 X87.164 Y124.089 E11.20966
G1 X87.725 Y124.725 F8400.000
G1 F540
G1 X48.275 Y124.725 E12.02273
G1 X48.275 Y75.275 E13.04191
G1 X87.725 Y75.275 E13.85499
G1 X87.725 Y124.650 E14.87263
G1 X87.247 Y124.578 F8400.000
G1 E12.87263 F2400.00000
G92 E0
G1 X85.826 Y122.961 F8400.000
G1 E2.00000 F2400.00000
G1 F810
G1 X85.961 Y122.826 E2.00519
G1 X85.961 Y121.919 E2.02985
G1 X84.919 Y122.961 E2.06990
G1 X84.013 Y122.961 E2.09456
G1 X85.961 Y121.013 E2.16948
G1 X85.961 Y120.107 E2.19413
G1 X83.107 Y122.961 E2.30392
G1 X82.200 Y122.961 E2.32857
G1 X85.961 Y119.200 E2.47322
G1 X85.961 Y118.294 E2.49788
G1 X81.294 Y122.961 E2.67739
G1 X80.387 Y122.961 E2.70205
G1 X85.961 Y117.387 E2.91643
G1 X85.961 Y116.481 E2.94108
G1 X79.481 Y122.961 E3.19033
G1 X78.575 Y122.961 E3.21498
G1 X85.961 Y115.575 E3.49910
G1 X85.961 Y114.668 E3.52375
G1 X77.668 Y122.961 E3.84273
G1 X76.762 Y122.961 E3.86738
G1 X85.961 Y113.762 E4.22122
G1 X85.961 Y112.856 E4.24588
G1 X75.856 Y122.961 E4.63458
G1 X74.949 Y122.961 E4.65924
G1 X85.961 Y111.949 E5.08281
G1 X85.961 Y111.043 E5.10746
G1 X74.043 Y122.961 E5.56590
G1 X73.137 Y122.961 E5.59055
G1 X85.961 Y110.137 E6.08386
G1 X85.961 Y109.230 E6.10851
G1 X72.230 Y122.961 E6.63668
G1 X71.324 Y122.961 E6.66133
G1 X85.961 Y108.324 E7.22436
G1 X85.961 Y107.417 E7.24902
G1 X70.417 Y122.961 E7.84691
G1 X69.511 Y122.961 E7.87157
G1 X85.961 Y106.511 E8.50433
G1 X85.961 Y105.605 E8.52898
G1 X68.605 Y122.961 E9.19661
G1 X67.698 Y122.961 E9.22126
G1 X85.961 Y104.698 E9.92376
G1 X85.961 Y103.792 E9.94841
G1 X66.792 Y122.961 E10.68577
G1 X65.886 Y122.961 E10.71042
G1 X85.961 Y102.886 E11.48264
G1 X85.961 Y101.979 E11.50729
G1 X64.979 Y122.961 E12.31438
G1 X64.073 Y122.961 E12.33904
G1 X85.961 Y101.073 E13.18099
G1 X85.961 Y100.167 E13.20564
G1 X63.167 Y122.961 E14.08246
G1 X62.260 Y122.961 E14.10711
G1 X85.961 Y99.260 E15.01880
G1 X85.961 Y98.354 E15.04345
G1 X61.354 Y122.961 E15.99000
G1 X60.448 Y122.961 E16.01465
G1 X85.961 Y97.448 E16.99606
G1 X85.961 Y96.541 E17.02072
G1 X59.541 Y122.961 E18.03699
G1 X58.635 Y122.961 E18.06165
G1 X85.961 Y95.635 E19.11279
G1 X85.961 Y94.728 E19.13744
G1 X57.728 Y122.961 E20.22345
G1 X56.822 Y122.961 E20.24810
G1 X85.961 Y93.822 E21.36898
G1 X85.961 Y92.916 E21.39363
G1 X55.916 Y122.961 E22.54937
G1 X55.009 Y122.961 E22.57402
G1 X85.961 Y92.009 E23.76462
G1 X85.961 Y91.103 E23.78928
G1 X54.103 Y122.961 E25.01474
G1 X53.197 Y122.961 E25.03940
G1 X85.961 Y90.197 E26.29973
G1 X85.961 Y89.290 E26.32438
G1 X52.290 Y122.961 E27.61958
G1 X51.384 Y122.961 E27.64424
G1 X85.961 Y88.384 E28.97430
G1 X85.961 Y87.478 E28.99895
G1 X50.478 Y122.961 E30.36388
G1 X50.039 Y122.961 E30.37580
G1 X50.039 Y122.492 E30.38853
G1 X85.961 Y86.571 E31.77031
G1 X85.961 Y85.665 E31.79497
G1 X50.039 Y121.586 E33.17675
G1 X50.039 Y120.680 E33.20140
G1 X85.961 Y84.759 E34.58319
G1 X85.961 Y83.852 E34.60784
G1 X50.039 Y119.773 E35.98962
G1 X50.039 Y118.867 E36.01428
G1 X85.961 Y82.946 E37.39606
G1 X85.961 Y82.039 E37.42071
G1 X50.039 Y117.961 E38.80249
G1 X50.039 Y117.054 E38.82715
G1 X85.961 Y81.133 E40.20893
G1 X85.961 Y80.227 E40.23358
G1 X50.039 Y116.148 E41.61537
G1 X50.039 Y115.242 E41.64002
G1 X85.961 Y79.320 E43.02180
G1 X85.961 Y78.414 E43.04645
G1 X50.039 Y114.335 E44.42824
G1 X50.039 Y113.429 E44.45289
G1 X85.961 Y77.508 E45.83467
G1 X85.961 Y77.039 E45.84741
G1 X85.522 Y77.039 E45.85933
G1 X50.039 Y112.522 E47.22425
G1 X50.039 Y111.616 E47.24891
G1 X84.616 Y77.039 E48.57897
G1 X83.710 Y77.039 E48.60362
G1 X50.039 Y110.710 E49.89882
G1 X50.039 Y109.803 E49.92348
G1 X82.803 Y77.039 E51.18381
G1 X81.897 Y77.039 E51.20846
G1 X50.039 Y108.897 E52.43393
G1 X50.039 Y107.991 E52.45858
G1 X80.991 Y77.039 E53.64919
G1 X80.084 Y77.039 E53.67384
G1 X50.039 Y107.084 E54.82958
G1 X50.039 Y106.178 E54.85423
G1 X79.178 Y77.039 E55.97510
G1 X78.272 Y77.039 E55.99976
G1 X50.039 Y105.272 E57.08577
G1 X50.039 Y104.365 E57.11042
G1 X77.365 Y77.039 E58.16156
G1 X76.459 Y77.039 E58.18622
G1 X50.039 Y103.459 E59.20249
G1 X50.039 Y102.552 E59.22715
G1 X75.552 Y77.039 E60.20856
G1 X74.646 Y77.039 E60.23321
G1 X50.039 Y101.646 E61.17976
G1 X50.039 Y100.740 E61.20442
G1 X73.740 Y77.039 E62.11610
G1 X72.833 Y77.039 E62.14075
G1 X50.039 Y99.833 E63.01757
G1 X50.039 Y98.927 E63.04222
G1 X71.927 Y77.039 E63.88418
G1 X71.021 Y77.039 E63.90883
G1 X50.039 Y98.021 E64.71592
G1 X50.039 Y97.114 E64.74057
G1 X70.114 Y77.039 E65.51279
G1 X69.208 Y77.039 E65.53745
G1 X50.039 Y96.208 E66.27481
G1 X50.039 Y95.302 E66.29946
G1 X68.302 Y77.039 E67.00195
G1 X67.395 Y77.039 E67.02660
G1 X50.039 Y94.395 E67.69423
G1 X50.039 Y93.489 E67.71889
G1 X66.489 Y77.039 E68.35165
G1 X65.583 Y77.039 E68.37630
G1 X50.039 Y92.583 E68.97420
G1 X50.039 Y91.676 E68.99885
G1 X64.676 Y77.039 E69.56189
G1 X63.770 Y77.039 E69.58654
G1 X50.039 Y90.770 E70.11471
G1 X50.039 Y89.863 E70.13936
G1 X62.863 Y77.039 E70.63266
G1 X61.957 Y77.039 E70.65732
G1 X50.039 Y88.957 E71.11575
G1 X50.039 Y88.051 E71.14041
G1 X61.051 Y77.039 E71.56398
G1 X60.144 Y77.039 E71.58863
G1 X50.039 Y87.144 E71.97734
G1 X50.039 Y86.238 E72.00200
G1 X59.238 Y77.039 E72.35584
G1 X58.332 Y77.039 E72.38049
G1 X50.039 Y85.332 E72.69947
G1 X50.039 Y84.425 E72.72412
G1 X57.425 Y77.039 E73.00824
G1 X56.519 Y77.039 E73.03289
G1 X50.039 Y83.519 E73.28214
G1 X50.039 Y82.613 E73.30679
G1 X55.613 Y77.039 E73.52117
G1 X54.706 Y77.039 E73.54583
G1 X50.039 Y81.706 E73.72534
G1 X50.039 Y80.800 E73.75000
G1 X53.800 Y77.039 E73.89465
G1 X52.893 Y77.039 E73.91930
G1 X50.039 Y79.893 E74.02909
G1 X50.039 Y78.987 E74.05374
G1 X51.987 Y77.039 E74.12867
G1 X51.081 Y77.039 E74.15332
G1 X50.039 Y78.081 E74.19338
G1 X50.039 Y77.174 E74.21803
G1 X50.174 Y77.039 E74.22322
G1 Z0.600 F8400.000
G1 E72.22322 F2400.00000
G92 E0
G1 X113.471 Y123.529 F8400.000
G1 E2.00000 F2400.00000
G1 F3000
G1 X113.471 Y76.471 E3.26945
G1 X150.529 Y76.471 E4.26913
G1 X150.529 Y123.529 E5.53858
G1 X113.546 Y123.529 E6.53624
G1 X112.836 Y124.164 F8400.000
G1 F3000
G1 X112.836 Y75.836 E7.83998
G1 X151.164 Y75.836 E8.87396
G1 X151.164 Y124.164 E10.17770
G1 X112.911 Y124.164 E11.20966
G1 X112.275 Y124.725 F8400.000
G1 F1800
G1 X112.275 Y75.275 E12.22884
G1 X151.725 Y75.275 E13.04191
G1 X151.725 Y124.725 E14.06109
G1 X112.350 Y124.725 E14.87263
G1 X112.386 Y124.238 F8400.000
G1 E12.87263 F2400.00000
G92 E0
G1 X114.039 Y122.826 F8400.000
G1 E2.00000 F2400.00000
G1 F2700
G1 X114.174 Y122.961 E2.00519
G1 X115.081 Y122.961 E2.02985
G1 X114.039 Y121.919 E2.06990
G1 X114.039 Y121.013 E2.09456
