; generated by Slic3r 1.3.0 on 2022-02-04 at 09:36:04

; external perimeters extrusion width = 0.55mm (4.37mm^3/s)
; perimeters extrusion width = 0.70mm (9.53mm^3/s)
; infill extrusion width = 0.62mm (10.09mm^3/s)
; solid infill extrusion width = 0.70mm (8.58mm^3/s)
; top infill extrusion width = 0.70mm (5.72mm^3/s)

M107
M104 S205 ; set temperature
G28 ; home all axes
G1 Z5 F5000 ; lift nozzle

; Filament gcode

M109 S205 ; set temperature and wait for it to be reached
G21 ; set units to millimeters
G90 ; use absolute coordinates
M82 ; use absolute distances for extrusion
G92 E0
G1 Z0.300 F8400.000
G1 E-2.00000 F2400.00000
G92 E0
G1 X52.159 Y60.211 F8400.000
G1 E2.00000 F2400.00000
G1 F900
G1 X54.409 Y59.106 E2.06763
G1 X56.724 Y58.759 E2.13077
G1 X143.276 Y58.759 E4.46564
G1 X145.751 Y59.157 E4.53327
G1 X147.978 Y60.309 E4.60091
G1 X149.732 Y62.101 E4.66854
G1 X150.836 Y64.352 E4.73617
G1 X151.183 Y66.666 E4.79931
G1 X151.183 Y82.234 E5.21928
G1 X148.288 Y142.196 E6.83872
G1 X147.771 Y144.649 E6.90635
G1 X146.512 Y146.817 E6.97398
G1 X144.638 Y148.482 E7.04161
G1 X142.337 Y149.477 E7.10925
G1 X140.390 Y149.720 E7.16216
G1 X59.610 Y149.720 E9.34134
G1 X57.134 Y149.323 E9.40897
G1 X54.908 Y148.170 E9.47660
G1 X53.154 Y146.379 E9.54424
G1 X52.049 Y144.128 E9.61187
G1 X51.712 Y142.196 E9.66478
G1 X48.826 Y82.617 E11.27391
G1 X48.817 Y66.666 E11.70419
G1 X49.215 Y64.191 E11.77182
G1 X50.367 Y61.964 E11.83945
G1 X52.105 Y60.263 E11.90506
G1 X52.772 Y60.563 F8400.000
G1 F900
G1 X54.978 Y59.608 E11.96990
G1 X56.724 Y59.395 E12.01735
G1 X143.276 Y59.395 E14.35222
G1 X145.646 Y59.792 E14.41706
G1 X147.758 Y60.941 E14.48190
G1 X149.380 Y62.715 E14.54673
G1 X150.334 Y64.920 E14.61157
G1 X150.547 Y66.666 E14.65902
G1 X150.547 Y82.234 E15.07898
G1 X147.653 Y142.165 E16.69760
G1 X147.142 Y144.513 E16.76243
G1 X145.892 Y146.567 E16.82727
G1 X144.042 Y148.101 E16.89211
G1 X141.793 Y148.948 E16.95695
G1 X140.390 Y149.084 E16.99496
G1 X59.610 Y149.084 E19.17414
G1 X57.239 Y148.687 E19.23898
G1 X55.128 Y147.539 E19.30382
G1 X53.506 Y145.765 E19.36866
G1 X52.551 Y143.559 E19.43350
G1 X52.347 Y142.165 E19.47151
G1 X49.461 Y82.586 E21.08063
G1 X49.453 Y66.666 E21.51008
G1 X49.850 Y64.296 E21.57492
G1 X50.998 Y62.184 E21.63976
G1 X52.717 Y60.613 E21.70258
G1 X53.382 Y60.934 F8400.000
G1 F900
G1 X55.535 Y60.138 E21.76450
G1 X56.724 Y60.031 E21.79670
G1 X143.276 Y60.031 E24.13157
G1 X145.537 Y60.428 E24.19349
G1 X147.527 Y61.571 E24.25541
G1 X149.008 Y63.324 E24.31733
G1 X149.804 Y65.477 E24.37925
G1 X149.912 Y66.666 E24.41146
G1 X149.904 Y82.555 E24.84008
G1 X147.018 Y142.134 E26.44920
G1 X146.512 Y144.373 E26.51112
G1 X145.274 Y146.306 E26.57304
G1 X143.451 Y147.701 E26.63496
G1 X140.390 Y148.449 E26.71996
G1 X59.610 Y148.449 E28.89914
G1 X57.349 Y148.052 E28.96106
G1 X55.359 Y146.908 E29.02298
G1 X53.877 Y145.155 E29.08490
G1 X52.982 Y142.134 E29.16990
G1 X50.088 Y82.234 E30.78768
G1 X50.088 Y66.666 E31.20765
G1 X50.485 Y64.406 E31.26957
G1 X51.629 Y62.415 E31.33149
G1 X53.325 Y60.982 E31.39138
G1 E29.39138 F2400.00000
G92 E0
G1 X118.776 Y140.342 F8400.000
G1 E2.00000 F2400.00000
G1 F900
G1 X118.776 Y96.181 E3.19131
G1 X109.627 Y83.705 E3.60865
G1 X141.481 Y83.705 E4.46796
G1 X138.919 Y96.517 E4.82041
G1 X138.919 Y140.342 E6.00267
G1 X118.851 Y140.342 E6.54403
G1 E4.54403 F2400.00000
G92 E0
G1 X109.100 Y82.542 F8400.000
G1 E2.00000 F2400.00000
G1 F360
G1 X108.838 Y82.628 E2.00746
G1 X108.195 Y81.752 E2.03676
G1 X108.195 Y68.138 E2.40404
G1 X109.100 Y68.138 E2.42846
G1 X109.100 Y82.467 E2.81503
G1 X109.736 Y83.070 F8400.000
G1 F900
G1 X141.226 Y83.070 E3.66451
G1 X141.226 Y67.502 E4.08448
G1 X142.440 Y67.502 E4.11724
G1 X142.440 Y82.151 E4.51243
G1 X139.555 Y96.580 E4.90936
G1 X139.555 Y140.978 E6.10706
G1 X118.140 Y140.978 E6.68474
G1 X118.140 Y96.389 E7.88759
G1 X107.560 Y81.961 E8.37026
G1 X107.560 Y67.502 E8.76030
G1 X109.736 Y67.502 E8.81901
G1 X109.736 Y82.995 E9.23695
G1 X110.297 Y82.509 F8400.000
G1 F540
G1 X140.665 Y82.509 E9.86286
G1 X140.665 Y66.941 E10.18371
G1 X143.001 Y66.941 E10.23185
G1 X143.001 Y82.207 E10.54648
G1 X140.115 Y96.635 E10.84974
G1 X140.115 Y141.538 E11.77521
G1 X117.580 Y141.538 E12.23967
G1 X117.580 Y96.572 E13.16643
G1 X106.999 Y82.144 E13.53519
G1 X106.999 Y66.941 E13.84853
G1 X110.297 Y66.941 E13.91649
G1 X110.297 Y82.434 E14.23580
G1 X110.331 Y83.008 F8400.000
G1 X108.648 Y81.832 F8400.000
G1 F360
G1 X108.648 Y68.455 E14.35223
G1 E12.35223 F2400.00000
G92 E0
G1 X110.949 Y84.274 F8400.000
G1 E2.00000 F2400.00000
G1 F810
G1 X110.814 Y84.408 E2.00515
G1 X111.195 Y84.927 E2.02253
G1 X111.849 Y84.274 E2.04750
G1 X112.749 Y84.274 E2.07179
G1 X111.576 Y85.446 E2.11658
G1 X111.956 Y85.966 E2.13395
G1 X113.648 Y84.274 E2.19856
G1 X114.548 Y84.274 E2.22285
G1 X112.337 Y86.485 E2.30727
G1 X112.717 Y87.004 E2.32464
G1 X115.448 Y84.274 E2.42888
G1 X116.347 Y84.274 E2.45317
G1 X113.098 Y87.523 E2.57723
G1 X113.479 Y88.042 E2.59460
G1 X117.247 Y84.274 E2.73848
G1 X118.146 Y84.274 E2.76277
G1 X113.859 Y88.561 E2.92646
G1 X114.240 Y89.080 E2.94383
G1 X119.046 Y84.274 E3.12734
G1 X119.946 Y84.274 E3.15163
G1 X114.621 Y89.599 E3.35496
G1 X115.001 Y90.118 E3.37233
G1 X120.845 Y84.274 E3.59548
G1 X121.745 Y84.274 E3.61976
G1 X115.382 Y90.637 E3.86272
G1 X115.762 Y91.156 E3.88010
G1 X122.645 Y84.274 E4.14288
G1 X123.544 Y84.274 E4.16717
G1 X116.143 Y91.675 E4.44976
G1 X116.524 Y92.194 E4.46714
G1 X124.444 Y84.274 E4.76955
G1 X125.344 Y84.274 E4.79384
G1 X116.904 Y92.713 E5.11607
G1 X117.285 Y93.232 E5.13344
G1 X126.243 Y84.274 E5.47549
G1 X127.143 Y84.274 E5.49978
G1 X117.665 Y93.751 E5.86164
G1 X118.046 Y94.270 E5.87902
G1 X128.042 Y84.274 E6.26070
G1 X128.942 Y84.274 E6.28499
G1 X118.427 Y94.789 E6.68649
G1 X118.807 Y95.308 E6.70386
G1 X129.842 Y84.274 E7.12518
G1 X130.741 Y84.274 E7.14947
G1 X119.188 Y95.827 E7.59060
G1 X119.344 Y96.040 E7.59774
G1 X119.344 Y96.570 E7.61205
G1 X131.641 Y84.274 E8.08156
G1 X132.541 Y84.274 E8.10585
G1 X119.344 Y97.470 E8.60971
G1 X119.344 Y98.370 E8.63400
G1 X133.440 Y84.274 E9.17221
G1 X134.340 Y84.274 E9.19650
G1 X119.344 Y99.269 E9.76906
G1 X119.344 Y100.169 E9.79335
G1 X135.240 Y84.274 E10.40027
G1 X136.139 Y84.274 E10.42455
G1 X119.344 Y101.068 E11.06582
G1 X119.344 Y101.968 E11.09011
G1 X137.039 Y84.274 E11.76572
G1 X137.939 Y84.274 E11.79001
G1 X119.344 Y102.868 E12.49997
G1 X119.344 Y103.767 E12.52426
G1 X138.838 Y84.274 E13.26857
G1 X139.738 Y84.274 E13.29286
G1 X119.344 Y104.667 E14.07152
G1 X119.344 Y105.567 E14.09581
G1 X140.637 Y84.274 E14.90882
G1 X140.773 Y84.274 E14.91249
G1 X140.583 Y85.228 E14.93877
G1 X119.344 Y106.466 E15.74969
G1 X119.344 Y107.366 E15.77398
G1 X140.358 Y86.353 E16.57630
G1 X140.133 Y87.477 E16.60727
G1 X119.344 Y108.266 E17.40101
G1 X119.344 Y109.165 E17.42530
G1 X139.908 Y88.602 E18.21045
G1 X139.683 Y89.726 E18.24141
G1 X119.344 Y110.065 E19.01798
G1 X119.344 Y110.964 E19.04226
G1 X139.458 Y90.851 E19.81024
G1 X139.233 Y91.975 E19.84120
G1 X119.344 Y111.864 E20.60059
G1 X119.344 Y112.764 E20.62488
G1 X139.008 Y93.100 E21.37569
G1 X138.783 Y94.224 E21.40665
G1 X119.344 Y113.663 E22.14886
G1 X119.344 Y114.563 E22.17315
G1 X138.558 Y95.349 E22.90678
G1 X138.351 Y96.386 E22.93534
G1 X138.351 Y96.456 E22.93722
G1 X119.344 Y115.463 E23.66293
G1 X119.344 Y116.362 E23.68722
G1 X138.351 Y97.356 E24.41292
G1 X138.351 Y98.255 E24.43721
G1 X119.344 Y117.262 E25.16292
G1 X119.344 Y118.162 E25.18721
G1 X138.351 Y99.155 E25.91291
G1 X138.351 Y100.055 E25.93720
G1 X119.344 Y119.061 E26.66291
G1 X119.344 Y119.961 E26.68720
G1 X138.351 Y100.954 E27.41290
G1 X138.351 Y101.854 E27.43719
G1 X119.344 Y120.860 E28.16290
G1 X119.344 Y121.760 E28.18719
G1 X138.351 Y102.754 E28.91289
G1 X138.351 Y103.653 E28.93718
G1 X119.344 Y122.660 E29.66289
G1 X119.344 Y123.559 E29.68717
G1 X138.351 Y104.553 E30.41288
G1 X138.351 Y105.453 E30.43717
G1 X119.344 Y124.459 E31.16287
G1 X119.344 Y125.359 E31.18716
G1 X138.351 Y106.352 E31.91287
G1 X138.351 Y107.252 E31.93716
G1 X119.344 Y126.258 E32.66286
G1 X119.344 Y127.158 E32.68715
G1 X138.351 Y108.151 E33.41286
G1 X138.351 Y109.051 E33.43715
G1 X119.344 Y128.058 E34.16285
G1 X119.344 Y128.957 E34.18714
G1 X138.351 Y109.951 E34.91285
G1 X138.351 Y110.850 E34.93713
G1 X119.344 Y129.857 E35.66284
G1 X119.344 Y130.757 E35.68713
G1 X138.351 Y111.750 E36.41283
G1 X138.351 Y112.650 E36.43712
G1 X119.344 Y131.656 E37.16283
G1 X119.344 Y132.556 E37.18712
G1 X138.351 Y113.549 E37.91282
G1 X138.351 Y114.449 E37.93711
G1 X119.344 Y133.455 E38.66282
G1 X119.344 Y134.355 E38.68711
G1 X138.351 Y115.349 E39.41281
G1 X138.351 Y116.248 E39.43710
G1 X119.344 Y135.255 E40.16281
G1 X119.344 Y136.154 E40.18709
G1 X138.351 Y117.148 E40.91280
G1 X138.351 Y118.047 E40.93709
G1 X119.344 Y137.054 E41.66279
G1 X119.344 Y137.954 E41.68708
G1 X138.351 Y118.947 E42.41279
G1 X138.351 Y119.847 E42.43708
G1 X119.344 Y138.853 E43.16278
G1 X119.344 Y139.753 E43.18707
G1 X138.351 Y120.746 E43.91278
G1 X138.351 Y121.646 E43.93707
G1 X120.223 Y139.774 E44.62922
G1 X121.123 Y139.774 E44.65351
G1 X138.351 Y122.546 E45.31131
G1 X138.351 Y123.445 E45.33560
G1 X122.022 Y139.774 E45.95905
G1 X122.922 Y139.774 E45.98334
G1 X138.351 Y124.345 E46.57244
G1 X138.351 Y125.245 E46.59673
G1 X123.822 Y139.774 E47.15148
G1 X124.721 Y139.774 E47.17577
G1 X138.351 Y126.144 E47.69617
G1 X138.351 Y127.044 E47.72046
G1 X125.621 Y139.774 E48.20652
G1 X126.521 Y139.774 E48.23081
G1 X138.351 Y127.943 E48.68251
G1 X138.351 Y128.843 E48.70680
G1 X127.420 Y139.774 E49.12415
G1 X128.320 Y139.774 E49.14844
G1 X138.351 Y129.743 E49.53144
G1 X138.351 Y130.642 E49.55573
G1 X129.219 Y139.774 E49.90438
G1 X130.119 Y139.774 E49.92867
G1 X138.351 Y131.542 E50.24298
G1 X138.351 Y132.442 E50.26726
G1 X131.019 Y139.774 E50.54722
G1 X131.918 Y139.774 E50.57151
G1 X138.351 Y133.341 E50.81711
G1 X138.351 Y134.241 E50.84140
G1 X132.818 Y139.774 E51.05265
G1 X133.718 Y139.774 E51.07694
G1 X138.351 Y135.141 E51.25384
G1 X138.351 Y136.040 E51.27813
G1 X134.617 Y139.774 E51.42069
G1 X135.517 Y139.774 E51.44497
G1 X138.351 Y136.940 E51.55318
G1 X138.351 Y137.840 E51.57747
G1 X136.417 Y139.774 E51.65132
G1 X137.316 Y139.774 E51.67561
G1 X138.351 Y138.739 E51.71511
G1 X138.351 Y139.639 E51.73940
G1 X138.216 Y139.774 E51.74456
G1 E49.74456 F2400.00000
G92 E0
G1 X141.705 Y83.388 F8400.000
G1 E2.00000 F2400.00000
G1 F360
G1 X141.730 Y83.128 E2.00373
G1 F360
G1 X141.782 Y82.610 E2.01315
G1 F360
G1 X141.833 Y82.091 E2.02453
G1 X141.833 Y67.820 E2.33612
G1 E0.33612 F2400.00000
G92 E0
G1 X90.373 Y83.705 F8400.000
G1 E2.00000 F2400.00000
G1 F900
G1 X81.224 Y96.181 E2.41734
G1 X81.224 Y140.342 E3.60865
G1 X61.081 Y140.342 E4.15204
G1 X61.081 Y96.517 E5.33429
G1 X58.519 Y83.705 E5.68674
G1 X90.298 Y83.705 E6.54403
G1 X90.900 Y82.542 F8400.000
G1 F360
G1 X90.900 Y68.138 E6.93262
G1 X91.805 Y68.138 E6.95704
G1 X91.805 Y81.752 E7.32432
G1 X91.162 Y82.628 E7.35362
G1 X90.971 Y82.566 E7.35905
G1 X90.264 Y83.070 F8400.000
G1 F900
G1 X90.264 Y67.502 E7.77902
G1 X92.440 Y67.502 E7.83773
G1 X92.440 Y81.961 E8.22777
G1 X81.860 Y96.389 E8.71044
G1 X81.860 Y140.978 E9.91329
G1 X60.445 Y140.978 E10.49097
G1 X60.445 Y96.580 E11.68867
G1 X57.560 Y82.151 E12.08560
G1 X57.560 Y67.502 E12.48079
G1 X58.774 Y67.502 E12.51355
G1 X58.774 Y83.070 E12.93351
G1 X90.189 Y83.070 E13.78098
G1 X89.703 Y82.509 F8400.000
G1 F540
G1 X89.703 Y66.941 E14.10183
G1 X93.001 Y66.941 E14.16980
G1 X93.001 Y82.144 E14.48313
G1 X82.420 Y96.572 E14.85190
G1 X82.420 Y141.538 E15.77865
G1 X59.885 Y141.538 E16.24312
G1 X59.885 Y96.635 E17.16858
G1 X56.999 Y82.207 E17.47184
G1 X56.999 Y66.941 E17.78647
G1 X59.335 Y66.941 E17.83461
G1 X59.335 Y82.509 E18.15547
G1 X89.628 Y82.509 E18.77983
G1 X90.197 Y82.588 F8400.000
G1 X91.352 Y81.832 F8400.000
G1 F360
G1 X91.352 Y68.455 E18.89626
G1 E16.89626 F2400.00000
G92 E0
G1 X58.167 Y67.820 F8400.000
G1 E2.00000 F2400.00000
G1 F360
G1 X58.167 Y82.091 E2.31159
G1 X58.193 Y82.350 E2.31728
G1 F360
G1 X58.244 Y82.869 E2.32670
G1 F360
G1 X58.295 Y83.388 E2.33416
G1 X59.227 Y84.408 F8400.000
G1 F810
G1 X59.362 Y84.274 E2.33932
G1 X60.263 Y84.274 E2.36373
G1 X59.377 Y85.160 E2.39766
G1 X59.527 Y85.912 E2.41841
G1 X61.165 Y84.274 E2.48111
G1 X62.067 Y84.274 E2.50552
G1 X59.678 Y86.663 E2.59699
G1 X59.828 Y87.415 E2.61773
G1 X62.969 Y84.274 E2.73797
G1 X63.871 Y84.274 E2.76238
G1 X59.978 Y88.166 E2.91139
G1 X60.128 Y88.918 E2.93213
G1 X64.773 Y84.274 E3.10990
G1 X65.675 Y84.274 E3.13431
G1 X60.279 Y89.669 E3.34085
G1 X60.429 Y90.421 E3.36160
G1 X66.577 Y84.274 E3.59690
G1 X67.478 Y84.274 E3.62131
G1 X60.579 Y91.173 E3.88539
G1 X60.730 Y91.924 E3.90613
G1 X68.380 Y84.274 E4.19897
G1 X69.282 Y84.274 E4.22338
G1 X60.880 Y92.676 E4.54499
G1 X61.030 Y93.427 E4.56574
G1 X70.184 Y84.274 E4.91611
G1 X71.086 Y84.274 E4.94052
G1 X61.181 Y94.179 E5.31967
G1 X61.331 Y94.930 E5.34041
G1 X71.988 Y84.274 E5.74832
G1 X72.890 Y84.274 E5.77273
G1 X61.481 Y95.682 E6.20941
G1 X61.632 Y96.434 E6.23015
G1 X73.792 Y84.274 E6.69560
G1 X74.693 Y84.274 E6.72001
G1 X61.649 Y97.318 E7.21931
G1 X61.649 Y98.220 E7.24372
G1 X75.595 Y84.274 E7.77753
G1 X76.497 Y84.274 E7.80194
G1 X61.649 Y99.122 E8.37028
G1 X61.649 Y100.023 E8.39469
G1 X77.399 Y84.274 E8.99755
G1 X78.301 Y84.274 E9.02196
G1 X61.649 Y100.925 E9.65933
G1 X61.649 Y101.827 E9.68374
G1 X79.203 Y84.274 E10.35564
G1 X80.105 Y84.274 E10.38005
G1 X61.649 Y102.729 E11.08647
G1 X61.649 Y103.631 E11.11088
G1 X81.007 Y84.274 E11.85182
G1 X81.909 Y84.274 E11.87623
G1 X61.649 Y104.533 E12.65170
G1 X61.649 Y105.435 E12.67611
G1 X82.810 Y84.274 E13.48609
G1 X83.712 Y84.274 E13.51050
G1 X61.649 Y106.337 E14.35500
G1 X61.649 Y107.238 E14.37941
G1 X84.614 Y84.274 E15.25844
G1 X85.516 Y84.274 E15.28285
G1 X61.649 Y108.140 E16.19639
G1 X61.649 Y109.042 E16.22080
G1 X86.418 Y84.274 E17.16887
G1 X87.320 Y84.274 E17.19328
G1 X61.649 Y109.944 E18.17587
G1 X61.649 Y110.846 E18.20028
G1 X88.222 Y84.274 E19.21738
G1 X89.124 Y84.274 E19.24179
G1 X61.649 Y111.748 E20.29342
G1 X61.649 Y112.650 E20.31783
G1 X86.877 Y87.422 E21.28346
G1 X84.396 Y90.804 E21.39697
G1 X61.649 Y113.552 E22.26766
G1 X61.649 Y114.453 E22.29207
G1 X81.916 Y94.186 E23.06783
G1 X80.656 Y95.905 E23.12552
G1 X80.656 Y96.349 E23.13753
G1 X61.649 Y115.355 E23.86504
G1 X61.649 Y116.257 E23.88945
G1 X80.656 Y97.251 E24.61696
G1 X80.656 Y98.153 E24.64137
G1 X61.649 Y117.159 E25.36887
G1 X61.649 Y118.061 E25.39328
G1 X80.656 Y99.054 E26.12079
G1 X80.656 Y99.956 E26.14520
G1 X61.649 Y118.963 E26.87271
G1 X61.649 Y119.865 E26.89712
G1 X80.656 Y100.858 E27.62463
G1 X80.656 Y101.760 E27.64904
G1 X61.649 Y120.767 E28.37655
G1 X61.649 Y121.668 E28.40096
G1 X80.656 Y102.662 E29.12847
G1 X80.656 Y103.564 E29.15288
G1 X61.649 Y122.570 E29.88039
G1 X61.649 Y123.472 E29.90480
G1 X80.656 Y104.466 E30.63231
G1 X80.656 Y105.368 E30.65672
G1 X61.649 Y124.374 E31.38423
G1 X61.649 Y125.276 E31.40864
G1 X80.656 Y106.269 E32.13615
G1 X80.656 Y107.171 E32.16056
G1 X61.649 Y126.178 E32.88807
G1 X61.649 Y127.080 E32.91248
G1 X80.656 Y108.073 E33.63998
G1 X80.656 Y108.975 E33.66439
G1 X61.649 Y127.982 E34.39190
G1 X61.649 Y128.883 E34.41631
G1 X80.656 Y109.877 E35.14382
G1 X80.656 Y110.779 E35.16823
G1 X61.649 Y129.785 E35.89574
G1 X61.649 Y130.687 E35.92015
G1 X80.656 Y111.681 E36.64766
G1 X80.656 Y112.583 E36.67207
G1 X61.649 Y131.589 E37.39958
G1 X61.649 Y132.491 E37.42399
G1 X80.656 Y113.484 E38.15150
G1 X80.656 Y114.386 E38.17591
G1 X61.649 Y133.393 E38.90342
G1 X61.649 Y134.295 E38.92783
G1 X80.656 Y115.288 E39.65534
G1 X80.656 Y116.190 E39.67975
G1 X61.649 Y135.197 E40.40726
G1 X61.649 Y136.098 E40.43167
G1 X80.656 Y117.092 E41.15917
G1 X80.656 Y117.994 E41.18358
G1 X61.649 Y137.000 E41.91109
G1 X61.649 Y137.902 E41.93550
G1 X80.656 Y118.896 E42.66301
G1 X80.656 Y119.798 E42.68742
G1 X61.649 Y138.804 E43.41493
G1 X61.649 Y139.706 E43.43934
G1 X80.656 Y120.699 E44.16685
G1 X80.656 Y121.601 E44.19126
G1 X62.483 Y139.774 E44.88684
G1 X63.385 Y139.774 E44.91125
G1 X80.656 Y122.503 E45.57232
G1 X80.656 Y123.405 E45.59673
G1 X64.287 Y139.774 E46.22327
