; generated by Slic3r 1.3.0 on 2022-02-23 at 17:53:42

; external perimeters extrusion width = 0.44mm (4.25mm^3/s)
; perimeters extrusion width = 0.42mm (8.02mm^3/s)
; infill extrusion width = 0.42mm (10.69mm^3/s)
; solid infill extrusion width = 0.42mm (2.67mm^3/s)
; top infill extrusion width = 0.42mm (2.00mm^3/s)
; support material extrusion width = 0.44mm (8.50mm^3/s)

M107
M190 S60 ; set bed temperature and wait for it to be reached
M104 S180 ; set temperature
G28 ; home all axes
G1 Z5 F5000 ; lift nozzle

; Filament gcode

M109 S180 ; set temperature and wait for it to be reached
G21 ; set units to millimeters
G90 ; use absolute coordinates
M82 ; use absolute distances for extrusion
G92 E0
G1 Z0.500 F7800.000
G1 E-2.00000 F2400.00000
G92 E0
G1 X48.682 Y15.260 F7800.000
G1 E2.00000 F2400.00000
G1 F1800
G1 X49.632 Y13.122 E2.21275
G1 X51.242 Y11.424 E2.42549
G1 X53.327 Y10.363 E2.63824
G1 X55.365 Y10.055 E2.82566
G1 X135.708 Y10.055 E10.13120
G1 X138.014 Y10.452 E10.34395
G1 X140.054 Y11.598 E10.55670
G1 X141.346 Y12.982 E10.72887
G1 X142.509 Y14.636 E10.91270
G1 X143.511 Y16.750 E11.12545
G1 X143.733 Y17.945 E11.23600
G1 X151.914 Y103.517 E19.05247
G1 X151.945 Y104.173 E19.11219
G1 X151.945 Y108.140 E19.47294
G1 X151.528 Y174.580 E25.51442
G1 X151.083 Y176.973 E25.73573
G1 X147.281 Y187.035 E26.71380
G1 X146.094 Y189.052 E26.92655
G1 X144.302 Y190.555 E27.13930
G1 X142.109 Y191.373 E27.35204
G1 X140.833 Y191.492 E27.46861
G1 X69.748 Y191.492 E33.93237
G1 X67.442 Y191.095 E34.14512
G1 X65.402 Y189.949 E34.35787
G1 X63.863 Y188.187 E34.57061
G1 X63.329 Y187.112 E34.67975
G1 X59.390 Y177.050 E35.66231
G1 X58.968 Y175.383 E35.81867
G1 X48.387 Y89.811 E43.65892
G1 X48.335 Y88.994 E43.73334
G1 X48.055 Y22.554 E49.77475
G1 X48.055 Y18.601 E50.13421
G1 X48.265 Y16.914 E50.28884
G1 X48.667 Y15.318 E50.43846
G1 E48.43846 F2400.00000
G92 E0
G1 X111.677 Y127.305 F7800.000
G1 E2.00000 F2400.00000
G1 F1800
G1 X140.931 Y127.305 E4.66006
G1 X138.548 Y139.222 E5.76510
G1 X138.548 Y182.314 E9.68341
G1 X120.033 Y182.314 E11.36693
G1 X120.033 Y138.700 E15.33269
G1 X111.712 Y127.354 E16.61210
G1 E14.61210 F2400.00000
G92 E0
G1 X109.915 Y126.413 F7800.000
G1 E2.00000 F2400.00000
G1 F1800
G1 X142.020 Y126.413 E4.91926
G1 X139.440 Y139.310 E6.11528
G1 X139.440 Y183.206 E10.10672
G1 X119.140 Y183.206 E11.95259
G1 X119.140 Y138.992 E15.97295
G1 X109.951 Y126.461 E17.38597
G1 X109.019 Y125.502 F7800.000
G1 F1800
G1 X110.514 Y125.502 E17.52198
G1 X110.514 Y125.520 E17.52359
G1 X141.333 Y125.520 E20.32591
G1 X141.333 Y109.193 E21.81055
G1 X143.219 Y109.193 E21.98201
G1 X143.219 Y124.970 E23.41668
G1 X140.333 Y139.399 E24.75462
G1 X140.333 Y184.099 E28.81920
G1 X118.248 Y184.099 E30.82741
G1 X118.248 Y139.285 E34.90237
G1 X107.667 Y124.856 E36.52930
G1 X107.667 Y109.193 E37.95359
G1 X109.019 Y109.193 E38.07651
G1 X109.019 Y125.442 E39.55408
G1 X109.030 Y125.902 F7800.000
G1 X108.343 Y125.023 F7800.000
G1 F1800
G1 X108.343 Y109.639 E40.10545
G1 E38.10545 F2400.00000
G92 E0
G1 X113.092 Y128.545 F7800.000
G1 E2.00000 F2400.00000
G1 F1800
G1 X113.786 Y127.851 E2.08979
G1 X115.055 Y127.851 E2.20586
G1 X113.629 Y129.278 E2.39037
G1 X114.166 Y130.010 E2.47341
G1 X116.325 Y127.851 E2.75263
G1 X117.594 Y127.851 E2.86870
G1 X114.703 Y130.742 E3.24262
G1 X115.240 Y131.475 E3.32567
G1 X118.864 Y127.851 E3.79429
G1 X120.133 Y127.851 E3.91037
G1 X115.777 Y132.207 E4.47370
G1 X116.314 Y132.940 E4.55675
G1 X121.403 Y127.851 E5.21478
G1 X122.672 Y127.851 E5.33086
G1 X116.851 Y133.672 E6.08361
G1 X117.388 Y134.404 E6.16665
G1 X123.942 Y127.851 E7.01410
G1 X125.211 Y127.851 E7.13018
G1 X117.925 Y135.137 E8.07234
G1 X118.462 Y135.869 E8.15538
G1 X126.481 Y127.851 E9.19225
G1 X127.750 Y127.851 E9.30832
G1 X118.999 Y136.602 E10.43989
G1 X119.537 Y137.334 E10.52294
G1 X129.020 Y127.851 E11.74921
G1 X130.289 Y127.851 E11.86529
G1 X120.074 Y138.066 E13.18628
G1 X120.579 Y138.755 E13.26435
G1 X120.579 Y138.831 E13.27130
G1 X131.559 Y127.851 E14.69114
G1 X132.828 Y127.851 E14.80722
G1 X120.579 Y140.100 E16.39122
G1 X120.579 Y141.370 E16.50730
G1 X134.098 Y127.851 E18.25546
G1 X135.367 Y127.851 E18.37153
G1 X120.579 Y142.639 E20.28385
G1 X120.579 Y143.909 E20.39993
G1 X136.637 Y127.851 E22.47641
G1 X137.906 Y127.851 E22.59248
G1 X120.579 Y145.178 E24.83312
G1 X120.579 Y146.448 E24.94919
G1 X139.176 Y127.851 E27.35399
G1 X140.189 Y127.851 E27.44666
G1 X140.125 Y128.171 E27.47649
G1 X120.579 Y147.717 E30.00407
G1 X120.579 Y148.987 E30.12015
G1 X139.808 Y129.758 E32.60669
G1 X139.491 Y131.344 E32.75466
G1 X120.579 Y150.256 E35.20016
G1 X120.579 Y151.526 E35.31623
G1 X139.173 Y132.931 E37.72069
G1 X138.856 Y134.518 E37.86866
G1 X120.579 Y152.795 E40.23209
G1 X120.579 Y154.065 E40.34816
G1 X138.538 Y136.105 E42.67054
G1 X138.221 Y137.692 E42.81851
G1 X120.579 Y155.334 E45.09986
G1 X120.579 Y156.604 E45.21593
G1 X138.002 Y139.180 E47.46897
G1 X138.002 Y140.450 E47.58505
G1 X120.579 Y157.873 E49.83809
G1 X120.579 Y159.143 E49.95416
G1 X138.002 Y141.719 E52.20720
G1 X138.002 Y142.989 E52.32328
G1 X120.579 Y160.412 E54.57632
G1 X120.579 Y161.682 E54.69239
G1 X138.002 Y144.258 E56.94543
G1 X138.002 Y145.528 E57.06151
G1 X120.579 Y162.951 E59.31454
G1 X120.579 Y164.221 E59.43062
G1 X138.002 Y146.797 E61.68366
G1 X138.002 Y148.067 E61.79974
G1 X120.579 Y165.490 E64.05277
G1 X120.579 Y166.760 E64.16885
G1 X138.002 Y149.336 E66.42189
G1 X138.002 Y150.606 E66.53797
G1 X120.579 Y168.029 E68.79100
G1 X120.579 Y169.299 E68.90708
G1 X138.002 Y151.875 E71.16012
G1 X138.002 Y153.145 E71.27619
G1 X120.579 Y170.568 E73.52923
G1 X120.579 Y171.838 E73.64531
G1 X138.002 Y154.414 E75.89835
G1 X138.002 Y155.684 E76.01442
G1 X120.579 Y173.107 E78.26746
G1 X120.579 Y174.377 E78.38354
G1 X138.002 Y156.953 E80.63658
G1 X138.002 Y158.223 E80.75265
G1 X120.579 Y175.646 E83.00569
G1 X120.579 Y176.916 E83.12177
G1 X138.002 Y159.492 E85.37481
G1 X138.002 Y160.762 E85.49088
G1 X120.579 Y178.185 E87.74392
G1 X120.579 Y179.455 E87.86000
G1 X138.002 Y162.031 E90.11304
G1 X138.002 Y163.301 E90.22911
G1 X120.579 Y180.724 E92.48215
G1 X120.579 Y181.768 E92.57759
G1 X120.804 Y181.768 E92.59823
G1 X138.002 Y164.570 E94.82208
G1 X138.002 Y165.840 E94.93816
G1 X122.074 Y181.768 E96.99786
G1 X123.343 Y181.768 E97.11394
G1 X138.002 Y167.109 E99.00948
G1 X138.002 Y168.379 E99.12556
G1 X124.613 Y181.768 E100.85694
G1 X125.882 Y181.768 E100.97302
G1 X138.002 Y169.648 E102.54024
G1 X138.002 Y170.918 E102.65632
G1 X127.152 Y181.768 E104.05939
G1 X128.421 Y181.768 E104.17547
G1 X138.002 Y172.187 E105.41438
G1 X138.002 Y173.457 E105.53045
G1 X129.691 Y181.768 E106.60521
G1 X130.960 Y181.768 E106.72128
G1 X138.002 Y174.726 E107.63188
G1 X138.002 Y175.996 E107.74795
G1 X132.230 Y181.768 E108.49439
G1 X133.499 Y181.768 E108.61047
G1 X138.002 Y177.265 E109.19275
G1 X138.002 Y178.535 E109.30882
G1 X134.769 Y181.768 E109.72694
G1 X136.038 Y181.768 E109.84302
G1 X138.002 Y179.804 E110.09698
G1 X138.002 Y181.074 E110.21306
G1 X137.308 Y181.768 E110.30287
G1 E108.30287 F2400.00000
G92 E0
G1 X142.168 Y125.966 F7800.000
G1 E2.00000 F2400.00000
G1 F1800
G1 X142.204 Y125.603 E2.02969
G1 F1800
G1 X142.276 Y124.877 E2.09551
G1 X142.276 Y109.639 E3.47019
G1 E1.47019 F2400.00000
G92 E0
G1 X98.904 Y127.305 F7800.000
G1 E2.00000 F2400.00000
G1 F1800
G1 X90.548 Y138.700 E3.28487
G1 X90.548 Y182.314 E7.25063
G1 X72.033 Y182.314 E8.93415
G1 X72.033 Y139.222 E12.85246
G1 X69.650 Y127.305 E13.95749
G1 X98.844 Y127.305 E16.61210
G1 E14.61210 F2400.00000
G92 E0
G1 X100.666 Y126.413 F7800.000
G1 E2.00000 F2400.00000
G1 F1800
G1 X91.440 Y138.992 E3.41848
G1 X91.440 Y183.206 E7.43884
G1 X71.140 Y183.206 E9.28471
G1 X71.140 Y139.310 E13.27615
G1 X68.561 Y126.413 E14.47216
G1 X100.606 Y126.413 E17.38597
G1 X101.562 Y125.502 F7800.000
G1 F1800
G1 X101.562 Y109.193 E18.86900
G1 X102.914 Y109.193 E18.99192
G1 X102.914 Y124.856 E20.41620
G1 X92.333 Y139.285 E22.04314
G1 X92.333 Y184.099 E26.11809
G1 X70.248 Y184.099 E28.12631
G1 X70.248 Y139.399 E32.19088
G1 X67.362 Y124.970 E33.52883
G1 X67.362 Y109.193 E34.96350
G1 X69.248 Y109.193 E35.13496
G1 X69.248 Y125.520 E36.61960
G1 X100.066 Y125.520 E39.42192
G1 X100.066 Y125.502 E39.42353
G1 X101.502 Y125.502 E39.55408
G1 X101.962 Y125.501 F7800.000
G1 X102.238 Y125.023 F7800.000
G1 F1800
G1 X102.238 Y109.639 E40.10545
G1 E38.10545 F2400.00000
G92 E0
G1 X68.305 Y109.639 F7800.000
G1 E2.00000 F2400.00000
G1 F1800
G1 X68.305 Y124.877 E3.37469
G1 X68.341 Y125.240 E3.40760
G1 F1800
G1 X68.413 Y125.966 E3.46697
G1 E1.46697 F2400.00000
G92 E0
G1 X70.392 Y128.545 F7800.000
G1 E2.00000 F2400.00000
G1 F1800
G1 X71.086 Y127.851 E2.08951
G1 X72.352 Y127.851 E2.20488
G1 X70.602 Y129.600 E2.43037
G1 X70.813 Y130.655 E2.52841
G1 X73.617 Y127.851 E2.88986
G1 X74.883 Y127.851 E3.00522
G1 X71.024 Y131.709 E3.50263
G1 X71.235 Y132.764 E3.60067
G1 X76.148 Y127.851 E4.23404
G1 X77.414 Y127.851 E4.34940
G1 X71.446 Y133.819 E5.11873
G1 X71.657 Y134.873 E5.21677
G1 X78.680 Y127.851 E6.12206
G1 X79.945 Y127.851 E6.23743
G1 X71.868 Y135.928 E7.27867
G1 X72.079 Y136.983 E7.37671
G1 X81.211 Y127.851 E8.55392
G1 X82.476 Y127.851 E8.66928
G1 X72.290 Y138.037 E9.98245
G1 X72.501 Y139.092 E10.08049
G1 X83.742 Y127.851 E11.52962
G1 X85.008 Y127.851 E11.64498
G1 X72.579 Y140.280 E13.24723
G1 X72.579 Y141.545 E13.36260
G1 X86.273 Y127.851 E15.12800
G1 X87.539 Y127.851 E15.24336
G1 X72.579 Y142.811 E17.17192
G1 X72.579 Y144.077 E17.28728
G1 X88.804 Y127.851 E19.37899
G1 X90.070 Y127.851 E19.49435
G1 X72.579 Y145.342 E21.74921
G1 X72.579 Y146.608 E21.86458
G1 X91.336 Y127.851 E24.28258
G1 X92.601 Y127.851 E24.39795
G1 X72.579 Y147.873 E26.97911
G1 X72.579 Y149.139 E27.09447
G1 X93.867 Y127.851 E29.83878
G1 X95.132 Y127.851 E29.95415
G1 X72.579 Y150.405 E32.86161
G1 X72.579 Y151.670 E32.97698
G1 X96.398 Y127.851 E36.04759
G1 X97.489 Y127.851 E36.14708
G1 X97.011 Y128.504 E36.22089
G1 X72.579 Y152.936 E39.37048
G1 X72.579 Y154.201 E39.48585
G1 X93.530 Y133.250 E42.18678
G1 X90.050 Y137.996 E42.72326
G1 X72.579 Y155.467 E44.97553
G1 X72.579 Y156.733 E45.09089
G1 X90.002 Y139.309 E47.33701
G1 X90.002 Y140.575 E47.45238
G1 X72.579 Y157.998 E49.69850
G1 X72.579 Y159.264 E49.81386
G1 X90.002 Y141.840 E52.05998
G1 X90.002 Y143.106 E52.17535
G1 X72.579 Y160.529 E54.42147
G1 X72.579 Y161.795 E54.53683
G1 X90.002 Y144.371 E56.78295
G1 X90.002 Y145.637 E56.89832
G1 X72.579 Y163.060 E59.14444
G1 X72.579 Y164.326 E59.25980
G1 X90.002 Y146.903 E61.50592
G1 X90.002 Y148.168 E61.62129
G1 X72.579 Y165.592 E63.86741
G1 X72.579 Y166.857 E63.98277
G1 X90.002 Y149.434 E66.22889
G1 X90.002 Y150.699 E66.34426
G1 X72.579 Y168.123 E68.59038
G1 X72.579 Y169.388 E68.70574
G1 X90.002 Y151.965 E70.95186
G1 X90.002 Y153.230 E71.06723
G1 X72.579 Y170.654 E73.31335
G1 X72.579 Y171.920 E73.42871
G1 X90.002 Y154.496 E75.67483
G1 X90.002 Y155.762 E75.79020
G1 X72.579 Y173.185 E78.03632
G1 X72.579 Y174.451 E78.15168
G1 X90.002 Y157.027 E80.39780
G1 X90.002 Y158.293 E80.51317
G1 X72.579 Y175.716 E82.75929
G1 X72.579 Y176.982 E82.87465
G1 X90.002 Y159.558 E85.12077
G1 X90.002 Y160.824 E85.23614
G1 X72.579 Y178.248 E87.48226
G1 X72.579 Y179.513 E87.59762
G1 X90.002 Y162.090 E89.84374
G1 X90.002 Y163.355 E89.95911
G1 X72.579 Y180.779 E92.20522
G1 X72.579 Y181.768 E92.29540
G1 X72.855 Y181.768 E92.32059
G1 X90.002 Y164.621 E94.53109
G1 X90.002 Y165.886 E94.64645
G1 X74.121 Y181.768 E96.69380
G1 X75.386 Y181.768 E96.80916
G1 X90.002 Y167.152 E98.69336
G1 X90.002 Y168.418 E98.80872
G1 X76.652 Y181.768 E100.52977
G1 X77.917 Y181.768 E100.64513
G1 X90.002 Y169.683 E102.20303
G1 X90.002 Y170.949 E102.31839
G1 X79.183 Y181.768 E103.71313
G1 X80.449 Y181.768 E103.82850
G1 X90.002 Y172.214 E105.06009
G1 X90.002 Y173.480 E105.17545
G1 X81.714 Y181.768 E106.24389
G1 X82.980 Y181.768 E106.35926
G1 X90.002 Y174.746 E107.26454
G1 X90.002 Y176.011 E107.37991
G1 X84.245 Y181.768 E108.12204
G1 X85.511 Y181.768 E108.23741
G1 X90.002 Y177.277 E108.81639
G1 X90.002 Y178.542 E108.93175
G1 X86.777 Y181.768 E109.34759
G1 X88.042 Y181.768 E109.46295
G1 X90.002 Y179.808 E109.71563
G1 X90.002 Y181.074 E109.83100
G1 X89.308 Y181.768 E109.92053
G1 E107.92053 F2400.00000
G92 E0
G1 X79.967 Y96.742 F7800.000
G1 E2.00000 F2400.00000
G1 F1800
G1 X61.452 Y96.742 E3.68352
G1 X61.452 Y53.650 E7.60183
G1 X59.069 Y41.734 E8.70687
G1 X88.323 Y41.734 E11.36693
G1 X79.967 Y53.128 E12.65180
G1 X79.967 Y96.682 E16.61210
G1 X80.860 Y97.635 F7800.000
G1 F1800
G1 X60.560 Y97.635 E18.45797
G1 X60.560 Y53.739 E22.44941
G1 X57.980 Y40.841 E23.64542
G1 X90.085 Y40.841 E26.56469
G1 X80.860 Y53.421 E27.98317
G1 X80.860 Y97.575 E31.99807
G1 E29.99807 F2400.00000
G92 E0
G1 X90.981 Y39.931 F7800.000
G1 E2.00000 F2400.00000
G1 F1800
G1 X90.981 Y23.621 E3.48302
G1 X92.333 Y23.621 E3.60595
G1 X92.333 Y39.285 E5.03023
G1 X81.752 Y53.713 E6.65716
G1 X81.752 Y98.527 E10.73212
G1 X59.667 Y98.527 E12.74034
G1 X59.667 Y53.827 E16.80491
G1 X56.781 Y39.399 E18.14286
G1 X56.781 Y23.621 E19.57753
G1 X58.667 Y23.621 E19.74899
G1 X58.667 Y39.948 E21.23363
G1 X89.486 Y39.948 E24.03595
G1 X89.486 Y39.931 E24.03756
G1 X90.921 Y39.931 E24.16811
G1 X91.381 Y39.929 F7800.000
G1 X91.657 Y39.452 F7800.000
G1 F1800
G1 X91.657 Y24.067 E24.71948
G1 E22.71948 F2400.00000
G92 E0
G1 X57.724 Y24.067 F7800.000
G1 E2.00000 F2400.00000
G1 F1800
G1 X57.724 Y39.305 E3.37469
G1 X57.760 Y39.668 E3.40760
G1 F1800
G1 X57.832 Y40.395 E3.46697
G1 E1.46697 F2400.00000
G92 E0
G1 X59.811 Y42.974 F7800.000
G1 E2.00000 F2400.00000
G1 F1800
G1 X60.505 Y42.279 E2.08951
G1 X61.771 Y42.279 E2.20488
G1 X60.022 Y44.028 E2.43036
G1 X60.233 Y45.083 E2.52841
G1 X63.036 Y42.279 E2.88985
G1 X64.302 Y42.279 E3.00522
G1 X60.444 Y46.138 E3.50263
G1 X60.654 Y47.192 E3.60067
G1 X65.568 Y42.279 E4.23404
G1 X66.833 Y42.279 E4.34940
G1 X60.865 Y48.247 E5.11873
G1 X61.076 Y49.302 E5.21677
G1 X68.099 Y42.279 E6.12205
G1 X69.364 Y42.279 E6.23742
G1 X61.287 Y50.356 E7.27866
G1 X61.498 Y51.411 E7.37671
G1 X70.630 Y42.279 E8.55391
G1 X71.896 Y42.279 E8.66928
G1 X61.709 Y52.466 E9.98244
G1 X61.920 Y53.520 E10.08048
G1 X73.161 Y42.279 E11.52961
G1 X74.427 Y42.279 E11.64497
G1 X61.998 Y54.708 E13.24722
G1 X61.998 Y55.974 E13.36259
G1 X75.692 Y42.279 E15.12799
G1 X76.958 Y42.279 E15.24335
G1 X61.998 Y57.239 E17.17191
G1 X61.998 Y58.505 E17.28727
G1 X78.224 Y42.279 E19.37898
G1 X79.489 Y42.279 E19.49434
G1 X61.998 Y59.771 E21.74920
G1 X61.998 Y61.036 E21.86456
G1 X80.755 Y42.279 E24.28257
G1 X82.020 Y42.279 E24.39793
G1 X61.998 Y62.302 E26.97909
G1 X61.998 Y63.567 E27.09446
G1 X83.286 Y42.279 E29.83877
G1 X84.552 Y42.279 E29.95413
G1 X61.998 Y64.833 E32.86159
G1 X61.998 Y66.098 E32.97696
G1 X85.817 Y42.279 E36.04757
G1 X86.909 Y42.279 E36.14707
G1 X86.430 Y42.932 E36.22087
G1 X61.998 Y67.364 E39.37047
G1 X61.998 Y68.630 E39.48583
G1 X82.949 Y47.678 E42.18677
G1 X79.469 Y52.424 E42.72324
G1 X61.998 Y69.895 E44.97551
G1 X61.998 Y71.161 E45.09088
G1 X79.421 Y53.737 E47.33700
G1 X79.421 Y55.003 E47.45236
G1 X61.998 Y72.426 E49.69849
G1 X61.998 Y73.692 E49.81385
G1 X79.421 Y56.268 E52.05997
G1 X79.421 Y57.534 E52.17534
G1 X61.998 Y74.958 E54.42146
G1 X61.998 Y76.223 E54.53682
G1 X79.421 Y58.800 E56.78294
G1 X79.421 Y60.065 E56.89831
G1 X61.998 Y77.489 E59.14443
G1 X61.998 Y78.754 E59.25979
G1 X79.421 Y61.331 E61.50591
G1 X79.421 Y62.596 E61.62128
G1 X61.998 Y80.020 E63.86740
G1 X61.998 Y81.286 E63.98276
G1 X79.421 Y63.862 E66.22888
G1 X79.421 Y65.128 E66.34425
G1 X61.998 Y82.551 E68.59037
G1 X61.998 Y83.817 E68.70573
G1 X79.421 Y66.393 E70.95185
G1 X79.421 Y67.659 E71.06722
G1 X61.998 Y85.082 E73.31334
G1 X61.998 Y86.348 E73.42870
G1 X79.421 Y68.924 E75.67482
G1 X79.421 Y70.190 E75.79019
G1 X61.998 Y87.614 E78.03631
G1 X61.998 Y88.879 E78.15168
G1 X79.421 Y71.456 E80.39780
G1 X79.421 Y72.721 E80.51316
G1 X61.998 Y90.145 E82.75928
G1 X61.998 Y91.410 E82.87465
G1 X79.421 Y73.987 E85.12077
G1 X79.421 Y75.252 E85.23613
G1 X61.998 Y92.676 E87.48225
G1 X61.998 Y93.942 E87.59762
G1 X79.421 Y76.518 E89.84374
G1 X79.421 Y77.784 E89.95910
G1 X61.998 Y95.207 E92.20522
G1 X61.998 Y96.196 E92.29540
